;FLAVOR:Marlin
;TIME:7630
;Filament used: 6.12556m
;Layer height: 0.175
;MINX:14.856
;MINY:9.093
;MINZ:0.263
;MAXX:102.925
;MAXY:110.907
;MAXZ:30.013
;Generated with Cura_SteamEngine 4.13.1
M140 S65
M105
M190 S65
M104 S205
M105
M109 S205
M82 ;absolute extrusion mode
G21;(metric values)
G90;(absolute positioning)
M82;(set extruder to absolute mode)
M107;(start with the fan off)
G28;(Home the printer)
G92 E0;(Reset the extruder to 0)
G0 Z5 E5 F500;(Move up and prime the nozzle)
G0 X-1 Z0;(Move outside the printable area)
G1 Y60 E8 F500;(Draw a priming/wiping line to the rear)
G1 X-1;(Move a little closer to the print area)
G1 Y10 E16 F500;(draw more priming/wiping)
G1 E15 F250;(Small retract)
G92 E0;(Zero the extruder)
G92 E0
G92 E0
G1 F2400 E-2.5
;LAYER_COUNT:171
;LAYER:0
M107
G0 F4320 X28.081 Y23.338 Z0.263
;TYPE:SKIRT
G1 F2400 E0
G1 F1800 X28.289 Y23.104 E0.01198
G1 X30.089 Y21.199 E0.11228
G1 X30.32 Y20.969 E0.12476
G1 X32.216 Y19.204 E0.22389
G1 X32.467 Y18.985 E0.23664
G1 X34.453 Y17.366 E0.3347
G1 X34.721 Y17.163 E0.34756
G1 X36.786 Y15.696 E0.4445
G1 X37.079 Y15.502 E0.45795
G1 X39.215 Y14.197 E0.55375
G1 X39.521 Y14.024 E0.5672
G1 X41.725 Y12.879 E0.66225
G1 X42.052 Y12.724 E0.6761
G1 X44.309 Y11.749 E0.77019
G1 X44.652 Y11.615 E0.78428
G1 X46.957 Y10.812 E0.87769
G1 X47.312 Y10.703 E0.8919
G1 X49.653 Y10.075 E0.98466
G1 X50.02 Y9.991 E0.99907
G1 X52.391 Y9.54 E1.09144
G1 X52.767 Y9.483 E1.10599
G1 X55.155 Y9.212 E1.19796
G1 X55.603 Y9.179 E1.21516
G1 X57.938 Y9.093 E1.30458
G1 X58.315 Y9.094 E1.319
G1 X60.713 Y9.184 E1.41084
G1 X61.095 Y9.212 E1.4255
G1 X63.483 Y9.483 E1.51747
G1 X63.857 Y9.54 E1.53195
G1 X66.228 Y9.99 E1.62431
G1 X66.598 Y10.075 E1.63884
G1 X68.941 Y10.704 E1.73168
G1 X69.296 Y10.813 E1.74589
G1 X71.599 Y11.616 E1.83923
G1 X71.941 Y11.749 E1.85327
G1 X74.198 Y12.724 E1.94736
G1 X74.525 Y12.879 E1.96121
G1 X76.729 Y14.024 E2.05626
G1 X77.035 Y14.197 E2.06972
G1 X79.171 Y15.502 E2.16551
G1 X79.464 Y15.696 E2.17896
G1 X81.529 Y17.163 E2.2759
G1 X81.796 Y17.366 E2.28873
G1 X83.781 Y18.984 E2.38674
G1 X84.033 Y19.203 E2.39952
G1 X85.929 Y20.968 E2.49865
G1 X86.16 Y21.197 E2.5111
G1 X87.961 Y23.103 E2.61145
G1 X88.169 Y23.338 E2.62346
G1 X89.866 Y25.372 E2.72484
G1 X90.06 Y25.619 E2.73686
G1 X91.646 Y27.779 E2.83941
G1 X91.817 Y28.028 E2.85097
G1 X93.289 Y30.305 E2.95473
G1 X93.443 Y30.559 E2.9661
G1 X94.791 Y32.939 E3.07078
G1 X94.928 Y33.198 E3.08199
G1 X96.149 Y35.677 E3.18775
G1 X96.267 Y35.934 E3.19857
G1 X97.357 Y38.499 E3.30523
G1 X97.46 Y38.763 E3.31607
G1 X98.413 Y41.406 E3.4236
G1 X98.5 Y41.669 E3.4342
G1 X99.313 Y44.379 E3.54247
G1 X99.385 Y44.643 E3.55295
G1 X100.054 Y47.407 E3.66178
G1 X100.11 Y47.671 E3.67211
G1 X100.634 Y50.482 E3.78154
G1 X100.676 Y50.748 E3.79184
G1 X101.051 Y53.591 E3.90159
G1 X101.079 Y53.858 E3.91186
G1 X101.304 Y56.725 E4.02192
G1 X101.318 Y56.988 E4.032
G1 X101.394 Y59.865 E4.14214
G1 X101.394 Y60.133 E4.15239
G1 X101.318 Y63.011 E4.26257
G1 X101.304 Y63.274 E4.27265
G1 X101.079 Y66.141 E4.38271
G1 X101.051 Y66.408 E4.39298
G1 X100.676 Y69.251 E4.50273
G1 X100.634 Y69.515 E4.51296
G1 X100.111 Y72.327 E4.62242
G1 X100.054 Y72.595 E4.63291
G1 X99.384 Y75.358 E4.74171
G1 X99.313 Y75.62 E4.7521
G1 X98.5 Y78.33 E4.86038
G1 X98.413 Y78.593 E4.87098
G1 X97.46 Y81.237 E4.97854
G1 X97.356 Y81.502 E4.98943
G1 X96.266 Y84.066 E5.09605
G1 X96.149 Y84.322 E5.10682
G1 X94.928 Y86.802 E5.21261
G1 X94.791 Y87.061 E5.22383
G1 X93.443 Y89.441 E5.3285
G1 X93.289 Y89.695 E5.33987
G1 X91.818 Y91.971 E5.44358
G1 X91.647 Y92.22 E5.45514
G1 X90.061 Y94.38 E5.5577
G1 X89.867 Y94.627 E5.56972
G1 X88.169 Y96.662 E5.67114
G1 X87.961 Y96.896 E5.68313
G1 X86.161 Y98.801 E5.78343
G1 X85.93 Y99.031 E5.7959
G1 X84.034 Y100.796 E5.89504
G1 X83.783 Y101.015 E5.90778
G1 X81.797 Y102.634 E6.00584
G1 X81.529 Y102.837 E6.01871
G1 X79.464 Y104.304 E6.11565
G1 X79.171 Y104.498 E6.1291
G1 X77.035 Y105.803 E6.22489
G1 X76.729 Y105.976 E6.23834
G1 X74.525 Y107.121 E6.33339
G1 X74.198 Y107.276 E6.34724
G1 X71.941 Y108.251 E6.44133
G1 X71.598 Y108.385 E6.45543
G1 X69.293 Y109.188 E6.54884
G1 X68.938 Y109.297 E6.56305
G1 X66.597 Y109.925 E6.65581
G1 X66.23 Y110.009 E6.67021
G1 X63.859 Y110.46 E6.76258
G1 X63.483 Y110.517 E6.77713
G1 X61.095 Y110.788 E6.86911
G1 X60.647 Y110.821 E6.8863
G1 X58.312 Y110.907 E6.97572
G1 X57.935 Y110.906 E6.99015
G1 X55.537 Y110.816 E7.08198
G1 X55.155 Y110.788 E7.09664
G1 X52.767 Y110.517 E7.18862
G1 X52.393 Y110.46 E7.2031
G1 X50.022 Y110.01 E7.29545
G1 X49.652 Y109.925 E7.30998
G1 X47.309 Y109.296 E7.40282
G1 X46.954 Y109.187 E7.41704
G1 X44.651 Y108.384 E7.51038
G1 X44.309 Y108.251 E7.52442
G1 X42.052 Y107.276 E7.61851
G1 X41.725 Y107.121 E7.63236
G1 X39.521 Y105.976 E7.72741
G1 X39.215 Y105.803 E7.74086
G1 X37.079 Y104.498 E7.83665
G1 X36.786 Y104.304 E7.8501
G1 X34.721 Y102.837 E7.94704
G1 X34.453 Y102.634 E7.95991
G1 X32.467 Y101.015 E8.05797
G1 X32.216 Y100.796 E8.07072
G1 X30.32 Y99.031 E8.16985
G1 X30.089 Y98.801 E8.18232
G1 X28.289 Y96.896 E8.28263
G1 X28.081 Y96.662 E8.29461
G1 X26.383 Y94.627 E8.39604
G1 X26.189 Y94.38 E8.40806
G1 X24.603 Y92.22 E8.51061
G1 X24.432 Y91.971 E8.52217
G1 X22.961 Y89.695 E8.62588
G1 X22.807 Y89.441 E8.63725
G1 X21.459 Y87.061 E8.74193
G1 X21.322 Y86.802 E8.75314
G1 X20.101 Y84.322 E8.85893
G1 X19.984 Y84.066 E8.8697
G1 X18.894 Y81.502 E8.97632
G1 X18.79 Y81.237 E8.98722
G1 X17.837 Y78.593 E9.09477
G1 X17.75 Y78.33 E9.10538
G1 X16.937 Y75.62 E9.21365
G1 X16.866 Y75.356 E9.22412
G1 X16.197 Y72.593 E9.33291
G1 X16.14 Y72.329 E9.34325
G1 X15.616 Y69.517 E9.45272
G1 X15.574 Y69.251 E9.46302
G1 X15.199 Y66.408 E9.57276
G1 X15.171 Y66.141 E9.58304
G1 X14.946 Y63.274 E9.6931
G1 X14.932 Y63.011 E9.70318
G1 X14.856 Y60.135 E9.81328
G1 X14.856 Y59.867 E9.82353
G1 X14.932 Y56.989 E9.93371
G1 X14.946 Y56.726 E9.94379
G1 X15.171 Y53.859 E10.05385
G1 X15.199 Y53.592 E10.06412
G1 X15.574 Y50.749 E10.17387
G1 X15.616 Y50.485 E10.1841
G1 X16.139 Y47.673 E10.29356
G1 X16.196 Y47.405 E10.30404
G1 X16.866 Y44.642 E10.41285
G1 X16.937 Y44.38 E10.42324
G1 X17.75 Y41.67 E10.53152
G1 X17.837 Y41.407 E10.54212
G1 X18.79 Y38.763 E10.64967
G1 X18.894 Y38.498 E10.66057
G1 X19.984 Y35.934 E10.76719
G1 X20.101 Y35.678 E10.77796
G1 X21.322 Y33.198 E10.88375
G1 X21.459 Y32.939 E10.89497
G1 X22.807 Y30.559 E10.99964
G1 X22.961 Y30.305 E11.01101
G1 X24.432 Y28.029 E11.11472
G1 X24.603 Y27.78 E11.12628
G1 X26.189 Y25.62 E11.22884
G1 X26.383 Y25.373 E11.24086
G1 X27.637 Y23.87 E11.31577
G0 F1620 X28.081 Y23.338
G0 F4320 X28.35 Y23.562
G1 F1800 X28.544 Y23.344 E11.32693
G1 X30.344 Y21.439 E11.42723
G1 X30.559 Y21.226 E11.43882
G1 X32.455 Y19.461 E11.53795
G1 X32.688 Y19.257 E11.5498
G1 X34.674 Y17.638 E11.64786
G1 X34.924 Y17.448 E11.65988
G1 X36.989 Y15.981 E11.75682
G1 X37.262 Y15.801 E11.76933
G1 X39.398 Y14.496 E11.86513
G1 X39.683 Y14.335 E11.87765
G1 X41.887 Y13.19 E11.9727
G1 X42.191 Y13.045 E11.98559
G1 X44.448 Y12.07 E12.07968
G1 X44.768 Y11.946 E12.09282
G1 X47.073 Y11.143 E12.18623
G1 X47.403 Y11.041 E12.19945
G1 X49.744 Y10.413 E12.2922
G1 X50.085 Y10.335 E12.30559
G1 X52.456 Y9.884 E12.39796
G1 X52.806 Y9.831 E12.4115
G1 X55.194 Y9.56 E12.50348
G1 X55.616 Y9.529 E12.51967
G1 X57.951 Y9.443 E12.60909
G1 X58.302 Y9.443 E12.62253
G1 X60.7 Y9.533 E12.71436
G1 X61.056 Y9.56 E12.72802
G1 X63.444 Y9.831 E12.82
G1 X63.792 Y9.884 E12.83347
G1 X66.163 Y10.334 E12.92583
G1 X66.507 Y10.413 E12.93934
G1 X68.85 Y11.042 E13.03218
G1 X69.181 Y11.143 E13.04542
G1 X71.484 Y11.946 E13.13876
G1 X71.802 Y12.07 E13.15182
G1 X74.059 Y13.045 E13.24591
G1 X74.363 Y13.19 E13.2588
G1 X76.567 Y14.335 E13.35385
G1 X76.852 Y14.496 E13.36638
G1 X78.988 Y15.801 E13.46217
G1 X79.261 Y15.981 E13.47469
G1 X81.326 Y17.448 E13.57163
G1 X81.575 Y17.638 E13.58361
G1 X83.56 Y19.256 E13.68162
G1 X83.794 Y19.46 E13.6935
G1 X85.69 Y21.225 E13.79263
G1 X85.905 Y21.438 E13.80422
G1 X87.706 Y23.344 E13.90457
G1 X87.9 Y23.562 E13.91574
G1 X89.597 Y25.596 E14.01711
G1 X89.778 Y25.827 E14.02835
G1 X91.364 Y27.987 E14.1309
G1 X91.523 Y28.218 E14.14163
G1 X92.995 Y30.495 E14.24539
G1 X93.138 Y30.731 E14.25596
G1 X94.486 Y33.111 E14.36063
G1 X94.614 Y33.352 E14.37108
G1 X95.835 Y35.831 E14.47683
G1 X95.945 Y36.071 E14.48693
G1 X97.035 Y38.636 E14.59359
G1 X97.131 Y38.881 E14.60366
G1 X98.084 Y41.524 E14.71118
G1 X98.165 Y41.769 E14.72106
G1 X98.978 Y44.479 E14.82934
G1 X99.044 Y44.725 E14.83908
G1 X99.713 Y47.489 E14.94792
G1 X99.766 Y47.735 E14.95755
G1 X100.29 Y50.546 E15.06698
G1 X100.329 Y50.794 E15.07658
G1 X100.704 Y53.637 E15.18633
G1 X100.731 Y53.885 E15.19588
G1 X100.956 Y56.752 E15.30593
G1 X100.968 Y56.997 E15.31532
G1 X101.044 Y59.874 E15.42546
G1 X101.044 Y60.124 E15.43503
G1 X100.968 Y63.002 E15.54521
G1 X100.956 Y63.247 E15.5546
G1 X100.731 Y66.114 E15.66465
G1 X100.704 Y66.362 E15.6742
G1 X100.329 Y69.205 E15.78394
G1 X100.29 Y69.451 E15.79348
G1 X99.767 Y72.263 E15.90294
G1 X99.714 Y72.512 E15.91268
G1 X99.044 Y75.275 E16.02148
G1 X98.978 Y75.52 E16.03119
G1 X98.165 Y78.23 E16.13947
G1 X98.084 Y78.474 E16.14931
G1 X97.131 Y81.118 E16.25687
G1 X97.034 Y81.365 E16.26702
G1 X95.944 Y83.929 E16.37365
G1 X95.835 Y84.167 E16.38366
G1 X94.614 Y86.647 E16.48945
G1 X94.486 Y86.889 E16.49993
G1 X93.138 Y89.269 E16.60461
G1 X92.995 Y89.505 E16.61517
G1 X91.524 Y91.781 E16.71888
G1 X91.365 Y92.012 E16.72961
G1 X89.779 Y94.172 E16.83216
G1 X89.598 Y94.403 E16.8434
G1 X87.9 Y96.438 E16.94483
G1 X87.706 Y96.656 E16.95599
G1 X85.906 Y98.561 E17.05629
G1 X85.691 Y98.774 E17.06788
G1 X83.795 Y100.539 E17.16701
G1 X83.562 Y100.743 E17.17886
G1 X81.576 Y102.362 E17.27692
G1 X81.326 Y102.552 E17.28894
G1 X79.261 Y104.019 E17.38588
G1 X78.988 Y104.199 E17.39839
G1 X76.852 Y105.504 E17.49418
G1 X76.567 Y105.665 E17.50671
G1 X74.363 Y106.81 E17.60176
G1 X74.059 Y106.955 E17.61465
G1 X71.802 Y107.93 E17.70874
G1 X71.482 Y108.054 E17.72188
G1 X69.177 Y108.857 E17.81529
G1 X68.847 Y108.959 E17.82851
G1 X66.506 Y109.587 E17.92126
G1 X66.165 Y109.665 E17.93465
G1 X63.794 Y110.116 E18.02702
G1 X63.444 Y110.169 E18.04056
G1 X61.056 Y110.44 E18.13254
G1 X60.634 Y110.471 E18.14873
G1 X58.299 Y110.557 E18.23815
G1 X57.948 Y110.557 E18.25158
G1 X55.55 Y110.467 E18.34342
G1 X55.194 Y110.44 E18.35708
G1 X52.806 Y110.169 E18.44906
G1 X52.458 Y110.116 E18.46253
G1 X50.087 Y109.666 E18.55489
G1 X49.743 Y109.587 E18.5684
G1 X47.4 Y108.958 E18.66124
G1 X47.069 Y108.857 E18.67448
G1 X44.766 Y108.054 E18.76782
G1 X44.448 Y107.93 E18.78088
G1 X42.191 Y106.955 E18.87497
G1 X41.887 Y106.81 E18.88786
G1 X39.683 Y105.665 E18.98291
G1 X39.398 Y105.504 E18.99544
G1 X37.262 Y104.199 E19.09123
G1 X36.989 Y104.019 E19.10375
G1 X34.924 Y102.552 E19.20069
G1 X34.674 Y102.362 E19.2127
G1 X32.688 Y100.743 E19.31076
G1 X32.455 Y100.539 E19.32262
G1 X30.559 Y98.774 E19.42175
G1 X30.344 Y98.561 E19.43333
G1 X28.544 Y96.656 E19.53363
G1 X28.35 Y96.438 E19.5448
G1 X26.652 Y94.403 E19.64623
G1 X26.471 Y94.172 E19.65746
G1 X24.885 Y92.012 E19.76001
G1 X24.726 Y91.781 E19.77075
G1 X23.255 Y89.505 E19.87446
G1 X23.112 Y89.269 E19.88502
G1 X21.764 Y86.889 E19.98969
G1 X21.636 Y86.647 E20.00017
G1 X20.415 Y84.167 E20.10596
G1 X20.306 Y83.929 E20.11598
G1 X19.216 Y81.365 E20.2226
G1 X19.119 Y81.118 E20.23276
G1 X18.166 Y78.474 E20.34031
G1 X18.085 Y78.23 E20.35015
G1 X17.272 Y75.52 E20.45843
G1 X17.206 Y75.274 E20.46818
G1 X16.537 Y72.511 E20.57697
G1 X16.484 Y72.265 E20.5866
G1 X15.96 Y69.453 E20.69607
G1 X15.921 Y69.205 E20.70568
G1 X15.546 Y66.362 E20.81542
G1 X15.519 Y66.114 E20.82497
G1 X15.294 Y63.247 E20.93503
G1 X15.282 Y63.002 E20.94441
G1 X15.206 Y60.126 E21.05452
G1 X15.206 Y59.876 E21.06409
G1 X15.282 Y56.998 E21.17426
G1 X15.294 Y56.753 E21.18365
G1 X15.519 Y53.886 E21.29371
G1 X15.546 Y53.638 E21.30326
G1 X15.921 Y50.795 E21.413
G1 X15.96 Y50.549 E21.42253
G1 X16.483 Y47.737 E21.53199
G1 X16.536 Y47.488 E21.54174
G1 X17.206 Y44.725 E21.65054
G1 X17.272 Y44.48 E21.66025
G1 X18.085 Y41.77 E21.76853
G1 X18.166 Y41.526 E21.77837
G1 X19.119 Y38.882 E21.88592
G1 X19.216 Y38.635 E21.89608
G1 X20.306 Y36.071 E22.0027
G1 X20.415 Y35.833 E22.01272
G1 X21.636 Y33.353 E22.11851
G1 X21.764 Y33.111 E22.12899
G1 X23.112 Y30.731 E22.23366
G1 X23.255 Y30.495 E22.24422
G1 X24.726 Y28.219 E22.34794
G1 X24.885 Y27.988 E22.35867
G1 X26.471 Y25.828 E22.46122
G1 X26.652 Y25.597 E22.47245
G1 X27.906 Y24.094 E22.54736
G0 F1620 X28.35 Y23.562
G0 F4320 X28.619 Y23.786
G1 F1800 X28.798 Y23.584 E22.55769
G1 X30.598 Y21.679 E22.65799
G1 X30.797 Y21.482 E22.66871
G1 X32.693 Y19.717 E22.76784
G1 X32.91 Y19.528 E22.77886
G1 X34.896 Y17.909 E22.87691
G1 X35.126 Y17.733 E22.888
G1 X37.191 Y16.266 E22.98494
G1 X37.444 Y16.1 E22.99652
G1 X39.58 Y14.795 E23.09231
G1 X39.844 Y14.646 E23.10391
G1 X42.048 Y13.501 E23.19896
G1 X42.33 Y13.367 E23.21091
G1 X44.587 Y12.392 E23.305
G1 X44.883 Y12.277 E23.31715
G1 X47.188 Y11.474 E23.41057
G1 X47.493 Y11.379 E23.42279
G1 X49.834 Y10.751 E23.51555
G1 X50.15 Y10.679 E23.52795
G1 X52.521 Y10.228 E23.62032
G1 X52.846 Y10.179 E23.6329
G1 X55.234 Y9.908 E23.72487
G1 X55.629 Y9.879 E23.74003
G1 X57.964 Y9.793 E23.82945
G1 X58.289 Y9.793 E23.84189
G1 X60.687 Y9.883 E23.93372
G1 X61.016 Y9.908 E23.94635
G1 X63.404 Y10.179 E24.03832
G1 X63.727 Y10.228 E24.05083
G1 X66.098 Y10.678 E24.14319
G1 X66.416 Y10.751 E24.15567
G1 X68.759 Y11.38 E24.24851
G1 X69.065 Y11.474 E24.26076
G1 X71.368 Y12.277 E24.3541
G1 X71.663 Y12.392 E24.36622
G1 X73.92 Y13.367 E24.46031
G1 X74.202 Y13.501 E24.47226
G1 X76.406 Y14.646 E24.56731
G1 X76.67 Y14.795 E24.57891
G1 X78.806 Y16.1 E24.6747
G1 X79.059 Y16.266 E24.68628
G1 X81.124 Y17.733 E24.78322
G1 X81.354 Y17.909 E24.79431
G1 X83.339 Y19.527 E24.89231
G1 X83.556 Y19.716 E24.90333
G1 X85.452 Y21.481 E25.00246
G1 X85.651 Y21.678 E25.01318
G1 X87.452 Y23.584 E25.11353
G1 X87.631 Y23.786 E25.12386
G1 X89.328 Y25.82 E25.22523
G1 X89.495 Y26.034 E25.23562
G1 X91.081 Y28.194 E25.33818
G1 X91.229 Y28.408 E25.34813
G1 X92.701 Y30.685 E25.4519
G1 X92.834 Y30.904 E25.4617
G1 X94.182 Y33.284 E25.56638
G1 X94.3 Y33.507 E25.57604
G1 X95.521 Y35.986 E25.68179
G1 X95.623 Y36.208 E25.69114
G1 X96.713 Y38.773 E25.7978
G1 X96.802 Y39 E25.80713
G1 X97.755 Y41.643 E25.91465
G1 X97.829 Y41.87 E25.92379
G1 X98.642 Y44.58 E26.03207
G1 X98.704 Y44.808 E26.04111
G1 X99.373 Y47.572 E26.14994
G1 X99.422 Y47.799 E26.15883
G1 X99.946 Y50.61 E26.26826
G1 X99.982 Y50.84 E26.27717
G1 X100.357 Y53.683 E26.38691
G1 X100.382 Y53.913 E26.39577
G1 X100.607 Y56.78 E26.50582
G1 X100.618 Y57.006 E26.51448
G1 X100.694 Y59.883 E26.62462
G1 X100.694 Y60.114 E26.63346
G1 X100.618 Y62.992 E26.74364
G1 X100.607 Y63.219 E26.75234
G1 X100.382 Y66.086 E26.8624
G1 X100.357 Y66.316 E26.87125
G1 X99.982 Y69.159 E26.981
G1 X99.946 Y69.387 E26.98983
G1 X99.423 Y72.199 E27.09929
G1 X99.374 Y72.43 E27.10833
G1 X98.704 Y75.193 E27.21713
G1 X98.642 Y75.419 E27.2261
G1 X97.829 Y78.129 E27.33438
G1 X97.755 Y78.355 E27.34348
G1 X96.802 Y80.999 E27.45104
G1 X96.712 Y81.228 E27.46045
G1 X95.622 Y83.792 E27.56708
G1 X95.521 Y84.012 E27.57634
G1 X94.3 Y86.492 E27.68213
G1 X94.182 Y86.716 E27.69182
G1 X92.834 Y89.096 E27.7965
G1 X92.701 Y89.315 E27.8063
G1 X91.23 Y91.591 E27.91001
G1 X91.082 Y91.805 E27.91997
G1 X89.496 Y93.965 E28.02252
G1 X89.329 Y94.179 E28.03291
G1 X87.631 Y96.214 E28.13434
G1 X87.452 Y96.416 E28.14467
G1 X85.652 Y98.321 E28.24497
G1 X85.453 Y98.518 E28.25569
G1 X83.557 Y100.283 E28.35482
G1 X83.34 Y100.472 E28.36583
G1 X81.354 Y102.091 E28.46389
G1 X81.124 Y102.267 E28.47498
G1 X79.059 Y103.734 E28.57191
G1 X78.806 Y103.9 E28.5835
G1 X76.67 Y105.205 E28.67929
G1 X76.406 Y105.354 E28.69089
G1 X74.202 Y106.499 E28.78594
G1 X73.92 Y106.633 E28.79789
G1 X71.663 Y107.608 E28.89198
G1 X71.367 Y107.723 E28.90413
G1 X69.062 Y108.526 E28.99754
G1 X68.757 Y108.621 E29.00977
G1 X66.416 Y109.249 E29.10253
G1 X66.1 Y109.321 E29.11493
G1 X63.729 Y109.772 E29.20729
G1 X63.404 Y109.821 E29.21987
G1 X61.016 Y110.092 E29.31185
G1 X60.621 Y110.121 E29.32701
G1 X58.286 Y110.207 E29.41643
G1 X57.961 Y110.207 E29.42886
G1 X55.563 Y110.117 E29.5207
