;FLAVOR:Marlin
;TIME:344
;Filament used: 0.126985m
;Layer height: 0.175
;MINX:49.928
;MINY:49.928
;MINZ:0.263
;MAXX:70.072
;MAXY:70.072
;MAXZ:10.938
;Generated with Cura_SteamEngine 4.13.1
M140 S65
M105
M190 S65
M104 S205
M105
M109 S205
M82 ;absolute extrusion mode
G21;(metric values)
G90;(absolute positioning)
M82;(set extruder to absolute mode)
M107;(start with the fan off)
G28;(Home the printer)
G92 E0;(Reset the extruder to 0)
G0 Z5 E5 F500;(Move up and prime the nozzle)
G0 X-1 Z0;(Move outside the printable area)
G1 Y60 E8 F500;(Draw a priming/wiping line to the rear)
G1 X-1;(Move a little closer to the print area)
G1 Y10 E16 F500;(draw more priming/wiping)
G1 E15 F250;(Small retract)
G92 E0;(Zero the extruder)
G92 E0
G92 E0
G1 F2400 E-2.5
;LAYER_COUNT:62
;LAYER:0
M107
G0 F4320 X52.765 Y52.988 Z0.263
;TYPE:SKIRT
G1 F2400 E0
G1 F1800 X53.23 Y52.54 E0.02471
G1 X53.705 Y52.135 E0.0486
G1 X54.201 Y51.763 E0.07233
G1 X54.727 Y51.416 E0.09644
G1 X55.301 Y51.088 E0.12174
G1 X55.85 Y50.821 E0.14511
G1 X56.453 Y50.571 E0.17009
G1 X57.042 Y50.371 E0.19389
G1 X57.643 Y50.207 E0.21773
G1 X58.255 Y50.079 E0.24166
G1 X58.906 Y49.986 E0.26683
G1 X59.525 Y49.938 E0.29059
G1 X60.162 Y49.928 E0.31497
G1 X60.78 Y49.957 E0.33865
G1 X61.435 Y50.029 E0.36386
G1 X62.05 Y50.138 E0.38777
G1 X62.658 Y50.284 E0.4117
G1 X63.25 Y50.465 E0.43539
G1 X63.862 Y50.696 E0.46042
G1 X64.418 Y50.946 E0.48375
G1 X65.004 Y51.256 E0.50912
G1 X65.535 Y51.583 E0.53299
G1 X66.046 Y51.942 E0.55689
G1 X66.533 Y52.332 E0.58077
G1 X67.012 Y52.765 E0.60548
G1 X67.46 Y53.23 E0.63019
G1 X67.865 Y53.705 E0.65408
G1 X68.237 Y54.201 E0.6778
G1 X68.584 Y54.727 E0.70192
G1 X68.912 Y55.301 E0.72722
G1 X69.179 Y55.85 E0.75058
G1 X69.427 Y56.448 E0.77536
G1 X69.63 Y57.046 E0.79953
G1 X69.793 Y57.64 E0.8231
G1 X69.921 Y58.254 E0.8471
G1 X70.014 Y58.905 E0.87227
G1 X70.062 Y59.524 E0.89603
G1 X70.072 Y60.161 E0.92041
G1 X70.043 Y60.78 E0.94412
G1 X69.971 Y61.435 E0.96934
G1 X69.862 Y62.05 E0.99325
G1 X69.716 Y62.658 E1.01718
G1 X69.535 Y63.25 E1.04087
G1 X69.304 Y63.862 E1.0659
G1 X69.057 Y64.412 E1.08897
G1 X68.742 Y65.008 E1.11477
G1 X68.417 Y65.535 E1.13847
G1 X68.058 Y66.046 E1.16237
G1 X67.668 Y66.533 E1.18624
G1 X67.235 Y67.012 E1.21096
G1 X66.77 Y67.46 E1.23567
G1 X66.295 Y67.865 E1.25956
G1 X65.799 Y68.237 E1.28328
G1 X65.273 Y68.584 E1.3074
G1 X64.699 Y68.912 E1.3327
G1 X64.15 Y69.179 E1.35606
G1 X63.547 Y69.429 E1.38104
G1 X62.958 Y69.629 E1.40485
G1 X62.357 Y69.793 E1.42869
G1 X61.745 Y69.921 E1.45262
G1 X61.094 Y70.014 E1.47778
G1 X60.475 Y70.062 E1.50154
G1 X59.838 Y70.072 E1.52593
G1 X59.22 Y70.043 E1.5496
G1 X58.565 Y69.971 E1.57482
G1 X57.95 Y69.862 E1.59872
G1 X57.342 Y69.716 E1.62265
G1 X56.75 Y69.535 E1.64634
G1 X56.138 Y69.304 E1.67138
G1 X55.582 Y69.054 E1.69471
G1 X54.996 Y68.744 E1.72008
G1 X54.462 Y68.415 E1.74408
G1 X53.953 Y68.057 E1.7679
G1 X53.466 Y67.667 E1.79177
G1 X52.987 Y67.234 E1.81648
G1 X52.539 Y66.769 E1.8412
G1 X52.134 Y66.294 E1.86508
G1 X51.76 Y65.795 E1.88895
G1 X51.419 Y65.278 E1.91265
G1 X51.084 Y64.692 E1.93848
G1 X50.821 Y64.15 E1.96154
G1 X50.571 Y63.547 E1.98652
G1 X50.371 Y62.958 E2.01033
G1 X50.207 Y62.357 E2.03417
G1 X50.079 Y61.745 E2.05809
G1 X49.986 Y61.094 E2.08326
G1 X49.938 Y60.476 E2.10698
G1 X49.928 Y59.839 E2.13136
G1 X49.957 Y59.22 E2.15508
G1 X50.029 Y58.565 E2.1803
G1 X50.138 Y57.95 E2.2042
G1 X50.284 Y57.342 E2.22813
G1 X50.465 Y56.75 E2.25182
G1 X50.696 Y56.138 E2.27685
G1 X50.943 Y55.588 E2.29993
G1 X51.258 Y54.992 E2.32573
G1 X51.583 Y54.465 E2.34942
G1 X51.942 Y53.954 E2.37332
G1 X52.302 Y53.505 E2.39535
G0 F1620 X52.332 Y53.467
G0 X52.765 Y52.988
G0 F4320 X53.013 Y53.236
G1 F1800 X53.46 Y52.803 E2.41916
G1 X53.919 Y52.412 E2.44224
G1 X54.398 Y52.052 E2.46517
G1 X54.906 Y51.717 E2.48846
G1 X55.459 Y51.401 E2.51283
G1 X55.99 Y51.142 E2.53544
G1 X56.571 Y50.901 E2.55951
G1 X57.14 Y50.707 E2.58252
G1 X57.72 Y50.548 E2.60554
G1 X58.311 Y50.424 E2.62865
G1 X58.938 Y50.334 E2.65289
G1 X59.536 Y50.287 E2.67584
G1 X60.151 Y50.277 E2.69938
G1 X60.748 Y50.305 E2.72225
G1 X61.379 Y50.374 E2.74655
G1 X61.973 Y50.479 E2.76963
G1 X62.56 Y50.62 E2.79273
G1 X63.132 Y50.795 E2.81563
G1 X63.722 Y51.017 E2.83975
G1 X64.26 Y51.259 E2.86233
G1 X64.825 Y51.557 E2.88677
G1 X65.338 Y51.872 E2.90981
G1 X65.832 Y52.219 E2.93291
G1 X66.303 Y52.595 E2.95598
G1 X66.764 Y53.013 E2.97979
G1 X67.197 Y53.46 E3.00361
G1 X67.588 Y53.919 E3.02669
G1 X67.948 Y54.398 E3.04962
G1 X68.283 Y54.906 E3.07291
G1 X68.599 Y55.459 E3.09728
G1 X68.858 Y55.99 E3.11989
G1 X69.097 Y56.566 E3.14376
G1 X69.294 Y57.143 E3.16709
G1 X69.451 Y57.717 E3.18986
G1 X69.576 Y58.31 E3.21306
G1 X69.666 Y58.937 E3.2373
G1 X69.713 Y59.535 E3.26025
G1 X69.723 Y60.149 E3.28375
G1 X69.695 Y60.748 E3.3067
G1 X69.626 Y61.379 E3.33099
G1 X69.521 Y61.973 E3.35408
G1 X69.38 Y62.56 E3.37718
G1 X69.205 Y63.132 E3.40007
G1 X68.983 Y63.722 E3.4242
G1 X68.744 Y64.254 E3.44652
G1 X68.441 Y64.829 E3.47139
G1 X68.128 Y65.338 E3.49426
G1 X67.781 Y65.832 E3.51736
G1 X67.405 Y66.303 E3.54043
G1 X66.987 Y66.764 E3.56424
G1 X66.54 Y67.197 E3.58806
G1 X66.081 Y67.588 E3.61114
G1 X65.602 Y67.948 E3.63407
G1 X65.094 Y68.283 E3.65735
G1 X64.541 Y68.599 E3.68173
G1 X64.01 Y68.858 E3.70434
G1 X63.429 Y69.099 E3.72841
G1 X62.86 Y69.293 E3.75142
G1 X62.28 Y69.452 E3.77443
G1 X61.689 Y69.576 E3.79754
G1 X61.062 Y69.666 E3.82178
G1 X60.464 Y69.713 E3.84474
G1 X59.849 Y69.723 E3.86828
G1 X59.252 Y69.695 E3.89115
G1 X58.621 Y69.626 E3.91544
G1 X58.027 Y69.521 E3.93853
G1 X57.44 Y69.38 E3.96163
G1 X56.868 Y69.205 E3.98452
G1 X56.278 Y68.983 E4.00865
G1 X55.74 Y68.741 E4.03122
G1 X55.175 Y68.443 E4.05567
G1 X54.659 Y68.126 E4.07885
G1 X54.167 Y67.78 E4.10187
G1 X53.696 Y67.404 E4.12493
G1 X53.235 Y66.986 E4.14874
G1 X52.802 Y66.539 E4.17256
G1 X52.411 Y66.08 E4.19564
G1 X52.049 Y65.598 E4.21871
G1 X51.72 Y65.099 E4.24158
G1 X51.397 Y64.534 E4.26649
G1 X51.142 Y64.01 E4.28879
G1 X50.901 Y63.429 E4.31286
G1 X50.707 Y62.86 E4.33587
G1 X50.548 Y62.28 E4.35888
G1 X50.424 Y61.689 E4.38199
G1 X50.334 Y61.062 E4.40623
G1 X50.287 Y60.464 E4.42919
G1 X50.277 Y59.851 E4.45265
G1 X50.305 Y59.252 E4.4756
G1 X50.374 Y58.621 E4.49989
G1 X50.479 Y58.027 E4.52298
G1 X50.62 Y57.44 E4.54608
G1 X50.795 Y56.868 E4.56897
G1 X51.017 Y56.278 E4.5931
G1 X51.256 Y55.746 E4.61542
G1 X51.559 Y55.171 E4.64029
G1 X51.872 Y54.662 E4.66316
G1 X52.219 Y54.168 E4.68626
G1 X52.551 Y53.753 E4.7066
G0 F1620 X52.595 Y53.697
G0 X53.013 Y53.236
G0 F4320 X53.26 Y53.483
G1 F1800 X53.691 Y53.066 E4.72955
G1 X54.134 Y52.689 E4.75181
G1 X54.595 Y52.342 E4.7739
G1 X55.084 Y52.018 E4.79634
G1 X55.617 Y51.713 E4.81985
G1 X56.129 Y51.463 E4.84165
G1 X56.688 Y51.231 E4.86481
G1 X57.237 Y51.043 E4.88702
G1 X57.797 Y50.889 E4.90925
G1 X58.366 Y50.77 E4.93149
G1 X58.971 Y50.683 E4.95489
G1 X59.547 Y50.637 E4.977
G1 X60.14 Y50.627 E4.9997
G1 X60.715 Y50.654 E5.02173
G1 X61.324 Y50.72 E5.04517
G1 X61.896 Y50.82 E5.06739
G1 X62.463 Y50.956 E5.08971
G1 X63.015 Y51.125 E5.1118
G1 X63.583 Y51.338 E5.13501
G1 X64.102 Y51.571 E5.15679
G1 X64.647 Y51.858 E5.18036
G1 X65.141 Y52.161 E5.20254
G1 X65.617 Y52.496 E5.22481
G1 X66.072 Y52.858 E5.24706
G1 X66.517 Y53.26 E5.27001
G1 X66.934 Y53.691 E5.29297
G1 X67.311 Y54.134 E5.31523
G1 X67.658 Y54.595 E5.33731
G1 X67.982 Y55.084 E5.35976
G1 X68.287 Y55.617 E5.38326
G1 X68.537 Y56.129 E5.40506
G1 X68.768 Y56.684 E5.42807
G1 X68.958 Y57.24 E5.45056
G1 X69.11 Y57.794 E5.47254
G1 X69.23 Y58.365 E5.49487
G1 X69.317 Y58.97 E5.51826
G1 X69.363 Y59.546 E5.54038
G1 X69.373 Y60.138 E5.56304
G1 X69.346 Y60.715 E5.58514
G1 X69.28 Y61.324 E5.60858
G1 X69.18 Y61.896 E5.63081
G1 X69.044 Y62.463 E5.65312
G1 X68.875 Y63.015 E5.67521
G1 X68.662 Y63.583 E5.69843
G1 X68.432 Y64.097 E5.71998
G1 X68.141 Y64.65 E5.74389
G1 X67.839 Y65.141 E5.76595
G1 X67.504 Y65.617 E5.78823
G1 X67.142 Y66.072 E5.81048
G1 X66.74 Y66.517 E5.83343
G1 X66.309 Y66.934 E5.85638
G1 X65.866 Y67.311 E5.87864
G1 X65.405 Y67.658 E5.90073
G1 X64.916 Y67.982 E5.92318
G1 X64.383 Y68.287 E5.94668
G1 X63.871 Y68.537 E5.96848
G1 X63.312 Y68.769 E5.99164
G1 X62.763 Y68.957 E6.01385
G1 X62.203 Y69.111 E6.03608
G1 X61.634 Y69.23 E6.05833
G1 X61.029 Y69.317 E6.08172
G1 X60.453 Y69.363 E6.10383
G1 X59.86 Y69.373 E6.12653
G1 X59.285 Y69.346 E6.14856
G1 X58.676 Y69.28 E6.172
G1 X58.104 Y69.18 E6.19422
G1 X57.537 Y69.044 E6.21654
G1 X56.985 Y68.875 E6.23863
G1 X56.417 Y68.662 E6.26185
G1 X55.898 Y68.429 E6.28362
G1 X55.353 Y68.142 E6.30719
G1 X54.856 Y67.836 E6.32953
G1 X54.382 Y67.503 E6.3517
G1 X53.927 Y67.141 E6.37395
G1 X53.482 Y66.739 E6.3969
G1 X53.065 Y66.308 E6.41985
G1 X52.688 Y65.865 E6.44211
G1 X52.338 Y65.401 E6.46435
G1 X52.02 Y64.92 E6.48642
G1 X51.709 Y64.377 E6.51037
G1 X51.463 Y63.871 E6.5319
G1 X51.231 Y63.312 E6.55506
G1 X51.043 Y62.763 E6.57727
G1 X50.889 Y62.203 E6.5995
G1 X50.77 Y61.634 E6.62174
G1 X50.683 Y61.029 E6.64513
G1 X50.637 Y60.453 E6.66725
G1 X50.627 Y59.862 E6.68987
G1 X50.654 Y59.285 E6.71197
G1 X50.72 Y58.676 E6.73542
G1 X50.82 Y58.104 E6.75764
G1 X50.956 Y57.537 E6.77995
G1 X51.125 Y56.985 E6.80205
G1 X51.338 Y56.417 E6.82526
G1 X51.568 Y55.903 E6.84681
G1 X51.859 Y55.35 E6.87073
G1 X52.161 Y54.859 E6.89279
G1 X52.496 Y54.383 E6.91506
G1 X52.799 Y54.002 E6.93369
G0 F1620 X52.858 Y53.928
G0 X53.26 Y53.483
G0 F4320 X53.508 Y53.731
G1 F1800 X53.922 Y53.329 E6.95578
G1 X54.348 Y52.965 E6.97722
G1 X54.792 Y52.631 E6.99848
G1 X55.263 Y52.319 E7.0201
G1 X55.775 Y52.026 E7.04268
G1 X56.268 Y51.784 E7.0637
G1 X56.806 Y51.56 E7.086
G1 X57.335 Y51.379 E7.1074
G1 X57.873 Y51.231 E7.12875
G1 X58.422 Y51.115 E7.15023
G1 X59.003 Y51.031 E7.17269
G1 X59.558 Y50.987 E7.194
G1 X60.129 Y50.977 E7.21585
G1 X60.683 Y51.002 E7.23708
G1 X61.268 Y51.065 E7.25959
G1 X61.82 Y51.162 E7.28104
G1 X62.365 Y51.292 E7.30249
G1 X62.897 Y51.454 E7.32377
G1 X63.444 Y51.659 E7.34612
G1 X63.944 Y51.884 E7.36711
G1 X64.468 Y52.159 E7.38975
G1 X64.944 Y52.451 E7.41112
G1 X65.403 Y52.772 E7.43256
G1 X65.841 Y53.121 E7.45399
G1 X66.269 Y53.508 E7.47608
G1 X66.671 Y53.922 E7.49816
G1 X67.035 Y54.348 E7.5196
G1 X67.369 Y54.792 E7.54087
G1 X67.681 Y55.263 E7.56249
G1 X67.974 Y55.775 E7.58506
G1 X68.216 Y56.268 E7.60608
G1 X68.438 Y56.802 E7.62821
G1 X68.622 Y57.337 E7.64986
G1 X68.768 Y57.871 E7.67105
G1 X68.885 Y58.421 E7.69257
G1 X68.969 Y59.002 E7.71504
G1 X69.013 Y59.557 E7.73634
G1 X69.023 Y60.127 E7.75816
G1 X68.998 Y60.683 E7.77946
G1 X68.935 Y61.268 E7.80198
G1 X68.838 Y61.82 E7.82343
G1 X68.708 Y62.365 E7.84487
G1 X68.546 Y62.897 E7.86615
G1 X68.341 Y63.444 E7.88851
G1 X68.119 Y63.939 E7.90927
G1 X67.84 Y64.47 E7.93222
G1 X67.549 Y64.944 E7.95351
G1 X67.228 Y65.403 E7.97494
G1 X66.879 Y65.841 E7.99638
G1 X66.492 Y66.269 E8.01846
G1 X66.078 Y66.671 E8.04054
G1 X65.652 Y67.035 E8.06199
G1 X65.208 Y67.369 E8.08325
G1 X64.737 Y67.681 E8.10487
G1 X64.225 Y67.974 E8.12745
G1 X63.732 Y68.216 E8.14846
G1 X63.194 Y68.44 E8.17077
G1 X62.665 Y68.621 E8.19216
G1 X62.127 Y68.769 E8.21352
G1 X61.578 Y68.885 E8.23499
G1 X60.997 Y68.969 E8.25746
G1 X60.442 Y69.013 E8.27876
G1 X59.871 Y69.023 E8.30062
G1 X59.317 Y68.998 E8.32184
G1 X58.732 Y68.935 E8.34436
G1 X58.18 Y68.838 E8.36581
G1 X57.635 Y68.708 E8.38725
G1 X57.103 Y68.546 E8.40853
G1 X56.556 Y68.341 E8.43089
G1 X56.056 Y68.116 E8.45187
G1 X55.532 Y67.841 E8.47452
G1 X55.053 Y67.547 E8.49603
G1 X54.596 Y67.227 E8.51738
G1 X54.158 Y66.878 E8.53881
G1 X53.73 Y66.491 E8.56089
G1 X53.328 Y66.077 E8.58298
G1 X52.964 Y65.651 E8.60442
G1 X52.628 Y65.204 E8.62582
G1 X52.321 Y64.74 E8.64712
G1 X52.022 Y64.219 E8.6701
G1 X51.784 Y63.732 E8.69085
G1 X51.56 Y63.194 E8.71315
G1 X51.379 Y62.665 E8.73455
G1 X51.231 Y62.127 E8.7559
G1 X51.115 Y61.578 E8.77738
G1 X51.031 Y60.997 E8.79984
G1 X50.987 Y60.442 E8.82115
G1 X50.977 Y59.873 E8.84293
G1 X51.002 Y59.317 E8.86423
G1 X51.065 Y58.732 E8.88674
G1 X51.162 Y58.18 E8.90819
G1 X51.292 Y57.635 E8.92964
G1 X51.454 Y57.103 E8.95092
G1 X51.659 Y56.556 E8.97327
G1 X51.881 Y56.061 E8.99404
G1 X52.16 Y55.53 E9.01699
G1 X52.451 Y55.056 E9.03828
G1 X52.772 Y54.597 E9.05971
G1 X53.049 Y54.25 E9.0767
G0 F1620 X53.121 Y54.159
G0 X53.508 Y53.731
G0 F4320 X53.755 Y53.978
G1 F1800 X54.153 Y53.592 E9.09792
G1 X54.562 Y53.242 E9.11852
G1 X54.989 Y52.92 E9.13899
G1 X55.442 Y52.619 E9.1598
G1 X55.932 Y52.338 E9.18142
G1 X56.408 Y52.105 E9.2017
G1 X56.924 Y51.89 E9.2231
G1 X57.432 Y51.715 E9.24366
G1 X57.95 Y51.572 E9.26422
G1 X58.478 Y51.461 E9.28487
G1 X59.035 Y51.38 E9.30641
G1 X59.57 Y51.337 E9.32695
G1 X60.117 Y51.327 E9.34789
G1 X60.651 Y51.351 E9.36835
G1 X61.212 Y51.411 E9.38994
G1 X61.743 Y51.503 E9.41056
G1 X62.268 Y51.628 E9.43122
G1 X62.779 Y51.784 E9.45166
G1 X63.304 Y51.98 E9.47311
G1 X63.787 Y52.196 E9.49336
G1 X64.289 Y52.459 E9.51505
G1 X64.747 Y52.74 E9.53561
G1 X65.189 Y53.049 E9.55625
G1 X65.61 Y53.384 E9.57684
G1 X66.022 Y53.755 E9.59806
G1 X66.408 Y54.153 E9.61928
G1 X66.758 Y54.562 E9.63988
G1 X67.08 Y54.989 E9.66034
G1 X67.381 Y55.442 E9.68116
G1 X67.662 Y55.932 E9.70277
G1 X67.895 Y56.408 E9.72306
G1 X68.109 Y56.92 E9.74429
G1 X68.285 Y57.435 E9.76512
G1 X68.427 Y57.948 E9.78549
G1 X68.539 Y58.477 E9.80619
G1 X68.62 Y59.034 E9.82773
G1 X68.663 Y59.569 E9.84827
G1 X68.673 Y60.116 E9.8692
G1 X68.649 Y60.651 E9.8897
G1 X68.589 Y61.212 E9.91129
G1 X68.497 Y61.743 E9.93191
G1 X68.372 Y62.268 E9.95257
G1 X68.216 Y62.779 E9.97302
G1 X68.02 Y63.304 E9.99446
G1 X67.806 Y63.782 E10.0145
G1 X67.539 Y64.291 E10.0365
G1 X67.26 Y64.747 E10.05696
G1 X66.951 Y65.189 E10.0776
G1 X66.616 Y65.61 E10.09819
G1 X66.245 Y66.022 E10.11941
G1 X65.847 Y66.408 E10.14062
G1 X65.438 Y66.758 E10.16123
G1 X65.011 Y67.08 E10.18169
G1 X64.558 Y67.381 E10.20251
G1 X64.068 Y67.662 E10.22412
G1 X63.592 Y67.895 E10.24441
G1 X63.076 Y68.11 E10.2658
G1 X62.568 Y68.285 E10.28636
G1 X62.05 Y68.428 E10.30693
G1 X61.522 Y68.539 E10.32757
G1 X60.965 Y68.62 E10.34911
G1 X60.43 Y68.663 E10.36966
G1 X59.883 Y68.673 E10.39059
G1 X59.349 Y68.649 E10.41105
G1 X58.788 Y68.589 E10.43264
G1 X58.257 Y68.497 E10.45327
G1 X57.732 Y68.372 E10.47392
G1 X57.221 Y68.216 E10.49437
G1 X56.696 Y68.02 E10.51581
G1 X56.213 Y67.804 E10.53606
G1 X55.711 Y67.541 E10.55775
G1 X55.25 Y67.258 E10.57845
G1 X54.81 Y66.95 E10.599
G1 X54.389 Y66.615 E10.61959
G1 X53.977 Y66.244 E10.64081
G1 X53.591 Y65.846 E10.66203
G1 X53.241 Y65.437 E10.68263
G1 X52.917 Y65.007 E10.70324
G1 X52.622 Y64.561 E10.7237
G1 X52.335 Y64.062 E10.74573
G1 X52.105 Y63.592 E10.76576
G1 X51.89 Y63.076 E10.78715
G1 X51.715 Y62.568 E10.80771
G1 X51.572 Y62.05 E10.82828
G1 X51.461 Y61.522 E10.84892
G1 X51.38 Y60.965 E10.87046
G1 X51.337 Y60.431 E10.89097
G1 X51.327 Y59.884 E10.9119
G1 X51.351 Y59.349 E10.9324
G1 X51.411 Y58.788 E10.95399
G1 X51.503 Y58.257 E10.97462
G1 X51.628 Y57.732 E10.99527
G1 X51.784 Y57.221 E11.01572
G1 X51.98 Y56.696 E11.03716
G1 X52.194 Y56.218 E11.0572
G1 X52.461 Y55.709 E11.0792
G1 X52.74 Y55.253 E11.09966
G1 X53.049 Y54.811 E11.1203
G1 X53.297 Y54.499 E11.13555
G0 F1620 X53.384 Y54.39
G0 X53.755 Y53.978
G0 F4320 X54.003 Y54.226
G1 F1800 X54.383 Y53.855 E11.15588
G1 X54.777 Y53.519 E11.17569
G1 X55.187 Y53.209 E11.19536
G1 X55.621 Y52.92 E11.21532
G1 X56.09 Y52.65 E11.23603
G1 X56.547 Y52.426 E11.25551
G1 X57.041 Y52.219 E11.276
G1 X57.53 Y52.052 E11.29578
G1 X58.027 Y51.914 E11.31552
G1 X58.534 Y51.806 E11.33536
G1 X59.067 Y51.728 E11.35597
G1 X59.581 Y51.687 E11.37571
G1 X60.106 Y51.677 E11.3958
G1 X60.619 Y51.699 E11.41545
G1 X61.156 Y51.756 E11.43612
G1 X61.666 Y51.845 E11.45593
G1 X62.17 Y51.965 E11.47576
G1 X62.662 Y52.113 E11.49542
G1 X63.165 Y52.301 E11.51597
G1 X63.629 Y52.508 E11.53541
G1 X64.11 Y52.76 E11.5562
G1 X64.55 Y53.029 E11.57593
G1 X64.974 Y53.326 E11.59574
G1 X65.38 Y53.647 E11.61555
G1 X65.774 Y54.003 E11.63587
G1 X66.145 Y54.383 E11.6562
G1 X66.481 Y54.777 E11.67601
G1 X66.791 Y55.187 E11.69568
G1 X67.08 Y55.621 E11.71564
G1 X67.35 Y56.09 E11.73635
G1 X67.574 Y56.547 E11.75583
G1 X67.779 Y57.038 E11.77619
G1 X67.949 Y57.532 E11.79618
G1 X68.086 Y58.025 E11.81576
G1 X68.194 Y58.533 E11.83564
G1 X68.272 Y59.066 E11.85626
