;FLAVOR:Marlin
;TIME:3364
;Filament used: 2.81253m
;Layer height: 0.175
;MINX:20.324
;MINY:23.688
;MINZ:0.263
;MAXX:99.676
;MAXY:96.312
;MAXZ:14.963
;Generated with Cura_SteamEngine 4.13.1
M140 S65
M105
M190 S65
M104 S205
M105
M109 S205
M82 ;absolute extrusion mode
G21;(metric values)
G90;(absolute positioning)
M82;(set extruder to absolute mode)
M107;(start with the fan off)
G28;(Home the printer)
G92 E0;(Reset the extruder to 0)
G0 Z5 E5 F500;(Move up and prime the nozzle)
G0 X-1 Z0;(Move outside the printable area)
G1 Y60 E8 F500;(Draw a priming/wiping line to the rear)
G1 X-1;(Move a little closer to the print area)
G1 Y10 E16 F500;(draw more priming/wiping)
G1 E15 F250;(Small retract)
G92 E0;(Zero the extruder)
G92 E0
G92 E0
G1 F2400 E-2.5
;LAYER_COUNT:85
;LAYER:0
M107
G0 F4320 X31.373 Y34.85 Z0.263
;TYPE:SKIRT
G1 F2400 E0
G1 F1800 X32.91 Y33.462 E0.07926
G1 X33.15 Y33.257 E0.09134
G1 X34.782 Y31.958 E0.17116
G1 X35.031 Y31.773 E0.18303
G1 X36.748 Y30.57 E0.26327
G1 X37.008 Y30.399 E0.27517
G1 X38.806 Y29.297 E0.35588
G1 X39.069 Y29.147 E0.36747
G1 X40.941 Y28.148 E0.44867
G1 X41.209 Y28.014 E0.46014
G1 X43.144 Y27.124 E0.54165
G1 X43.418 Y27.008 E0.55303
G1 X45.414 Y26.228 E0.63505
G1 X45.692 Y26.129 E0.64634
G1 X47.738 Y25.464 E0.72867
G1 X48.02 Y25.381 E0.73992
G1 X50.107 Y24.834 E0.82249
G1 X50.389 Y24.769 E0.83357
G1 X52.512 Y24.34 E0.91645
G1 X52.799 Y24.29 E0.9276
G1 X54.947 Y23.983 E1.01064
G1 X55.233 Y23.95 E1.02166
G1 X57.396 Y23.765 E1.10474
G1 X57.686 Y23.749 E1.11586
G1 X59.858 Y23.688 E1.19901
G1 X60.142 Y23.688 E1.20988
G1 X62.314 Y23.749 E1.29303
G1 X62.604 Y23.765 E1.30415
G1 X64.767 Y23.95 E1.38723
G1 X65.053 Y23.983 E1.39825
G1 X67.202 Y24.29 E1.48132
G1 X67.487 Y24.339 E1.49239
G1 X69.609 Y24.767 E1.57524
G1 X69.895 Y24.833 E1.58647
G1 X71.982 Y25.381 E1.66905
G1 X72.262 Y25.464 E1.68022
G1 X74.308 Y26.129 E1.76255
G1 X74.586 Y26.228 E1.77385
G1 X76.582 Y27.008 E1.85586
G1 X76.856 Y27.124 E1.86725
G1 X78.791 Y28.014 E1.94876
G1 X79.113 Y28.174 E1.96252
G1 X80.935 Y29.148 E2.04158
G1 X81.194 Y29.297 E2.05302
G1 X82.992 Y30.399 E2.13372
G1 X83.252 Y30.57 E2.14563
G1 X84.969 Y31.773 E2.22587
G1 X85.217 Y31.958 E2.23771
G1 X86.848 Y33.256 E2.31748
G1 X87.089 Y33.461 E2.32959
G1 X88.626 Y34.849 E2.40884
G1 X88.854 Y35.067 E2.42091
G1 X90.292 Y36.538 E2.49964
G1 X90.513 Y36.78 E2.51218
G1 X91.845 Y38.331 E2.59042
G1 X92.05 Y38.586 E2.60294
G1 X93.271 Y40.209 E2.68067
G1 X93.462 Y40.48 E2.69336
G1 X94.569 Y42.171 E2.77071
G1 X94.742 Y42.456 E2.78347
G1 X95.729 Y44.204 E2.86029
G1 X95.886 Y44.505 E2.87328
G1 X96.749 Y46.305 E2.94968
G1 X96.887 Y46.618 E2.96277
G1 X97.624 Y48.465 E3.03887
G1 X97.741 Y48.79 E3.05209
G1 X98.348 Y50.675 E3.12788
G1 X98.443 Y51.012 E3.14128
G1 X98.917 Y52.927 E3.21678
G1 X98.99 Y53.269 E3.23016
G1 X99.33 Y55.207 E3.30546
G1 X99.378 Y55.554 E3.31886
G1 X99.583 Y57.508 E3.39405
G1 X99.608 Y57.862 E3.40764
G1 X99.676 Y59.823 E3.48273
G1 X99.676 Y60.175 E3.4962
G1 X99.608 Y62.137 E3.57133
G1 X99.583 Y62.491 E3.58491
G1 X99.378 Y64.445 E3.6601
G1 X99.33 Y64.792 E3.67351
G1 X98.99 Y66.731 E3.74884
G1 X98.917 Y67.074 E3.76227
G1 X98.443 Y68.988 E3.83773
G1 X98.348 Y69.324 E3.85109
G1 X97.741 Y71.209 E3.92688
G1 X97.624 Y71.533 E3.94006
G1 X96.888 Y73.379 E4.01611
G1 X96.75 Y73.693 E4.02924
G1 X95.886 Y75.495 E4.10572
G1 X95.729 Y75.796 E4.11871
G1 X94.742 Y77.544 E4.19553
G1 X94.569 Y77.828 E4.20826
G1 X93.463 Y79.518 E4.28556
G1 X93.272 Y79.79 E4.29828
G1 X92.051 Y81.413 E4.376
G1 X91.846 Y81.668 E4.38852
G1 X90.514 Y83.219 E4.46677
G1 X90.293 Y83.461 E4.47931
G1 X88.855 Y84.932 E4.55803
G1 X88.627 Y85.15 E4.5701
G1 X87.09 Y86.538 E4.64936
G1 X86.85 Y86.743 E4.66144
G1 X85.218 Y88.042 E4.74127
G1 X84.969 Y88.227 E4.75314
G1 X83.252 Y89.43 E4.83337
G1 X82.992 Y89.601 E4.84528
G1 X81.194 Y90.703 E4.92598
G1 X80.931 Y90.853 E4.93757
G1 X79.059 Y91.852 E5.01878
G1 X78.791 Y91.986 E5.03024
G1 X76.856 Y92.876 E5.11175
G1 X76.582 Y92.992 E5.12314
G1 X74.586 Y93.772 E5.20515
G1 X74.308 Y93.871 E5.21645
G1 X72.262 Y94.536 E5.29878
G1 X71.98 Y94.619 E5.31003
G1 X69.893 Y95.166 E5.39259
G1 X69.611 Y95.231 E5.40367
G1 X67.488 Y95.66 E5.48656
G1 X67.201 Y95.71 E5.49771
G1 X65.053 Y96.017 E5.58075
G1 X64.767 Y96.05 E5.59176
G1 X62.604 Y96.235 E5.67484
G1 X62.314 Y96.251 E5.68596
G1 X60.142 Y96.312 E5.76912
G1 X59.858 Y96.312 E5.77998
G1 X57.686 Y96.251 E5.86314
G1 X57.396 Y96.235 E5.87425
G1 X55.233 Y96.05 E5.95733
G1 X54.947 Y96.017 E5.96835
G1 X52.798 Y95.71 E6.05143
G1 X52.513 Y95.661 E6.0625
G1 X50.391 Y95.233 E6.14534
G1 X50.105 Y95.167 E6.15657
G1 X48.018 Y94.619 E6.23915
G1 X47.738 Y94.536 E6.25033
G1 X45.692 Y93.871 E6.33266
G1 X45.414 Y93.772 E6.34395
G1 X43.418 Y92.992 E6.42596
G1 X43.144 Y92.876 E6.43735
G1 X41.209 Y91.986 E6.51886
G1 X40.887 Y91.826 E6.53262
G1 X39.065 Y90.852 E6.61169
G1 X38.806 Y90.703 E6.62312
G1 X37.008 Y89.601 E6.70383
G1 X36.748 Y89.43 E6.71574
G1 X35.031 Y88.227 E6.79597
G1 X34.782 Y88.042 E6.80784
G1 X33.15 Y86.743 E6.88767
G1 X32.91 Y86.538 E6.89975
G1 X31.373 Y85.15 E6.979
G1 X31.145 Y84.932 E6.99107
G1 X29.707 Y83.461 E7.0698
G1 X29.486 Y83.219 E7.08234
G1 X28.154 Y81.668 E7.16058
G1 X27.949 Y81.413 E7.1731
G1 X26.728 Y79.79 E7.25083
G1 X26.537 Y79.518 E7.26355
G1 X25.431 Y77.828 E7.34085
G1 X25.258 Y77.544 E7.35357
G1 X24.271 Y75.796 E7.4304
G1 X24.114 Y75.495 E7.44339
G1 X23.25 Y73.693 E7.51987
G1 X23.112 Y73.379 E7.53299
G1 X22.376 Y71.533 E7.60905
G1 X22.259 Y71.209 E7.62223
G1 X21.652 Y69.324 E7.69802
G1 X21.557 Y68.988 E7.71138
G1 X21.083 Y67.074 E7.78684
G1 X21.01 Y66.731 E7.80026
G1 X20.67 Y64.792 E7.8756
G1 X20.622 Y64.445 E7.88901
G1 X20.417 Y62.491 E7.9642
G1 X20.392 Y62.137 E7.97778
G1 X20.324 Y60.177 E8.05283
G1 X20.324 Y59.825 E8.0663
G1 X20.392 Y57.863 E8.14143
G1 X20.417 Y57.509 E8.15501
G1 X20.622 Y55.555 E8.2302
G1 X20.67 Y55.208 E8.24361
G1 X21.01 Y53.269 E8.31895
G1 X21.083 Y52.926 E8.33237
G1 X21.557 Y51.012 E8.40783
G1 X21.652 Y50.676 E8.42119
G1 X22.259 Y48.791 E8.49698
G1 X22.376 Y48.467 E8.51016
G1 X23.112 Y46.621 E8.58622
G1 X23.25 Y46.307 E8.59934
G1 X24.114 Y44.505 E8.67582
G1 X24.271 Y44.204 E8.68881
G1 X25.258 Y42.456 E8.76564
G1 X25.431 Y42.172 E8.77836
G1 X26.537 Y40.482 E8.85566
G1 X26.728 Y40.21 E8.86838
G1 X27.949 Y38.587 E8.94611
G1 X28.154 Y38.332 E8.95863
G1 X29.486 Y36.781 E9.03687
G1 X29.707 Y36.539 E9.04941
G1 X30.881 Y35.339 E9.11366
G0 F1620 X31.145 Y35.068
G0 X31.373 Y34.85
G0 F4320 X31.607 Y35.109
G1 F1800 X33.144 Y33.721 E9.19291
G1 X33.368 Y33.531 E9.20415
G1 X35 Y32.232 E9.28398
G1 X35.232 Y32.059 E9.29506
G1 X36.949 Y30.856 E9.37529
G1 X37.191 Y30.697 E9.38637
G1 X38.989 Y29.595 E9.46707
G1 X39.233 Y29.455 E9.47784
G1 X41.105 Y28.456 E9.55904
G1 X41.356 Y28.332 E9.56976
G1 X43.291 Y27.442 E9.65127
G1 X43.545 Y27.334 E9.66183
G1 X45.541 Y26.554 E9.74384
G1 X45.8 Y26.461 E9.75437
G1 X47.846 Y25.796 E9.83671
G1 X48.109 Y25.719 E9.84719
G1 X50.196 Y25.172 E9.92976
G1 X50.458 Y25.112 E9.94005
G1 X52.581 Y24.683 E10.02294
G1 X52.848 Y24.637 E10.03331
G1 X54.996 Y24.33 E10.11635
G1 X55.262 Y24.299 E10.12659
G1 X57.425 Y24.114 E10.20967
G1 X57.695 Y24.099 E10.22002
G1 X59.867 Y24.038 E10.30318
G1 X60.133 Y24.038 E10.31336
G1 X62.305 Y24.099 E10.39651
G1 X62.575 Y24.114 E10.40686
G1 X64.738 Y24.299 E10.48994
G1 X65.003 Y24.329 E10.50015
G1 X67.152 Y24.636 E10.58323
G1 X67.418 Y24.682 E10.59356
G1 X69.54 Y25.11 E10.6764
G1 X69.806 Y25.172 E10.68685
G1 X71.893 Y25.72 E10.76943
G1 X72.154 Y25.796 E10.77983
G1 X74.2 Y26.461 E10.86217
G1 X74.459 Y26.554 E10.8727
G1 X76.455 Y27.334 E10.95471
G1 X76.709 Y27.442 E10.96527
G1 X78.644 Y28.332 E11.04678
G1 X78.948 Y28.483 E11.05977
G1 X80.77 Y29.457 E11.13884
G1 X81.011 Y29.595 E11.14947
G1 X82.809 Y30.697 E11.23017
G1 X83.051 Y30.856 E11.24125
G1 X84.768 Y32.059 E11.32149
G1 X84.999 Y32.232 E11.33253
G1 X86.63 Y33.53 E11.4123
G1 X86.855 Y33.72 E11.42357
G1 X88.392 Y35.108 E11.50283
G1 X88.604 Y35.312 E11.51409
G1 X90.042 Y36.783 E11.59281
G1 X90.248 Y37.008 E11.60449
G1 X91.58 Y38.559 E11.68273
G1 X91.771 Y38.796 E11.69438
G1 X92.992 Y40.419 E11.7721
G1 X93.169 Y40.672 E11.78392
G1 X94.276 Y42.363 E11.86127
G1 X94.437 Y42.628 E11.87314
G1 X95.424 Y44.376 E11.94996
G1 X95.571 Y44.656 E11.96206
G1 X96.434 Y46.456 E12.03846
G1 X96.562 Y46.748 E12.05066
G1 X97.299 Y48.595 E12.12676
G1 X97.408 Y48.898 E12.13908
G1 X98.015 Y50.783 E12.21487
G1 X98.104 Y51.096 E12.22732
G1 X98.578 Y53.011 E12.30282
G1 X98.645 Y53.33 E12.3153
G1 X98.985 Y55.268 E12.3906
G1 X99.03 Y55.591 E12.40308
G1 X99.235 Y57.545 E12.47827
G1 X99.258 Y57.874 E12.49089
G1 X99.326 Y59.835 E12.56598
G1 X99.326 Y60.163 E12.57853
G1 X99.258 Y62.125 E12.65366
G1 X99.235 Y62.454 E12.66629
G1 X99.03 Y64.408 E12.74148
G1 X98.985 Y64.731 E12.75396
G1 X98.645 Y66.67 E12.82929
G1 X98.577 Y66.99 E12.84181
G1 X98.103 Y68.904 E12.91728
G1 X98.015 Y69.216 E12.92968
G1 X97.408 Y71.101 E13.00547
G1 X97.299 Y71.403 E13.01776
G1 X96.563 Y73.249 E13.09381
G1 X96.435 Y73.542 E13.10605
G1 X95.571 Y75.344 E13.18253
G1 X95.424 Y75.624 E13.19463
G1 X94.437 Y77.372 E13.27145
G1 X94.277 Y77.636 E13.28327
G1 X93.171 Y79.326 E13.36056
G1 X92.993 Y79.58 E13.37243
G1 X91.772 Y81.203 E13.45016
G1 X91.581 Y81.44 E13.46181
G1 X90.249 Y82.991 E13.54005
G1 X90.043 Y83.216 E13.55172
G1 X88.605 Y84.687 E13.63045
G1 X88.393 Y84.891 E13.64171
G1 X86.856 Y86.279 E13.72096
G1 X86.632 Y86.469 E13.7322
G1 X85 Y87.768 E13.81203
G1 X84.768 Y87.941 E13.8231
G1 X83.051 Y89.144 E13.90334
G1 X82.809 Y89.303 E13.91442
G1 X81.011 Y90.405 E13.99512
G1 X80.767 Y90.545 E14.00589
G1 X78.895 Y91.544 E14.08709
G1 X78.644 Y91.668 E14.09781
G1 X76.709 Y92.558 E14.17932
G1 X76.455 Y92.666 E14.18988
G1 X74.459 Y93.446 E14.27189
G1 X74.2 Y93.539 E14.28242
G1 X72.154 Y94.204 E14.36476
G1 X71.891 Y94.281 E14.37524
G1 X69.804 Y94.828 E14.45781
G1 X69.542 Y94.888 E14.4681
G1 X67.419 Y95.317 E14.55099
G1 X67.152 Y95.363 E14.56136
G1 X65.004 Y95.67 E14.64439
G1 X64.738 Y95.701 E14.65464
G1 X62.575 Y95.886 E14.73772
G1 X62.305 Y95.901 E14.74807
G1 X60.133 Y95.962 E14.83123
G1 X59.867 Y95.962 E14.84141
G1 X57.695 Y95.901 E14.92456
G1 X57.425 Y95.886 E14.93491
G1 X55.262 Y95.701 E15.01799
G1 X54.997 Y95.671 E15.0282
G1 X52.848 Y95.364 E15.11127
G1 X52.582 Y95.318 E15.12161
G1 X50.46 Y94.89 E15.20445
G1 X50.194 Y94.828 E15.2149
G1 X48.107 Y94.28 E15.29748
G1 X47.846 Y94.204 E15.30788
G1 X45.8 Y93.539 E15.39022
G1 X45.541 Y93.446 E15.40075
G1 X43.545 Y92.666 E15.48276
G1 X43.291 Y92.558 E15.49332
G1 X41.356 Y91.668 E15.57483
G1 X41.052 Y91.517 E15.58782
G1 X39.23 Y90.543 E15.66689
G1 X38.989 Y90.405 E15.67752
G1 X37.191 Y89.303 E15.75822
G1 X36.949 Y89.144 E15.7693
G1 X35.232 Y87.941 E15.84953
G1 X35 Y87.768 E15.86061
G1 X33.368 Y86.469 E15.94044
G1 X33.144 Y86.279 E15.95168
G1 X31.607 Y84.891 E16.03093
G1 X31.395 Y84.687 E16.04219
G1 X29.957 Y83.216 E16.12092
G1 X29.751 Y82.991 E16.13259
G1 X28.419 Y81.44 E16.21083
G1 X28.228 Y81.203 E16.22248
G1 X27.007 Y79.58 E16.30021
G1 X26.829 Y79.326 E16.31208
G1 X25.723 Y77.636 E16.38937
G1 X25.563 Y77.372 E16.40119
G1 X24.576 Y75.624 E16.47801
G1 X24.429 Y75.344 E16.49011
G1 X23.565 Y73.542 E16.56659
G1 X23.437 Y73.249 E16.57883
G1 X22.701 Y71.403 E16.65488
G1 X22.592 Y71.101 E16.66717
G1 X21.985 Y69.216 E16.74296
G1 X21.897 Y68.904 E16.75536
G1 X21.423 Y66.99 E16.83083
G1 X21.355 Y66.67 E16.84335
G1 X21.015 Y64.731 E16.91868
G1 X20.97 Y64.408 E16.93116
G1 X20.765 Y62.454 E17.00635
G1 X20.742 Y62.125 E17.01898
G1 X20.674 Y60.165 E17.09403
G1 X20.674 Y59.837 E17.10658
G1 X20.742 Y57.875 E17.18171
G1 X20.765 Y57.546 E17.19433
G1 X20.97 Y55.592 E17.26952
G1 X21.015 Y55.269 E17.282
G1 X21.355 Y53.33 E17.35734
G1 X21.423 Y53.01 E17.36986
G1 X21.897 Y51.096 E17.44532
G1 X21.985 Y50.784 E17.45773
G1 X22.592 Y48.899 E17.53352
G1 X22.701 Y48.597 E17.5458
G1 X23.437 Y46.751 E17.62186
G1 X23.565 Y46.458 E17.63409
G1 X24.429 Y44.656 E17.71057
G1 X24.576 Y44.376 E17.72268
G1 X25.563 Y42.628 E17.7995
G1 X25.723 Y42.364 E17.81131
G1 X26.829 Y40.674 E17.88861
G1 X27.007 Y40.42 E17.90048
G1 X28.228 Y38.797 E17.9782
G1 X28.419 Y38.56 E17.98985
G1 X29.751 Y37.009 E18.0681
G1 X29.957 Y36.784 E18.07977
G1 X31.116 Y35.599 E18.1432
G0 F1620 X31.395 Y35.313
G0 X31.607 Y35.109
G0 F4320 X31.842 Y35.369
G1 F1800 X33.379 Y33.981 E18.22246
G1 X33.586 Y33.805 E18.23286
G1 X35.218 Y32.506 E18.31268
G1 X35.433 Y32.346 E18.32294
G1 X37.15 Y31.143 E18.40317
G1 X37.374 Y30.996 E18.41343
G1 X39.172 Y29.894 E18.49413
G1 X39.398 Y29.764 E18.50411
G1 X41.27 Y28.765 E18.58531
G1 X41.502 Y28.65 E18.59522
G1 X43.437 Y27.76 E18.67673
G1 X43.673 Y27.66 E18.68654
G1 X45.669 Y26.88 E18.76856
G1 X45.909 Y26.794 E18.77831
G1 X47.955 Y26.129 E18.86064
G1 X48.198 Y26.058 E18.87033
G1 X50.285 Y25.511 E18.9529
G1 X50.527 Y25.455 E18.96241
G1 X52.65 Y25.026 E19.0453
G1 X52.898 Y24.983 E19.05493
G1 X55.046 Y24.676 E19.13797
G1 X55.292 Y24.648 E19.14744
G1 X57.455 Y24.463 E19.23052
G1 X57.705 Y24.449 E19.2401
G1 X59.877 Y24.388 E19.32326
G1 X60.123 Y24.388 E19.33267
G1 X62.295 Y24.449 E19.41583
G1 X62.545 Y24.463 E19.42541
G1 X64.708 Y24.648 E19.50849
G1 X64.954 Y24.676 E19.51797
G1 X67.103 Y24.983 E19.60104
G1 X67.349 Y25.025 E19.61059
G1 X69.471 Y25.453 E19.69344
G1 X69.717 Y25.51 E19.7031
G1 X71.804 Y26.058 E19.78568
G1 X72.045 Y26.129 E19.79529
G1 X74.091 Y26.794 E19.87763
G1 X74.331 Y26.88 E19.88738
G1 X76.327 Y27.66 E19.9694
G1 X76.563 Y27.76 E19.9792
G1 X78.498 Y28.65 E20.06071
G1 X78.783 Y28.792 E20.0729
G1 X80.605 Y29.766 E20.15197
G1 X80.828 Y29.894 E20.16181
G1 X82.626 Y30.996 E20.24251
G1 X82.85 Y31.143 E20.25277
G1 X84.567 Y32.346 E20.333
G1 X84.781 Y32.506 E20.34322
G1 X86.412 Y33.804 E20.423
G1 X86.62 Y33.98 E20.43342
G1 X88.157 Y35.368 E20.51268
G1 X88.353 Y35.557 E20.5231
G1 X89.791 Y37.028 E20.60182
G1 X89.982 Y37.236 E20.61263
G1 X91.314 Y38.787 E20.69087
G1 X91.491 Y39.007 E20.70168
G1 X92.712 Y40.63 E20.77941
G1 X92.876 Y40.864 E20.79034
G1 X93.983 Y42.555 E20.86769
G1 X94.133 Y42.8 E20.87868
G1 X95.12 Y44.548 E20.95551
G1 X95.255 Y44.808 E20.96672
G1 X96.118 Y46.608 E21.04311
G1 X96.236 Y46.878 E21.05439
G1 X96.973 Y48.725 E21.13049
G1 X97.074 Y49.005 E21.14188
G1 X97.681 Y50.89 E21.21767
G1 X97.764 Y51.18 E21.22921
G1 X98.238 Y53.095 E21.30471
G1 X98.3 Y53.39 E21.31625
G1 X98.64 Y55.328 E21.39155
G1 X98.682 Y55.628 E21.40314
G1 X98.887 Y57.582 E21.47833
G1 X98.908 Y57.886 E21.48999
G1 X98.976 Y59.847 E21.56509
G1 X98.976 Y60.151 E21.57672
G1 X98.908 Y62.113 E21.65185
G1 X98.887 Y62.417 E21.66351
G1 X98.682 Y64.371 E21.7387
G1 X98.64 Y64.671 E21.7503
G1 X98.3 Y66.61 E21.82563
G1 X98.238 Y66.906 E21.83721
G1 X97.764 Y68.82 E21.91267
G1 X97.681 Y69.109 E21.92418
G1 X97.074 Y70.994 E21.99996
G1 X96.974 Y71.273 E22.0113
G1 X96.238 Y73.119 E22.08736
G1 X96.119 Y73.39 E22.09869
G1 X95.255 Y75.192 E22.17517
G1 X95.12 Y75.452 E22.18638
G1 X94.133 Y77.2 E22.2632
G1 X93.984 Y77.445 E22.27417
G1 X92.878 Y79.135 E22.35147
G1 X92.713 Y79.369 E22.36243
G1 X91.492 Y80.992 E22.44015
G1 X91.315 Y81.212 E22.45096
G1 X89.983 Y82.763 E22.5292
G1 X89.792 Y82.971 E22.54001
G1 X88.354 Y84.442 E22.61873
G1 X88.158 Y84.631 E22.62915
G1 X86.621 Y86.019 E22.70841
G1 X86.414 Y86.195 E22.71881
G1 X84.782 Y87.494 E22.79863
G1 X84.567 Y87.654 E22.80889
G1 X82.85 Y88.857 E22.88912
G1 X82.626 Y89.004 E22.89938
G1 X80.828 Y90.106 E22.98008
G1 X80.602 Y90.236 E22.99006
G1 X78.73 Y91.235 E23.07126
G1 X78.498 Y91.35 E23.08117
G1 X76.563 Y92.24 E23.16268
G1 X76.327 Y92.34 E23.17249
G1 X74.331 Y93.12 E23.2545
G1 X74.091 Y93.206 E23.26426
G1 X72.045 Y93.871 E23.34659
G1 X71.802 Y93.942 E23.35628
G1 X69.715 Y94.489 E23.43885
G1 X69.473 Y94.545 E23.44836
G1 X67.35 Y94.974 E23.53124
G1 X67.102 Y95.017 E23.54088
G1 X64.954 Y95.324 E23.62392
G1 X64.708 Y95.352 E23.63339
G1 X62.545 Y95.537 E23.71647
G1 X62.295 Y95.551 E23.72605
G1 X60.123 Y95.612 E23.80921
G1 X59.877 Y95.612 E23.81862
G1 X57.705 Y95.551 E23.90178
G1 X57.455 Y95.537 E23.91136
G1 X55.292 Y95.352 E23.99444
G1 X55.046 Y95.324 E24.00392
G1 X52.897 Y95.017 E24.08699
G1 X52.651 Y94.975 E24.09654
G1 X50.529 Y94.547 E24.17939
