;FLAVOR:Marlin
;TIME:367
;Filament used: 0.23149m
;Layer height: 0.175
;MINX:42.227
;MINY:42.228
;MINZ:0.263
;MAXX:77.773
;MAXY:77.772
;MAXZ:0.963
;Generated with Cura_SteamEngine 4.13.1
M140 S65
M105
M190 S65
M104 S205
M105
M109 S205
M82 ;absolute extrusion mode
G21;(metric values)
G90;(absolute positioning)
M82;(set extruder to absolute mode)
M107;(start with the fan off)
G28;(Home the printer)
G92 E0;(Reset the extruder to 0)
G0 Z5 E5 F500;(Move up and prime the nozzle)
G0 X-1 Z0;(Move outside the printable area)
G1 Y60 E8 F500;(Draw a priming/wiping line to the rear)
G1 X-1;(Move a little closer to the print area)
G1 Y10 E16 F500;(draw more priming/wiping)
G1 E15 F250;(Small retract)
G92 E0;(Zero the extruder)
G92 E0
G92 E0
G1 F2400 E-2.5
;LAYER_COUNT:5
;LAYER:0
M107
G0 F4320 X47.716 Y47.153 Z0.263
;TYPE:SKIRT
G1 F2400 E0
G1 F1800 X47.953 Y46.932 E0.0124
G1 X48.552 Y46.405 E0.04293
G1 X48.792 Y46.206 E0.05487
G1 X49.422 Y45.717 E0.08539
G1 X49.682 Y45.528 E0.09769
G1 X50.343 Y45.079 E0.12827
G1 X50.61 Y44.91 E0.14036
G1 X51.296 Y44.504 E0.17087
G1 X51.581 Y44.347 E0.18332
G1 X52.293 Y43.985 E0.21389
G1 X52.576 Y43.852 E0.22585
G1 X53.308 Y43.535 E0.25638
G1 X53.608 Y43.416 E0.26873
G1 X54.359 Y43.146 E0.29928
G1 X54.662 Y43.048 E0.31146
G1 X55.427 Y42.826 E0.34195
G1 X55.729 Y42.748 E0.35388
G1 X56.508 Y42.573 E0.38444
G1 X56.825 Y42.513 E0.39679
G1 X57.613 Y42.388 E0.42732
G1 X57.932 Y42.347 E0.43963
G1 X58.728 Y42.272 E0.47023
G1 X59.045 Y42.253 E0.48238
G1 X59.841 Y42.228 E0.51286
G1 X60.159 Y42.228 E0.52503
G1 X60.955 Y42.253 E0.55551
G1 X61.272 Y42.272 E0.56766
G1 X62.068 Y42.347 E0.59826
G1 X62.387 Y42.388 E0.61056
G1 X63.175 Y42.513 E0.6411
G1 X63.492 Y42.573 E0.65345
G1 X64.271 Y42.748 E0.684
G1 X64.573 Y42.826 E0.69594
G1 X65.338 Y43.048 E0.72642
G1 X65.641 Y43.146 E0.73861
G1 X66.392 Y43.416 E0.76915
G1 X66.692 Y43.535 E0.7815
G1 X67.424 Y43.852 E0.81203
G1 X67.707 Y43.985 E0.824
G1 X68.419 Y44.347 E0.85456
G1 X68.704 Y44.504 E0.86702
G1 X69.39 Y44.91 E0.89752
G1 X69.655 Y45.078 E0.90953
G1 X70.315 Y45.526 E0.94006
G1 X70.577 Y45.716 E0.95244
G1 X71.207 Y46.205 E0.98296
G1 X71.447 Y46.404 E0.9949
G1 X72.046 Y46.931 E1.02543
G1 X72.283 Y47.152 E1.03783
G1 X72.847 Y47.716 E1.06836
G1 X73.068 Y47.953 E1.08076
G1 X73.595 Y48.552 E1.11129
G1 X73.794 Y48.792 E1.12322
G1 X74.283 Y49.422 E1.15374
G1 X74.472 Y49.682 E1.16604
G1 X74.921 Y50.343 E1.19662
G1 X75.09 Y50.61 E1.20872
G1 X75.496 Y51.296 E1.23922
G1 X75.653 Y51.581 E1.25168
G1 X76.015 Y52.293 E1.28224
G1 X76.148 Y52.576 E1.29421
G1 X76.465 Y53.308 E1.32474
G1 X76.583 Y53.606 E1.337
G1 X76.853 Y54.356 E1.36751
G1 X76.952 Y54.662 E1.37982
G1 X77.174 Y55.428 E1.41034
G1 X77.251 Y55.727 E1.42215
G1 X77.426 Y56.505 E1.45267
G1 X77.487 Y56.824 E1.4651
G1 X77.612 Y57.612 E1.49564
G1 X77.653 Y57.931 E1.50794
G1 X77.728 Y58.727 E1.53854
G1 X77.747 Y59.044 E1.5507
G1 X77.772 Y59.84 E1.58117
G1 X77.773 Y60.158 E1.59334
G1 X77.748 Y60.955 E1.62386
G1 X77.728 Y61.272 E1.63602
G1 X77.653 Y62.068 E1.66661
G1 X77.612 Y62.387 E1.67892
G1 X77.487 Y63.175 E1.70946
G1 X77.427 Y63.492 E1.7218
G1 X77.252 Y64.271 E1.75236
G1 X77.174 Y64.573 E1.76429
G1 X76.952 Y65.338 E1.79478
G1 X76.854 Y65.641 E1.80697
G1 X76.584 Y66.392 E1.83751
G1 X76.465 Y66.692 E1.84986
G1 X76.148 Y67.424 E1.88039
G1 X76.016 Y67.705 E1.89227
G1 X75.655 Y68.416 E1.92278
G1 X75.496 Y68.705 E1.93541
G1 X75.089 Y69.392 E1.96597
G1 X74.922 Y69.655 E1.97789
G1 X74.474 Y70.315 E2.00842
G1 X74.284 Y70.577 E2.0208
G1 X73.795 Y71.207 E2.05132
G1 X73.596 Y71.447 E2.06325
G1 X73.069 Y72.046 E2.09379
G1 X72.848 Y72.283 E2.10619
G1 X72.284 Y72.847 E2.13671
G1 X72.047 Y73.068 E2.14911
G1 X71.448 Y73.595 E2.17965
G1 X71.208 Y73.794 E2.19158
G1 X70.578 Y74.283 E2.2221
G1 X70.318 Y74.472 E2.2344
G1 X69.657 Y74.921 E2.26498
G1 X69.39 Y75.09 E2.27707
G1 X68.704 Y75.496 E2.30758
G1 X68.419 Y75.653 E2.32003
G1 X67.707 Y76.015 E2.3506
G1 X67.424 Y76.148 E2.36257
G1 X66.692 Y76.465 E2.3931
G1 X66.392 Y76.584 E2.40545
G1 X65.641 Y76.854 E2.43599
G1 X65.338 Y76.952 E2.44818
G1 X64.573 Y77.174 E2.47866
G1 X64.271 Y77.252 E2.4906
G1 X63.492 Y77.427 E2.52115
G1 X63.175 Y77.487 E2.5335
G1 X62.387 Y77.612 E2.56403
G1 X62.068 Y77.653 E2.57634
G1 X61.272 Y77.728 E2.60694
G1 X60.955 Y77.747 E2.61909
G1 X60.159 Y77.772 E2.64957
G1 X59.841 Y77.772 E2.66174
G1 X59.045 Y77.747 E2.69222
G1 X58.728 Y77.728 E2.70437
G1 X57.932 Y77.653 E2.73497
G1 X57.613 Y77.612 E2.74728
G1 X56.825 Y77.487 E2.77781
G1 X56.508 Y77.427 E2.79016
G1 X55.729 Y77.252 E2.82071
G1 X55.427 Y77.174 E2.83265
G1 X54.662 Y76.952 E2.86314
G1 X54.359 Y76.854 E2.87532
G1 X53.608 Y76.584 E2.90586
G1 X53.308 Y76.465 E2.91822
G1 X52.576 Y76.148 E2.94874
G1 X52.293 Y76.015 E2.96071
G1 X51.581 Y75.653 E2.99128
G1 X51.296 Y75.496 E3.00373
G1 X50.61 Y75.09 E3.03424
G1 X50.343 Y74.921 E3.04633
G1 X49.682 Y74.472 E3.07691
G1 X49.422 Y74.283 E3.08921
G1 X48.792 Y73.794 E3.11973
G1 X48.552 Y73.595 E3.13166
G1 X47.953 Y73.068 E3.1622
G1 X47.716 Y72.847 E3.1746
G1 X47.152 Y72.283 E3.20512
G1 X46.931 Y72.046 E3.21752
G1 X46.404 Y71.447 E3.24806
G1 X46.205 Y71.207 E3.25999
G1 X45.716 Y70.577 E3.29051
G1 X45.526 Y70.315 E3.30289
G1 X45.078 Y69.655 E3.33342
G1 X44.911 Y69.392 E3.34534
G1 X44.504 Y68.705 E3.3759
G1 X44.345 Y68.416 E3.38853
G1 X43.984 Y67.705 E3.41904
G1 X43.852 Y67.424 E3.43092
G1 X43.535 Y66.692 E3.46145
G1 X43.416 Y66.392 E3.4738
G1 X43.146 Y65.641 E3.50435
G1 X43.048 Y65.338 E3.51653
G1 X42.826 Y64.573 E3.54702
G1 X42.748 Y64.271 E3.55895
G1 X42.573 Y63.492 E3.58951
G1 X42.513 Y63.175 E3.60186
G1 X42.388 Y62.387 E3.63239
G1 X42.347 Y62.068 E3.6447
G1 X42.272 Y61.272 E3.6753
G1 X42.253 Y60.956 E3.68741
G1 X42.228 Y60.161 E3.71785
G1 X42.227 Y59.842 E3.73006
G1 X42.252 Y59.045 E3.76057
G1 X42.272 Y58.728 E3.77273
G1 X42.347 Y57.932 E3.80333
G1 X42.388 Y57.613 E3.81564
G1 X42.513 Y56.825 E3.84617
G1 X42.573 Y56.508 E3.85852
G1 X42.748 Y55.729 E3.88907
G1 X42.826 Y55.427 E3.90101
G1 X43.048 Y54.662 E3.93149
G1 X43.146 Y54.359 E3.94368
G1 X43.416 Y53.608 E3.97422
G1 X43.535 Y53.308 E3.98657
G1 X43.852 Y52.576 E4.0171
G1 X43.984 Y52.295 E4.02898
G1 X44.345 Y51.584 E4.0595
G1 X44.504 Y51.295 E4.07212
G1 X44.911 Y50.608 E4.10268
G1 X45.078 Y50.345 E4.1146
G1 X45.526 Y49.685 E4.14513
G1 X45.716 Y49.423 E4.15752
G1 X46.205 Y48.793 E4.18804
G1 X46.404 Y48.553 E4.19997
G1 X46.931 Y47.954 E4.2305
G1 X47.152 Y47.717 E4.2429
G1 X47.225 Y47.644 E4.24686
G0 F1620 X47.716 Y47.153
G0 F4320 X47.964 Y47.401
G1 F1800 X48.184 Y47.195 E4.25839
G1 X48.783 Y46.668 E4.28892
G1 X49.007 Y46.482 E4.30006
G1 X49.637 Y45.993 E4.33059
G1 X49.879 Y45.817 E4.34204
G1 X50.54 Y45.368 E4.37262
G1 X50.788 Y45.211 E4.38385
G1 X51.474 Y44.805 E4.41436
G1 X51.74 Y44.659 E4.42597
G1 X52.452 Y44.297 E4.45654
G1 X52.715 Y44.173 E4.46766
G1 X53.447 Y43.856 E4.49819
G1 X53.726 Y43.746 E4.50967
G1 X54.477 Y43.476 E4.54021
G1 X54.759 Y43.384 E4.55156
G1 X55.524 Y43.162 E4.58205
G1 X55.805 Y43.09 E4.59315
G1 X56.584 Y42.915 E4.6237
G1 X56.88 Y42.858 E4.63524
G1 X57.668 Y42.733 E4.66577
G1 X57.965 Y42.696 E4.67723
G1 X58.761 Y42.621 E4.70783
G1 X59.056 Y42.602 E4.71914
G1 X59.852 Y42.577 E4.74962
G1 X60.148 Y42.577 E4.76094
G1 X60.944 Y42.602 E4.79142
G1 X61.239 Y42.621 E4.80274
G1 X62.035 Y42.696 E4.83333
G1 X62.332 Y42.733 E4.84479
G1 X63.12 Y42.858 E4.87532
G1 X63.416 Y42.915 E4.88686
G1 X64.195 Y43.09 E4.91741
G1 X64.476 Y43.162 E4.92851
G1 X65.241 Y43.384 E4.959
G1 X65.523 Y43.476 E4.97035
G1 X66.274 Y43.746 E5.00089
G1 X66.553 Y43.856 E5.01237
G1 X67.285 Y44.173 E5.0429
G1 X67.548 Y44.297 E5.05402
G1 X68.26 Y44.659 E5.08459
G1 X68.526 Y44.805 E5.0962
G1 X69.212 Y45.211 E5.12671
G1 X69.459 Y45.368 E5.13791
G1 X70.119 Y45.816 E5.16844
G1 X70.362 Y45.992 E5.17992
G1 X70.992 Y46.481 E5.21044
G1 X71.216 Y46.667 E5.22158
G1 X71.815 Y47.194 E5.25212
G1 X72.035 Y47.4 E5.26365
G1 X72.599 Y47.964 E5.29418
G1 X72.805 Y48.184 E5.30571
G1 X73.332 Y48.783 E5.33624
G1 X73.518 Y49.007 E5.34739
G1 X74.007 Y49.637 E5.37791
G1 X74.183 Y49.879 E5.38936
G1 X74.632 Y50.54 E5.41994
G1 X74.789 Y50.788 E5.43117
G1 X75.195 Y51.474 E5.46168
G1 X75.341 Y51.74 E5.47329
G1 X75.703 Y52.452 E5.50386
G1 X75.827 Y52.715 E5.51499
G1 X76.144 Y53.447 E5.54551
G1 X76.254 Y53.725 E5.55696
G1 X76.524 Y54.475 E5.58746
G1 X76.616 Y54.76 E5.59892
G1 X76.838 Y55.526 E5.62944
G1 X76.91 Y55.804 E5.64043
G1 X77.085 Y56.582 E5.67095
G1 X77.142 Y56.879 E5.68252
G1 X77.267 Y57.667 E5.71306
G1 X77.304 Y57.964 E5.72451
G1 X77.379 Y58.76 E5.75511
G1 X77.398 Y59.055 E5.76642
G1 X77.423 Y59.851 E5.7969
G1 X77.423 Y60.147 E5.80823
G1 X77.398 Y60.944 E5.83875
G1 X77.379 Y61.239 E5.85006
G1 X77.304 Y62.035 E5.88066
G1 X77.267 Y62.332 E5.89211
G1 X77.142 Y63.12 E5.92264
G1 X77.085 Y63.416 E5.93418
G1 X76.91 Y64.195 E5.96474
G1 X76.838 Y64.476 E5.97584
G1 X76.616 Y65.241 E6.00632
G1 X76.524 Y65.523 E6.01767
G1 X76.254 Y66.274 E6.04821
G1 X76.144 Y66.553 E6.05969
G1 X75.827 Y67.285 E6.09022
G1 X75.704 Y67.546 E6.10126
G1 X75.343 Y68.257 E6.13178
G1 X75.195 Y68.526 E6.14353
G1 X74.788 Y69.213 E6.17409
G1 X74.632 Y69.459 E6.18523
G1 X74.184 Y70.119 E6.21576
G1 X74.008 Y70.362 E6.22724
G1 X73.519 Y70.992 E6.25776
G1 X73.333 Y71.216 E6.26891
G1 X72.806 Y71.815 E6.29944
G1 X72.6 Y72.035 E6.31097
G1 X72.036 Y72.599 E6.3415
G1 X71.816 Y72.805 E6.35303
G1 X71.217 Y73.332 E6.38357
G1 X70.993 Y73.518 E6.39471
G1 X70.363 Y74.007 E6.42523
G1 X70.121 Y74.183 E6.43668
G1 X69.46 Y74.632 E6.46726
G1 X69.212 Y74.789 E6.47849
G1 X68.526 Y75.195 E6.509
G1 X68.26 Y75.341 E6.52061
G1 X67.548 Y75.703 E6.55118
G1 X67.285 Y75.827 E6.56231
G1 X66.553 Y76.144 E6.59284
G1 X66.274 Y76.254 E6.60431
G1 X65.523 Y76.524 E6.63486
G1 X65.241 Y76.616 E6.64621
G1 X64.476 Y76.838 E6.67669
G1 X64.195 Y76.91 E6.68779
G1 X63.416 Y77.085 E6.71835
G1 X63.12 Y77.142 E6.72988
G1 X62.332 Y77.267 E6.76042
G1 X62.035 Y77.304 E6.77187
G1 X61.239 Y77.379 E6.80247
G1 X60.944 Y77.398 E6.81378
G1 X60.148 Y77.423 E6.84426
G1 X59.852 Y77.423 E6.85559
G1 X59.056 Y77.398 E6.88607
G1 X58.761 Y77.379 E6.89738
G1 X57.965 Y77.304 E6.92798
G1 X57.668 Y77.267 E6.93943
G1 X56.88 Y77.142 E6.96997
G1 X56.584 Y77.085 E6.9815
G1 X55.805 Y76.91 E7.01206
G1 X55.524 Y76.838 E7.02316
G1 X54.759 Y76.616 E7.05364
G1 X54.477 Y76.524 E7.06499
G1 X53.726 Y76.254 E7.09554
G1 X53.447 Y76.144 E7.10701
G1 X52.715 Y75.827 E7.13754
G1 X52.452 Y75.703 E7.14867
G1 X51.74 Y75.341 E7.17924
G1 X51.474 Y75.195 E7.19085
G1 X50.788 Y74.789 E7.22135
G1 X50.54 Y74.632 E7.23259
G1 X49.879 Y74.183 E7.26317
G1 X49.637 Y74.007 E7.27462
G1 X49.007 Y73.518 E7.30514
G1 X48.783 Y73.332 E7.31628
G1 X48.184 Y72.805 E7.34682
G1 X47.964 Y72.599 E7.35835
G1 X47.4 Y72.035 E7.38887
G1 X47.194 Y71.815 E7.40041
G1 X46.667 Y71.216 E7.43094
G1 X46.481 Y70.992 E7.44208
G1 X45.992 Y70.362 E7.47261
G1 X45.816 Y70.119 E7.48409
G1 X45.368 Y69.459 E7.51462
G1 X45.212 Y69.213 E7.52576
G1 X44.805 Y68.526 E7.55632
G1 X44.657 Y68.257 E7.56807
G1 X44.296 Y67.546 E7.59859
G1 X44.173 Y67.285 E7.60963
G1 X43.856 Y66.553 E7.64016
G1 X43.746 Y66.274 E7.65163
G1 X43.476 Y65.523 E7.68218
G1 X43.384 Y65.241 E7.69353
G1 X43.162 Y64.476 E7.72401
G1 X43.09 Y64.195 E7.73511
G1 X42.915 Y63.416 E7.76567
G1 X42.858 Y63.12 E7.77721
G1 X42.733 Y62.332 E7.80774
G1 X42.696 Y62.035 E7.81919
G1 X42.621 Y61.239 E7.84979
G1 X42.602 Y60.945 E7.86107
G1 X42.577 Y60.15 E7.89151
G1 X42.577 Y59.853 E7.90287
G1 X42.602 Y59.056 E7.93339
G1 X42.621 Y58.761 E7.9447
G1 X42.696 Y57.965 E7.9753
G1 X42.733 Y57.668 E7.98675
G1 X42.858 Y56.88 E8.01729
G1 X42.915 Y56.584 E8.02882
G1 X43.09 Y55.805 E8.05938
G1 X43.162 Y55.524 E8.07048
G1 X43.384 Y54.759 E8.10096
G1 X43.476 Y54.477 E8.11232
G1 X43.746 Y53.726 E8.14286
G1 X43.856 Y53.447 E8.15433
G1 X44.173 Y52.715 E8.18486
G1 X44.296 Y52.454 E8.1959
G1 X44.657 Y51.743 E8.22642
G1 X44.805 Y51.474 E8.23817
G1 X45.212 Y50.787 E8.26873
G1 X45.368 Y50.541 E8.27988
G1 X45.816 Y49.881 E8.3104
G1 X45.992 Y49.638 E8.32189
G1 X46.481 Y49.008 E8.35241
G1 X46.667 Y48.784 E8.36355
G1 X47.194 Y48.185 E8.39408
G1 X47.4 Y47.965 E8.40562
G1 X47.473 Y47.892 E8.40957
G0 F1620 X47.964 Y47.401
G0 F4320 X48.211 Y47.648
G1 F1800 X48.415 Y47.457 E8.42026
G1 X49.014 Y46.93 E8.4508
G1 X49.221 Y46.759 E8.46107
G1 X49.851 Y46.27 E8.49159
G1 X50.076 Y46.107 E8.50222
G1 X50.737 Y45.658 E8.53281
G1 X50.967 Y45.512 E8.54323
G1 X51.653 Y45.106 E8.57374
G1 X51.898 Y44.971 E8.58444
G1 X52.61 Y44.609 E8.61501
G1 X52.854 Y44.494 E8.62533
G1 X53.586 Y44.177 E8.65586
G1 X53.845 Y44.075 E8.66651
G1 X54.596 Y43.805 E8.69706
G1 X54.857 Y43.72 E8.70756
G1 X55.622 Y43.498 E8.73804
G1 X55.882 Y43.431 E8.74832
G1 X56.661 Y43.256 E8.77888
G1 X56.935 Y43.204 E8.78955
G1 X57.723 Y43.079 E8.82008
G1 X57.998 Y43.044 E8.83069
G1 X58.794 Y42.969 E8.86129
G1 X59.067 Y42.952 E8.87176
G1 X59.863 Y42.927 E8.90224
G1 X60.137 Y42.927 E8.91272
G1 X60.933 Y42.952 E8.9432
G1 X61.206 Y42.969 E8.95367
G1 X62.002 Y43.044 E8.98426
G1 X62.277 Y43.079 E8.99487
G1 X63.065 Y43.204 E9.02541
G1 X63.339 Y43.256 E9.03608
G1 X64.118 Y43.431 E9.06664
G1 X64.378 Y43.498 E9.07691
G1 X65.143 Y43.72 E9.1074
G1 X65.404 Y43.805 E9.1179
G1 X66.155 Y44.075 E9.14844
G1 X66.414 Y44.177 E9.1591
G1 X67.146 Y44.494 E9.18962
G1 X67.39 Y44.609 E9.19995
G1 X68.102 Y44.971 E9.23051
G1 X68.347 Y45.106 E9.24122
G1 X69.033 Y45.512 E9.27173
G1 X69.262 Y45.657 E9.2821
G1 X69.922 Y46.105 E9.31263
G1 X70.148 Y46.269 E9.32331
G1 X70.778 Y46.758 E9.35383
G1 X70.985 Y46.929 E9.36411
G1 X71.584 Y47.456 E9.39464
G1 X71.788 Y47.647 E9.40534
G1 X72.352 Y48.211 E9.43586
G1 X72.543 Y48.415 E9.44656
G1 X73.07 Y49.014 E9.47709
G1 X73.241 Y49.221 E9.48736
G1 X73.73 Y49.851 E9.51788
G1 X73.893 Y50.076 E9.52852
G1 X74.342 Y50.737 E9.5591
G1 X74.488 Y50.967 E9.56952
G1 X74.894 Y51.653 E9.60003
G1 X75.029 Y51.898 E9.61073
G1 X75.391 Y52.61 E9.6413
G1 X75.506 Y52.854 E9.65163
G1 X75.823 Y53.586 E9.68215
G1 X75.924 Y53.843 E9.69272
G1 X76.194 Y54.593 E9.72323
G1 X76.28 Y54.857 E9.73385
G1 X76.502 Y55.623 E9.76437
G1 X76.568 Y55.881 E9.77457
G1 X76.743 Y56.659 E9.80508
G1 X76.796 Y56.934 E9.8158
G1 X76.921 Y57.722 E9.84633
G1 X76.956 Y57.997 E9.85694
G1 X77.031 Y58.793 E9.88754
G1 X77.048 Y59.066 E9.89801
G1 X77.073 Y59.862 E9.92849
G1 X77.073 Y60.136 E9.93897
G1 X77.048 Y60.933 E9.96949
G1 X77.031 Y61.206 E9.97996
G1 X76.956 Y62.002 E10.01056
G1 X76.921 Y62.277 E10.02116
G1 X76.796 Y63.065 E10.0517
G1 X76.744 Y63.339 E10.06237
G1 X76.569 Y64.118 E10.09293
G1 X76.502 Y64.378 E10.1032
G1 X76.28 Y65.143 E10.13369
G1 X76.195 Y65.404 E10.14419
G1 X75.925 Y66.155 E10.17473
G1 X75.823 Y66.414 E10.18539
G1 X75.506 Y67.146 E10.21591
G1 X75.392 Y67.388 E10.22615
G1 X75.031 Y68.099 E10.25667
G1 X74.894 Y68.348 E10.26754
G1 X74.487 Y69.035 E10.2981
G1 X74.343 Y69.262 E10.30839
G1 X73.895 Y69.922 E10.33892
G1 X73.731 Y70.148 E10.3496
G1 X73.242 Y70.778 E10.38012
G1 X73.071 Y70.985 E10.3904
G1 X72.544 Y71.584 E10.42093
G1 X72.353 Y71.788 E10.43163
G1 X71.789 Y72.352 E10.46215
G1 X71.585 Y72.543 E10.47285
G1 X70.986 Y73.07 E10.50338
G1 X70.779 Y73.241 E10.51366
G1 X70.149 Y73.73 E10.54418
G1 X69.924 Y73.893 E10.55481
G1 X69.263 Y74.342 E10.58539
G1 X69.033 Y74.488 E10.59582
G1 X68.347 Y74.894 E10.62632
G1 X68.102 Y75.029 E10.63703
G1 X67.39 Y75.391 E10.66759
G1 X67.146 Y75.506 E10.67792
G1 X66.414 Y75.823 E10.70845
G1 X66.155 Y75.925 E10.7191
G1 X65.404 Y76.195 E10.74964
G1 X65.143 Y76.28 E10.76014
G1 X64.378 Y76.502 E10.79063
G1 X64.118 Y76.569 E10.8009
G1 X63.339 Y76.744 E10.83146
G1 X63.065 Y76.796 E10.84213
G1 X62.277 Y76.921 E10.87267
G1 X62.002 Y76.956 E10.88328
G1 X61.206 Y77.031 E10.91387
G1 X60.933 Y77.048 E10.92434
G1 X60.137 Y77.073 E10.95482
G1 X59.863 Y77.073 E10.96531
G1 X59.067 Y77.048 E10.99578
G1 X58.794 Y77.031 E11.00625
G1 X57.998 Y76.956 E11.03685
G1 X57.723 Y76.921 E11.04746
G1 X56.935 Y76.796 E11.07799
G1 X56.661 Y76.744 E11.08867
G1 X55.882 Y76.569 E11.11922
G1 X55.622 Y76.502 E11.1295
G1 X54.857 Y76.28 E11.15998
G1 X54.596 Y76.195 E11.17048
G1 X53.845 Y75.925 E11.20103
G1 X53.586 Y75.823 E11.21168
G1 X52.854 Y75.506 E11.24221
G1 X52.61 Y75.391 E11.25253
