;FLAVOR:Marlin
;TIME:2285
;Filament used: 1.2966m
;Layer height: 0.175
;MINX:31.075
;MINY:12.037
;MINZ:0.263
;MAXX:88.925
;MAXY:107.963
;MAXZ:2.363
;Generated with Cura_SteamEngine 4.13.1
M140 S65
M105
M190 S65
M104 S205
M105
M109 S205
M82 ;absolute extrusion mode
G21;(metric values)
G90;(absolute positioning)
M82;(set extruder to absolute mode)
M107;(start with the fan off)
G28;(Home the printer)
G92 E0;(Reset the extruder to 0)
G0 Z5 E5 F500;(Move up and prime the nozzle)
G0 X-1 Z0;(Move outside the printable area)
G1 Y60 E8 F500;(Draw a priming/wiping line to the rear)
G1 X-1;(Move a little closer to the print area)
G1 Y10 E16 F500;(draw more priming/wiping)
G1 E15 F250;(Small retract)
G92 E0;(Zero the extruder)
G92 E0
G92 E0
G1 F2400 E-2.5
;LAYER_COUNT:13
;LAYER:0
M107
G0 F4320 X33.374 Y19.95 Z0.263
;TYPE:SKIRT
G1 F2400 E0
G1 F1800 X33.561 Y19.645 E0.01369
G1 X33.986 Y18.997 E0.04335
G1 X34.117 Y18.814 E0.05196
G1 X34.528 Y18.265 E0.07821
G1 X34.751 Y17.985 E0.09191
G1 X35.19 Y17.47 E0.1178
G1 X35.404 Y17.234 E0.13
G1 X35.872 Y16.749 E0.15579
G1 X36.112 Y16.517 E0.16856
G1 X36.616 Y16.056 E0.1947
G1 X36.885 Y15.826 E0.20825
G1 X37.407 Y15.405 E0.23391
G1 X37.654 Y15.219 E0.24575
G1 X38.231 Y14.812 E0.27277
G1 X38.546 Y14.605 E0.28719
G1 X39.214 Y14.197 E0.31715
G1 X39.41 Y14.088 E0.32573
G1 X39.982 Y13.784 E0.35052
G1 X40.326 Y13.615 E0.36519
G1 X40.905 Y13.352 E0.38953
G1 X41.207 Y13.227 E0.40203
G1 X41.85 Y12.982 E0.42837
G1 X42.212 Y12.857 E0.44302
G1 X42.922 Y12.639 E0.47145
G1 X43.157 Y12.576 E0.48076
G1 X43.828 Y12.414 E0.50718
G1 X44.14 Y12.349 E0.51937
G1 X44.847 Y12.224 E0.54685
G1 X45.134 Y12.183 E0.55794
G1 X45.98 Y12.09 E0.59051
G1 X46.183 Y12.076 E0.5983
G1 X46.933 Y12.041 E0.62704
G1 X47.198 Y12.037 E0.63718
G1 X47.958 Y12.05 E0.66627
G1 X48.223 Y12.064 E0.67642
G1 X48.994 Y12.125 E0.70602
G1 X49.625 Y12.194 E0.73031
G1 X52.338 Y12.449 E0.8346
G1 X55.039 Y12.627 E0.93819
G1 X57.804 Y12.73 E1.04408
G1 X60.538 Y12.755 E1.14871
G1 X63.238 Y12.702 E1.25206
G1 X65.967 Y12.573 E1.35662
G1 X68.721 Y12.363 E1.46232
G1 X70.754 Y12.158 E1.54052
G1 X71.252 Y12.102 E1.55969
G1 X71.584 Y12.076 E1.57244
G1 X72.333 Y12.041 E1.60113
G1 X72.598 Y12.037 E1.61128
G1 X73.358 Y12.05 E1.64037
G1 X73.622 Y12.064 E1.65048
G1 X74.391 Y12.125 E1.68001
G1 X74.604 Y12.15 E1.68821
G1 X75.316 Y12.25 E1.71573
G1 X75.633 Y12.305 E1.72804
G1 X76.271 Y12.436 E1.75297
G1 X76.66 Y12.529 E1.76827
G1 X77.366 Y12.723 E1.79629
G1 X77.639 Y12.808 E1.80724
G1 X78.204 Y13 E1.83007
G1 X78.562 Y13.135 E1.84472
G1 X79.311 Y13.446 E1.87575
G1 X79.511 Y13.538 E1.88418
G1 X80.178 Y13.865 E1.91261
G1 X80.429 Y13.998 E1.92348
G1 X80.993 Y14.319 E1.94831
G1 X81.305 Y14.511 E1.96233
G1 X81.844 Y14.863 E1.98697
G1 X82.117 Y15.054 E1.99972
G1 X82.751 Y15.529 E2.03004
G1 X82.964 Y15.701 E2.04052
G1 X83.561 Y16.212 E2.07059
G1 X83.715 Y16.353 E2.07858
G1 X84.19 Y16.811 E2.10383
G1 X84.433 Y17.062 E2.1172
G1 X84.894 Y17.566 E2.14334
G1 X85.124 Y17.836 E2.15692
G1 X85.544 Y18.357 E2.18253
G1 X85.731 Y18.604 E2.19438
G1 X86.138 Y19.181 E2.2214
G1 X86.339 Y19.486 E2.23538
G1 X86.682 Y20.045 E2.26048
G1 X86.862 Y20.36 E2.27437
G1 X87.21 Y21.018 E2.30285
G1 X87.336 Y21.277 E2.31388
G1 X87.599 Y21.857 E2.33825
G1 X87.723 Y22.157 E2.35067
G1 X87.968 Y22.8 E2.377
G1 X88.086 Y23.142 E2.39085
G1 X88.309 Y23.865 E2.41981
G1 X88.374 Y24.107 E2.42939
G1 X88.536 Y24.779 E2.45585
G1 X88.602 Y25.095 E2.4682
G1 X88.733 Y25.842 E2.49723
G1 X88.764 Y26.058 E2.50558
G1 X88.848 Y26.807 E2.53442
G1 X88.874 Y27.131 E2.54686
G1 X88.909 Y27.881 E2.57559
G1 X88.913 Y28.147 E2.58578
G1 X88.903 Y28.811 E2.61119
G1 X88.851 Y29.973 E2.6557
G1 X88.791 Y30.939 E2.69274
G1 X88.699 Y33.674 E2.79747
G1 X88.684 Y36.41 E2.90218
G1 X88.747 Y39.141 E3.00672
G1 X88.839 Y41.102 E3.08185
G1 X88.913 Y42.418 E3.1323
G1 X88.925 Y42.855 E3.14903
G1 X88.925 Y76.798 E4.44802
G1 X88.915 Y77.523 E4.47577
G1 X88.9 Y77.889 E4.48979
G1 X88.768 Y80.211 E4.5788
G1 X88.69 Y82.979 E4.68477
G1 X88.69 Y85.678 E4.78806
G1 X88.767 Y88.413 E4.89277
G1 X88.804 Y89.019 E4.916
G1 X88.802 Y89.146 E4.92086
G1 X88.909 Y91.381 E5.0065
G1 X88.913 Y91.645 E5.0166
G1 X88.9 Y92.406 E5.04573
G1 X88.888 Y92.647 E5.05496
G1 X88.836 Y93.325 E5.08099
G1 X88.802 Y93.644 E5.09326
G1 X88.7 Y94.368 E5.12124
G1 X88.645 Y94.683 E5.13348
G1 X88.514 Y95.321 E5.15841
G1 X88.426 Y95.69 E5.17292
G1 X88.227 Y96.416 E5.20173
G1 X88.142 Y96.689 E5.21268
G1 X87.913 Y97.358 E5.23974
G1 X87.816 Y97.611 E5.25011
G1 X87.546 Y98.264 E5.27715
G1 X87.412 Y98.561 E5.28962
G1 X87.088 Y99.222 E5.31779
G1 X86.956 Y99.47 E5.32854
G1 X86.627 Y100.048 E5.35399
G1 X86.441 Y100.353 E5.36767
G1 X86.087 Y100.895 E5.39244
G1 X85.894 Y101.17 E5.4053
G1 X85.415 Y101.808 E5.43583
G1 X85.249 Y102.014 E5.44595
G1 X84.738 Y102.611 E5.47603
G1 X84.596 Y102.766 E5.48407
G1 X84.128 Y103.251 E5.50987
G1 X83.888 Y103.483 E5.52264
G1 X83.384 Y103.944 E5.54878
G1 X83.115 Y104.174 E5.56232
G1 X82.593 Y104.595 E5.58799
G1 X82.346 Y104.781 E5.59982
G1 X81.769 Y105.188 E5.62684
G1 X81.454 Y105.395 E5.64127
G1 X80.905 Y105.732 E5.66592
G1 X80.59 Y105.912 E5.67981
G1 X80.018 Y106.216 E5.7046
G1 X79.674 Y106.385 E5.71926
G1 X79.095 Y106.648 E5.7436
G1 X78.793 Y106.773 E5.75611
G1 X78.051 Y107.054 E5.78647
G1 X77.791 Y107.142 E5.79698
G1 X77.078 Y107.361 E5.82552
G1 X76.843 Y107.424 E5.83483
G1 X76.172 Y107.586 E5.86125
G1 X75.86 Y107.651 E5.87345
G1 X75.153 Y107.776 E5.90092
G1 X74.866 Y107.817 E5.91202
G1 X74.02 Y107.91 E5.94459
G1 X73.817 Y107.924 E5.95238
G1 X73.067 Y107.959 E5.98111
G1 X72.802 Y107.963 E5.99125
G1 X72.042 Y107.95 E6.02034
G1 X71.777 Y107.936 E6.0305
G1 X71.006 Y107.875 E6.0601
G1 X70.375 Y107.806 E6.08439
G1 X67.662 Y107.551 E6.18867
G1 X64.961 Y107.373 E6.29227
G1 X62.196 Y107.27 E6.39816
G1 X59.462 Y107.245 E6.50279
G1 X56.762 Y107.298 E6.60614
G1 X54.033 Y107.427 E6.71069
G1 X51.279 Y107.637 E6.8164
G1 X49.246 Y107.842 E6.89459
G1 X48.748 Y107.898 E6.91377
G1 X48.416 Y107.924 E6.92652
G1 X47.667 Y107.959 E6.95521
G1 X47.402 Y107.963 E6.96535
G1 X46.642 Y107.95 E6.99444
G1 X46.378 Y107.936 E7.00456
G1 X45.609 Y107.875 E7.03408
G1 X45.396 Y107.85 E7.04229
G1 X44.684 Y107.75 E7.06981
G1 X44.367 Y107.695 E7.08212
G1 X43.729 Y107.564 E7.10704
G1 X43.34 Y107.471 E7.12235
G1 X42.634 Y107.277 E7.15037
G1 X42.361 Y107.192 E7.16131
G1 X41.796 Y107 E7.18415
G1 X41.438 Y106.865 E7.19879
G1 X40.689 Y106.554 E7.22983
G1 X40.489 Y106.462 E7.23825
G1 X39.822 Y106.135 E7.26668
G1 X39.571 Y106.001 E7.27757
G1 X39.002 Y105.677 E7.30263
G1 X38.695 Y105.489 E7.31641
G1 X38.156 Y105.137 E7.34104
G1 X37.88 Y104.944 E7.35393
G1 X37.239 Y104.463 E7.3846
G1 X37.035 Y104.299 E7.39462
G1 X36.52 Y103.86 E7.42052
G1 X36.283 Y103.645 E7.43276
G1 X35.799 Y103.178 E7.4585
G1 X35.564 Y102.935 E7.47144
G1 X35.101 Y102.428 E7.49772
G1 X34.876 Y102.165 E7.51096
G1 X34.455 Y101.643 E7.53663
G1 X34.269 Y101.396 E7.54846
G1 X33.862 Y100.819 E7.57548
G1 X33.654 Y100.503 E7.58996
G1 X33.318 Y99.956 E7.61453
G1 X33.136 Y99.637 E7.62858
G1 X32.833 Y99.066 E7.65332
G1 X32.665 Y98.724 E7.6679
G1 X32.402 Y98.145 E7.69224
G1 X32.27 Y97.826 E7.70545
G1 X31.993 Y97.093 E7.73544
G1 X31.907 Y96.838 E7.74574
G1 X31.687 Y96.121 E7.77444
G1 X31.623 Y95.881 E7.78395
G1 X31.464 Y95.222 E7.80989
G1 X31.399 Y94.91 E7.82209
G1 X31.274 Y94.203 E7.84956
G1 X31.233 Y93.916 E7.86066
G1 X31.14 Y93.07 E7.89323
G1 X31.124 Y92.837 E7.90217
G1 X31.091 Y92.118 E7.92971
G1 X31.087 Y91.853 E7.93986
G1 X31.097 Y91.189 E7.96527
G1 X31.149 Y90.027 E8.00978
G1 X31.21 Y89.056 E8.04702
G1 X31.301 Y86.326 E8.15155
G1 X31.316 Y83.59 E8.25626
G1 X31.253 Y80.859 E8.3608
G1 X31.159 Y78.862 E8.43731
G1 X31.087 Y77.58 E8.48645
G1 X31.075 Y77.145 E8.50311
G1 X31.075 Y43.182 E9.80287
G1 X31.085 Y42.475 E9.82993
G1 X31.1 Y42.111 E9.84387
G1 X31.232 Y39.789 E9.93288
G1 X31.31 Y37.021 E10.03885
G1 X31.31 Y34.322 E10.14214
G1 X31.233 Y31.587 E10.24685
G1 X31.196 Y30.981 E10.27008
G1 X31.198 Y30.854 E10.27494
G1 X31.091 Y28.618 E10.36061
G1 X31.087 Y28.353 E10.37076
G1 X31.1 Y27.592 E10.39988
G1 X31.114 Y27.328 E10.41
G1 X31.175 Y26.562 E10.43941
G1 X31.202 Y26.334 E10.4482
G1 X31.318 Y25.522 E10.47959
G1 X31.355 Y25.317 E10.48756
G1 X31.509 Y24.573 E10.51664
G1 X31.582 Y24.277 E10.5283
G1 X31.773 Y23.584 E10.55581
G1 X31.858 Y23.311 E10.56676
G1 X32.05 Y22.746 E10.58959
G1 X32.189 Y22.379 E10.60461
G1 X32.501 Y21.629 E10.6357
G1 X32.592 Y21.432 E10.644
G1 X32.919 Y20.764 E10.67247
G1 X33.032 Y20.554 E10.68159
G0 F1620 X33.061 Y20.499
G0 X33.374 Y19.95
G0 F4320 X33.678 Y20.123
G1 F1800 X33.854 Y19.836 E10.69448
G1 X34.206 Y19.297 E10.71911
G1 X34.397 Y19.024 E10.73186
G1 X34.808 Y18.475 E10.75811
G1 X35.018 Y18.212 E10.77099
G1 X35.521 Y17.624 E10.8006
G1 X35.656 Y17.477 E10.80824
G1 X36.124 Y16.992 E10.83403
G1 X36.348 Y16.775 E10.84597
G1 X36.852 Y16.314 E10.87211
G1 X37.105 Y16.099 E10.88481
G1 X37.627 Y15.678 E10.91048
G1 X37.856 Y15.506 E10.92144
G1 X38.511 Y15.045 E10.95209
G1 X38.73 Y14.903 E10.96208
G1 X39.289 Y14.56 E10.98718
G1 X39.574 Y14.397 E10.99974
G1 X40.146 Y14.093 E11.02453
G1 X40.471 Y13.933 E11.0384
G1 X41.05 Y13.67 E11.06274
G1 X41.332 Y13.554 E11.0744
G1 X42.071 Y13.274 E11.10465
G1 X42.315 Y13.192 E11.1145
G1 X43.015 Y12.977 E11.14252
G1 X43.239 Y12.917 E11.1514
G1 X43.996 Y12.735 E11.18119
G1 X44.201 Y12.693 E11.1892
G1 X44.908 Y12.568 E11.21668
G1 X45.172 Y12.531 E11.22688
G1 X46.006 Y12.439 E11.25899
G1 X46.2 Y12.426 E11.26643
G1 X46.94 Y12.391 E11.29478
G1 X47.193 Y12.387 E11.30447
G1 X47.856 Y12.397 E11.32984
G1 X48.196 Y12.413 E11.34287
G1 X48.956 Y12.473 E11.37205
G1 X49.59 Y12.541 E11.39645
G1 X52.317 Y12.798 E11.50127
G1 X55.038 Y12.977 E11.60563
G1 X57.788 Y13.079 E11.71094
G1 X60.542 Y13.105 E11.81634
G1 X63.262 Y13.052 E11.92046
G1 X65.976 Y12.923 E12.02444
G1 X68.74 Y12.712 E12.13053
G1 X70.816 Y12.503 E12.21038
G1 X71.414 Y12.439 E12.23339
G1 X71.601 Y12.426 E12.24057
G1 X72.34 Y12.391 E12.26888
G1 X72.593 Y12.387 E12.27856
G1 X73.256 Y12.397 E12.30394
G1 X73.595 Y12.413 E12.31693
G1 X74.352 Y12.473 E12.34599
G1 X74.556 Y12.497 E12.35385
G1 X75.268 Y12.597 E12.38136
G1 X75.563 Y12.648 E12.39282
G1 X76.293 Y12.799 E12.42135
G1 X76.568 Y12.866 E12.43218
G1 X77.172 Y13.031 E12.45614
G1 X77.527 Y13.14 E12.47036
G1 X78.092 Y13.332 E12.49319
G1 X78.429 Y13.459 E12.50697
G1 X79.08 Y13.728 E12.53393
G1 X79.357 Y13.853 E12.54556
G1 X80.016 Y14.175 E12.57363
G1 X80.255 Y14.303 E12.58401
G1 X80.907 Y14.675 E12.61273
G1 X81.114 Y14.804 E12.62207
G1 X81.653 Y15.156 E12.64671
G1 X81.908 Y15.335 E12.65863
G1 X82.534 Y15.803 E12.68854
G1 X82.737 Y15.967 E12.69853
G1 X83.326 Y16.471 E12.72819
G1 X83.472 Y16.605 E12.73578
G1 X83.947 Y17.063 E12.76103
G1 X84.175 Y17.298 E12.77356
G1 X84.636 Y17.802 E12.7997
G1 X84.852 Y18.055 E12.81243
G1 X85.272 Y18.576 E12.83804
G1 X85.444 Y18.806 E12.84903
G1 X85.899 Y19.452 E12.87927
G1 X86.041 Y19.67 E12.88923
G1 X86.439 Y20.321 E12.91843
G1 X86.553 Y20.524 E12.92734
G1 X86.897 Y21.174 E12.95548
G1 X87.018 Y21.422 E12.96605
G1 X87.281 Y22.002 E12.99042
G1 X87.396 Y22.282 E13.002
G1 X87.672 Y23.009 E13.03176
G1 X87.752 Y23.246 E13.04133
G1 X87.971 Y23.959 E13.06988
G1 X88.034 Y24.189 E13.079
G1 X88.215 Y24.946 E13.10879
G1 X88.257 Y25.156 E13.11699
G1 X88.388 Y25.903 E13.14601
G1 X88.416 Y26.097 E13.15351
G1 X88.5 Y26.846 E13.18236
G1 X88.524 Y27.148 E13.19395
G1 X88.559 Y27.888 E13.2223
G1 X88.563 Y28.142 E13.23202
G1 X88.55 Y28.901 E13.26108
G1 X88.502 Y29.951 E13.3013
G1 X88.441 Y30.922 E13.33853
G1 X88.349 Y33.661 E13.44341
G1 X88.334 Y36.416 E13.54885
G1 X88.397 Y39.167 E13.65416
G1 X88.49 Y41.122 E13.72906
G1 X88.564 Y42.429 E13.77916
G1 X88.575 Y42.855 E13.79547
G1 X88.575 Y76.793 E15.09427
G1 X88.565 Y77.518 E15.12202
G1 X88.551 Y77.869 E15.13546
G1 X88.418 Y80.216 E15.22543
G1 X88.34 Y82.969 E15.33083
G1 X88.34 Y85.688 E15.43488
G1 X88.418 Y88.446 E15.54047
G1 X88.454 Y89.041 E15.56329
G1 X88.452 Y89.158 E15.56776
G1 X88.559 Y91.389 E15.65324
G1 X88.563 Y91.64 E15.66285
G1 X88.553 Y92.306 E15.68834
G1 X88.539 Y92.62 E15.70037
G1 X88.487 Y93.298 E15.72639
G1 X88.455 Y93.595 E15.73782
G1 X88.353 Y94.319 E15.76581
G1 X88.302 Y94.613 E15.77723
G1 X88.151 Y95.344 E15.80579
G1 X88.089 Y95.598 E15.8158
G1 X87.92 Y96.219 E15.84043
G1 X87.81 Y96.577 E15.85476
G1 X87.585 Y97.235 E15.88137
G1 X87.492 Y97.477 E15.89129
G1 X87.222 Y98.13 E15.91834
G1 X87.097 Y98.407 E15.92997
G1 X86.778 Y99.06 E15.95778
G1 X86.652 Y99.297 E15.96805
G1 X86.273 Y99.961 E15.99731
G1 X86.148 Y100.161 E16.00634
G1 X85.794 Y100.703 E16.03111
G1 X85.614 Y100.96 E16.04312
G1 X85.141 Y101.591 E16.0733
G1 X84.983 Y101.787 E16.08293
G1 X84.479 Y102.376 E16.1126
G1 X84.344 Y102.523 E16.12024
G1 X83.876 Y103.008 E16.14603
G1 X83.652 Y103.225 E16.15797
G1 X83.148 Y103.686 E16.18411
G1 X82.895 Y103.901 E16.19681
G1 X82.373 Y104.322 E16.22248
G1 X82.144 Y104.494 E16.23344
G1 X81.489 Y104.955 E16.26409
G1 X81.271 Y105.097 E16.27405
G1 X80.722 Y105.434 E16.2987
G1 X80.426 Y105.603 E16.31174
G1 X79.854 Y105.907 E16.33653
G1 X79.529 Y106.067 E16.3504
G1 X78.95 Y106.33 E16.37474
G1 X78.668 Y106.446 E16.3864
G1 X78.025 Y106.691 E16.41274
G1 X77.688 Y106.808 E16.42639
G1 X77.076 Y106.997 E16.4509
G1 X76.761 Y107.083 E16.4634
G1 X76.004 Y107.265 E16.49319
G1 X75.799 Y107.307 E16.5012
G1 X75.092 Y107.432 E16.52868
G1 X74.828 Y107.469 E16.53888
G1 X73.994 Y107.561 E16.57099
G1 X73.8 Y107.574 E16.57843
G1 X73.06 Y107.609 E16.60678
G1 X72.807 Y107.613 E16.61647
G1 X72.144 Y107.603 E16.64184
G1 X71.804 Y107.587 E16.65487
G1 X71.044 Y107.527 E16.68405
G1 X70.413 Y107.459 E16.70833
G1 X67.683 Y107.202 E16.81327
G1 X64.962 Y107.023 E16.91763
G1 X62.212 Y106.921 E17.02295
G1 X59.458 Y106.895 E17.12835
G1 X56.738 Y106.948 E17.23246
G1 X54.024 Y107.077 E17.33644
G1 X51.26 Y107.288 E17.44253
G1 X49.184 Y107.497 E17.52238
G1 X48.586 Y107.561 E17.54539
G1 X48.399 Y107.574 E17.55257
G1 X47.66 Y107.609 E17.58088
G1 X47.407 Y107.613 E17.59056
G1 X46.744 Y107.603 E17.61594
G1 X46.405 Y107.587 E17.62893
G1 X45.648 Y107.527 E17.65799
G1 X45.444 Y107.503 E17.66585
G1 X44.732 Y107.403 E17.69337
G1 X44.437 Y107.352 E17.70482
G1 X43.707 Y107.201 E17.73335
G1 X43.432 Y107.134 E17.74418
G1 X42.828 Y106.969 E17.76815
G1 X42.473 Y106.86 E17.78236
G1 X41.908 Y106.668 E17.80519
G1 X41.571 Y106.541 E17.81898
G1 X40.92 Y106.272 E17.84593
G1 X40.643 Y106.147 E17.85756
G1 X39.984 Y105.825 E17.88563
G1 X39.744 Y105.697 E17.89604
G1 X39.175 Y105.373 E17.9211
G1 X38.886 Y105.196 E17.93407
G1 X38.347 Y104.844 E17.95871
G1 X38.089 Y104.663 E17.97077
G1 X37.456 Y104.188 E18.00105
G1 X37.262 Y104.032 E18.01058
G1 X36.673 Y103.528 E18.04025
G1 X36.526 Y103.393 E18.04789
G1 X36.042 Y102.926 E18.07363
G1 X35.823 Y102.699 E18.0857
G1 X35.36 Y102.192 E18.11197
G1 X35.149 Y101.945 E18.12441
G1 X34.728 Y101.423 E18.15007
G1 X34.556 Y101.194 E18.16103
G1 X34.092 Y100.534 E18.19191
G1 X33.953 Y100.32 E18.20167
G1 X33.565 Y99.686 E18.23012
G1 X33.445 Y99.473 E18.23947
G1 X33.142 Y98.902 E18.26421
G1 X32.983 Y98.579 E18.27799
G1 X32.72 Y98 E18.30233
G1 X32.597 Y97.702 E18.31466
G1 X32.324 Y96.979 E18.34424
G1 X32.242 Y96.735 E18.35409
G1 X32.025 Y96.028 E18.38239
G1 X31.964 Y95.799 E18.39146
G1 X31.785 Y95.054 E18.42079
G1 X31.743 Y94.849 E18.42879
G1 X31.618 Y94.142 E18.45627
G1 X31.581 Y93.878 E18.46647
G1 X31.489 Y93.044 E18.49858
G1 X31.474 Y92.821 E18.50714
G1 X31.441 Y92.11 E18.53438
G1 X31.437 Y91.858 E18.54402
G1 X31.45 Y91.099 E18.57307
G1 X31.498 Y90.049 E18.6133
G1 X31.56 Y89.056 E18.65137
G1 X31.651 Y86.339 E18.75541
G1 X31.666 Y83.584 E18.86085
G1 X31.603 Y80.833 E18.96616
G1 X31.51 Y78.877 E19.0411
G1 X31.436 Y77.57 E19.09119
G1 X31.425 Y77.145 E19.10746
G1 X31.425 Y43.187 E20.40704
G1 X31.435 Y42.48 E20.4341
G1 X31.449 Y42.131 E20.44746
G1 X31.582 Y39.784 E20.53743
G1 X31.66 Y37.031 E20.64283
G1 X31.66 Y34.312 E20.74688
G1 X31.582 Y31.554 E20.85247
G1 X31.546 Y30.959 E20.87528
G1 X31.548 Y30.842 E20.87976
G1 X31.441 Y28.61 E20.96528
G1 X31.437 Y28.358 E20.97492
G1 X31.447 Y27.694 E21.00034
G1 X31.463 Y27.355 E21.01333
G1 X31.523 Y26.6 E21.04231
