;FLAVOR:Marlin
;TIME:2264
;Filament used: 1.40938m
;Layer height: 0.175
;MINX:10.477
;MINY:29.525
;MINZ:0.263
;MAXX:109.523
;MAXY:90.475
;MAXZ:0.963
;Generated with Cura_SteamEngine 4.13.1
M140 S65
M105
M190 S65
M104 S205
M105
M109 S205
M82 ;absolute extrusion mode
G21;(metric values)
G90;(absolute positioning)
M82;(set extruder to absolute mode)
M107;(start with the fan off)
G28;(Home the printer)
G92 E0;(Reset the extruder to 0)
G0 Z5 E5 F500;(Move up and prime the nozzle)
G0 X-1 Z0;(Move outside the printable area)
G1 Y60 E8 F500;(Draw a priming/wiping line to the rear)
G1 X-1;(Move a little closer to the print area)
G1 Y10 E16 F500;(draw more priming/wiping)
G1 E15 F250;(Small retract)
G92 E0;(Zero the extruder)
G92 E0
G92 E0
G1 F2400 E-2.5
;LAYER_COUNT:5
;LAYER:0
M107
G0 F4320 X18.86 Y32.21 Z0.263
;TYPE:SKIRT
G1 F2400 E0
G1 F1800 X19.546 Y31.804 E0.03051
G1 X19.831 Y31.647 E0.04296
G1 X20.543 Y31.285 E0.07353
G1 X20.826 Y31.152 E0.08549
G1 X21.558 Y30.835 E0.11602
G1 X21.858 Y30.716 E0.12837
G1 X22.609 Y30.446 E0.15891
G1 X22.912 Y30.348 E0.1711
G1 X23.677 Y30.126 E0.20159
G1 X23.979 Y30.048 E0.21352
G1 X24.758 Y29.873 E0.24408
G1 X25.075 Y29.813 E0.25642
G1 X25.863 Y29.688 E0.28696
G1 X26.182 Y29.647 E0.29927
G1 X26.978 Y29.572 E0.32986
G1 X27.295 Y29.553 E0.34202
G1 X28.091 Y29.528 E0.3725
G1 X28.409 Y29.528 E0.38467
G1 X29.205 Y29.553 E0.41514
G1 X29.522 Y29.572 E0.4273
G1 X30.318 Y29.647 E0.45789
G1 X30.637 Y29.688 E0.4702
G1 X31.425 Y29.813 E0.50074
G1 X31.742 Y29.873 E0.51308
G1 X32.521 Y30.048 E0.54364
G1 X32.823 Y30.126 E0.55558
G1 X33.588 Y30.348 E0.58606
G1 X33.891 Y30.446 E0.59825
G1 X34.642 Y30.716 E0.62879
G1 X34.942 Y30.835 E0.64114
G1 X35.674 Y31.152 E0.67167
G1 X35.957 Y31.285 E0.68364
G1 X36.669 Y31.647 E0.7142
G1 X36.954 Y31.804 E0.72666
G1 X37.64 Y32.21 E0.75716
G1 X37.957 Y32.413 E0.77157
G1 X38.077 Y32.157 E0.78239
G1 X38.418 Y31.619 E0.80676
G1 X38.824 Y31.128 E0.83115
G1 X39.288 Y30.692 E0.85551
G1 X39.803 Y30.317 E0.87989
G1 X40.36 Y30.01 E0.90423
G1 X40.952 Y29.775 E0.92861
G1 X41.569 Y29.616 E0.95299
G1 X42.201 Y29.535 E0.97738
G1 X42.525 Y29.525 E0.98978
G1 X77.475 Y29.525 E2.32732
G1 X78.111 Y29.565 E2.35171
G1 X78.736 Y29.684 E2.37605
G1 X79.342 Y29.881 E2.40044
G1 X79.918 Y30.152 E2.4248
G1 X80.456 Y30.493 E2.44918
G1 X80.947 Y30.899 E2.47356
G1 X81.383 Y31.363 E2.49793
G1 X81.758 Y31.878 E2.52231
G1 X82.05 Y32.408 E2.54547
G1 X82.36 Y32.21 E2.55954
G1 X83.046 Y31.804 E2.59005
G1 X83.331 Y31.647 E2.6025
G1 X84.043 Y31.285 E2.63307
G1 X84.326 Y31.152 E2.64504
G1 X85.058 Y30.835 E2.67556
G1 X85.358 Y30.716 E2.68791
G1 X86.109 Y30.446 E2.71846
G1 X86.412 Y30.348 E2.73064
G1 X87.177 Y30.126 E2.76113
G1 X87.479 Y30.048 E2.77306
G1 X88.258 Y29.873 E2.80362
G1 X88.575 Y29.813 E2.81597
G1 X89.363 Y29.688 E2.8465
G1 X89.682 Y29.647 E2.85881
G1 X90.478 Y29.572 E2.88941
G1 X90.795 Y29.553 E2.90156
G1 X91.591 Y29.528 E2.93204
G1 X91.909 Y29.528 E2.94421
G1 X92.705 Y29.553 E2.97469
G1 X93.022 Y29.572 E2.98684
G1 X93.818 Y29.647 E3.01744
G1 X94.137 Y29.688 E3.02975
G1 X94.925 Y29.813 E3.06028
G1 X95.242 Y29.873 E3.07263
G1 X96.021 Y30.048 E3.10318
G1 X96.323 Y30.126 E3.11512
G1 X97.088 Y30.348 E3.1456
G1 X97.391 Y30.446 E3.15779
G1 X98.142 Y30.716 E3.18833
G1 X98.442 Y30.835 E3.20068
G1 X99.174 Y31.152 E3.23121
G1 X99.457 Y31.285 E3.24318
G1 X100.169 Y31.647 E3.27375
G1 X100.454 Y31.804 E3.2862
G1 X101.14 Y32.21 E3.3167
G1 X101.405 Y32.378 E3.32871
G1 X102.065 Y32.826 E3.35924
G1 X102.327 Y33.016 E3.37162
G1 X102.957 Y33.505 E3.40215
G1 X103.197 Y33.704 E3.41408
G1 X103.796 Y34.231 E3.44461
G1 X104.033 Y34.452 E3.45701
G1 X104.597 Y35.016 E3.48754
G1 X104.818 Y35.253 E3.49994
G1 X105.345 Y35.852 E3.53047
G1 X105.544 Y36.092 E3.5424
G1 X106.033 Y36.722 E3.57292
G1 X106.222 Y36.982 E3.58522
G1 X106.671 Y37.643 E3.6158
G1 X106.84 Y37.91 E3.6279
G1 X107.246 Y38.596 E3.6584
G1 X107.403 Y38.881 E3.67086
G1 X107.765 Y39.593 E3.70142
G1 X107.898 Y39.876 E3.71339
G1 X108.215 Y40.608 E3.74392
G1 X108.333 Y40.906 E3.75618
G1 X108.603 Y41.656 E3.78669
G1 X108.702 Y41.962 E3.799
G1 X108.924 Y42.728 E3.82952
G1 X109.001 Y43.027 E3.84134
G1 X109.176 Y43.805 E3.87185
G1 X109.237 Y44.124 E3.88428
G1 X109.362 Y44.912 E3.91482
G1 X109.403 Y45.231 E3.92713
G1 X109.478 Y46.027 E3.95772
G1 X109.497 Y46.344 E3.96988
G1 X109.522 Y47.14 E4.00035
G1 X109.523 Y47.458 E4.01252
G1 X109.498 Y48.255 E4.04304
G1 X109.478 Y48.572 E4.0552
G1 X109.403 Y49.368 E4.08579
G1 X109.362 Y49.687 E4.0981
G1 X109.237 Y50.475 E4.12864
G1 X109.177 Y50.792 E4.14098
G1 X109.002 Y51.571 E4.17154
G1 X108.924 Y51.873 E4.18348
G1 X108.702 Y52.638 E4.21396
G1 X108.604 Y52.941 E4.22615
G1 X108.334 Y53.692 E4.25669
G1 X108.215 Y53.992 E4.26904
G1 X107.898 Y54.724 E4.29957
G1 X107.766 Y55.005 E4.31145
G1 X107.405 Y55.716 E4.34196
G1 X107.246 Y56.005 E4.35459
G1 X106.839 Y56.692 E4.38515
G1 X106.672 Y56.955 E4.39707
G1 X106.224 Y57.615 E4.4276
G1 X106.034 Y57.877 E4.43998
G1 X105.545 Y58.507 E4.4705
G1 X105.346 Y58.747 E4.48244
G1 X104.819 Y59.346 E4.51297
G1 X104.598 Y59.583 E4.52537
G1 X104.181 Y60 E4.54794
G1 X104.597 Y60.416 E4.57045
G1 X104.818 Y60.653 E4.58285
G1 X105.345 Y61.252 E4.61339
G1 X105.544 Y61.492 E4.62532
G1 X106.033 Y62.122 E4.65584
G1 X106.222 Y62.382 E4.66814
G1 X106.671 Y63.043 E4.69872
G1 X106.84 Y63.31 E4.71081
G1 X107.246 Y63.996 E4.74132
G1 X107.403 Y64.281 E4.75377
G1 X107.765 Y64.993 E4.78434
G1 X107.898 Y65.276 E4.79631
G1 X108.215 Y66.008 E4.82684
G1 X108.333 Y66.306 E4.8391
G1 X108.603 Y67.056 E4.86961
G1 X108.702 Y67.362 E4.88192
G1 X108.924 Y68.128 E4.91244
G1 X109.001 Y68.427 E4.92425
G1 X109.176 Y69.205 E4.95477
G1 X109.237 Y69.524 E4.9672
G1 X109.362 Y70.312 E4.99773
G1 X109.403 Y70.631 E5.01004
G1 X109.478 Y71.427 E5.04064
G1 X109.497 Y71.744 E5.05279
G1 X109.522 Y72.54 E5.08327
G1 X109.523 Y72.858 E5.09544
G1 X109.498 Y73.655 E5.12596
G1 X109.478 Y73.972 E5.13811
G1 X109.403 Y74.768 E5.16871
G1 X109.362 Y75.087 E5.18102
G1 X109.237 Y75.875 E5.21155
G1 X109.177 Y76.192 E5.2239
G1 X109.002 Y76.971 E5.25446
G1 X108.924 Y77.273 E5.26639
G1 X108.702 Y78.038 E5.29688
G1 X108.604 Y78.341 E5.30906
G1 X108.334 Y79.092 E5.33961
G1 X108.215 Y79.392 E5.35196
G1 X107.898 Y80.124 E5.38248
G1 X107.766 Y80.405 E5.39437
G1 X107.405 Y81.116 E5.42488
G1 X107.246 Y81.405 E5.43751
G1 X106.839 Y82.092 E5.46806
G1 X106.672 Y82.355 E5.47999
G1 X106.224 Y83.015 E5.51051
G1 X106.034 Y83.277 E5.5229
G1 X105.545 Y83.907 E5.55342
G1 X105.346 Y84.147 E5.56535
G1 X104.819 Y84.746 E5.59588
G1 X104.598 Y84.983 E5.60829
G1 X104.034 Y85.547 E5.63881
G1 X103.797 Y85.768 E5.65121
G1 X103.198 Y86.295 E5.68175
G1 X102.958 Y86.494 E5.69368
G1 X102.328 Y86.983 E5.7242
G1 X102.068 Y87.172 E5.7365
G1 X101.407 Y87.621 E5.76708
G1 X101.14 Y87.79 E5.77917
G1 X100.454 Y88.196 E5.80968
G1 X100.169 Y88.353 E5.82213
G1 X99.457 Y88.715 E5.8527
G1 X99.174 Y88.848 E5.86467
G1 X98.442 Y89.165 E5.89519
G1 X98.142 Y89.284 E5.90754
G1 X97.391 Y89.554 E5.93809
G1 X97.088 Y89.652 E5.95027
G1 X96.323 Y89.874 E5.98076
G1 X96.021 Y89.952 E5.99269
G1 X95.242 Y90.127 E6.02325
G1 X94.925 Y90.187 E6.0356
G1 X94.137 Y90.312 E6.06613
G1 X93.818 Y90.353 E6.07844
G1 X93.022 Y90.428 E6.10904
G1 X92.705 Y90.447 E6.12119
G1 X91.909 Y90.472 E6.15167
G1 X91.591 Y90.472 E6.16384
G1 X90.795 Y90.447 E6.19432
G1 X90.478 Y90.428 E6.20647
G1 X89.682 Y90.353 E6.23707
G1 X89.363 Y90.312 E6.24938
G1 X88.575 Y90.187 E6.27991
G1 X88.258 Y90.127 E6.29226
G1 X87.479 Y89.952 E6.32281
G1 X87.177 Y89.874 E6.33475
G1 X86.412 Y89.652 E6.36523
G1 X86.109 Y89.554 E6.37742
G1 X85.358 Y89.284 E6.40796
G1 X85.058 Y89.165 E6.42031
G1 X84.326 Y88.848 E6.45084
G1 X84.043 Y88.715 E6.46281
G1 X83.331 Y88.353 E6.49338
G1 X83.046 Y88.196 E6.50583
G1 X82.36 Y87.79 E6.53633
G1 X82.043 Y87.587 E6.55074
G1 X81.923 Y87.843 E6.56156
G1 X81.582 Y88.381 E6.58594
G1 X81.176 Y88.872 E6.61032
G1 X80.712 Y89.308 E6.63469
G1 X80.197 Y89.683 E6.65907
G1 X79.64 Y89.99 E6.68341
G1 X79.048 Y90.225 E6.70778
G1 X78.431 Y90.384 E6.73217
G1 X77.799 Y90.465 E6.75655
G1 X77.475 Y90.475 E6.76896
G1 X42.525 Y90.475 E8.10649
G1 X41.889 Y90.435 E8.13088
G1 X41.264 Y90.316 E8.15523
G1 X40.658 Y90.119 E8.17961
G1 X40.082 Y89.848 E8.20397
G1 X39.544 Y89.507 E8.22835
G1 X39.053 Y89.101 E8.25273
G1 X38.617 Y88.637 E8.2771
G1 X38.242 Y88.122 E8.30148
G1 X37.95 Y87.592 E8.32464
G1 X37.64 Y87.79 E8.33871
G1 X36.954 Y88.196 E8.36922
G1 X36.669 Y88.353 E8.38167
G1 X35.957 Y88.715 E8.41224
G1 X35.674 Y88.848 E8.42421
G1 X34.942 Y89.165 E8.45474
G1 X34.642 Y89.284 E8.46709
G1 X33.891 Y89.554 E8.49763
G1 X33.588 Y89.652 E8.50982
G1 X32.823 Y89.874 E8.5403
G1 X32.521 Y89.952 E8.55224
G1 X31.742 Y90.127 E8.58279
G1 X31.425 Y90.187 E8.59514
G1 X30.637 Y90.312 E8.62567
G1 X30.318 Y90.353 E8.63798
G1 X29.522 Y90.428 E8.66858
G1 X29.205 Y90.447 E8.68073
G1 X28.409 Y90.472 E8.71121
G1 X28.091 Y90.472 E8.72338
G1 X27.295 Y90.447 E8.75386
G1 X26.978 Y90.428 E8.76601
G1 X26.182 Y90.353 E8.79661
G1 X25.863 Y90.312 E8.80892
G1 X25.075 Y90.187 E8.83945
G1 X24.758 Y90.127 E8.8518
G1 X23.979 Y89.952 E8.88235
G1 X23.677 Y89.874 E8.89429
G1 X22.912 Y89.652 E8.92477
G1 X22.609 Y89.554 E8.93696
G1 X21.858 Y89.284 E8.9675
G1 X21.558 Y89.165 E8.97986
G1 X20.826 Y88.848 E9.01038
G1 X20.543 Y88.715 E9.02235
G1 X19.831 Y88.353 E9.05292
G1 X19.546 Y88.196 E9.06537
G1 X18.86 Y87.79 E9.09588
G1 X18.593 Y87.621 E9.10797
G1 X17.932 Y87.172 E9.13855
G1 X17.672 Y86.983 E9.15085
G1 X17.042 Y86.494 E9.18137
G1 X16.802 Y86.295 E9.1933
G1 X16.203 Y85.768 E9.22384
G1 X15.966 Y85.547 E9.23624
G1 X15.402 Y84.983 E9.26676
G1 X15.181 Y84.746 E9.27916
G1 X14.654 Y84.147 E9.3097
G1 X14.455 Y83.907 E9.32163
G1 X13.966 Y83.277 E9.35215
G1 X13.776 Y83.015 E9.36453
G1 X13.328 Y82.355 E9.39506
G1 X13.161 Y82.092 E9.40698
G1 X12.754 Y81.405 E9.43754
G1 X12.595 Y81.116 E9.45017
G1 X12.234 Y80.405 E9.48068
G1 X12.102 Y80.124 E9.49256
G1 X11.785 Y79.392 E9.52309
G1 X11.666 Y79.092 E9.53544
G1 X11.396 Y78.341 E9.56598
G1 X11.298 Y78.038 E9.57817
G1 X11.076 Y77.273 E9.60866
G1 X10.998 Y76.971 E9.62059
G1 X10.823 Y76.192 E9.65115
G1 X10.763 Y75.875 E9.6635
G1 X10.638 Y75.087 E9.69403
G1 X10.597 Y74.768 E9.70634
G1 X10.522 Y73.972 E9.73694
G1 X10.503 Y73.656 E9.74905
G1 X10.478 Y72.861 E9.77949
G1 X10.477 Y72.542 E9.7917
G1 X10.502 Y71.745 E9.82221
G1 X10.522 Y71.428 E9.83437
G1 X10.597 Y70.632 E9.86497
G1 X10.638 Y70.313 E9.87728
G1 X10.763 Y69.525 E9.90781
G1 X10.823 Y69.208 E9.92016
G1 X10.998 Y68.429 E9.95071
G1 X11.076 Y68.127 E9.96265
G1 X11.298 Y67.362 E9.99313
G1 X11.396 Y67.059 E10.00532
G1 X11.666 Y66.308 E10.03586
G1 X11.785 Y66.008 E10.04821
G1 X12.102 Y65.276 E10.07874
G1 X12.234 Y64.995 E10.09062
G1 X12.595 Y64.284 E10.12114
G1 X12.754 Y63.995 E10.13376
G1 X13.161 Y63.308 E10.16432
G1 X13.328 Y63.045 E10.17624
G1 X13.776 Y62.385 E10.20677
G1 X13.966 Y62.123 E10.21916
G1 X14.455 Y61.493 E10.24968
G1 X14.654 Y61.253 E10.26161
G1 X15.181 Y60.654 E10.29214
G1 X15.402 Y60.417 E10.30454
G1 X15.819 Y60 E10.32711
G1 X15.402 Y59.583 E10.34968
G1 X15.181 Y59.346 E10.36208
G1 X14.654 Y58.747 E10.39262
G1 X14.455 Y58.507 E10.40455
G1 X13.966 Y57.877 E10.43507
G1 X13.776 Y57.615 E10.44745
G1 X13.328 Y56.955 E10.47798
G1 X13.161 Y56.692 E10.4899
G1 X12.754 Y56.005 E10.52046
G1 X12.595 Y55.716 E10.53309
G1 X12.234 Y55.005 E10.5636
G1 X12.102 Y54.724 E10.57548
G1 X11.785 Y53.992 E10.60601
G1 X11.666 Y53.692 E10.61836
G1 X11.396 Y52.941 E10.6489
G1 X11.298 Y52.638 E10.66109
G1 X11.076 Y51.873 E10.69158
G1 X10.998 Y51.571 E10.70351
G1 X10.823 Y50.792 E10.73407
G1 X10.763 Y50.475 E10.74641
G1 X10.638 Y49.687 E10.77695
G1 X10.597 Y49.368 E10.78926
G1 X10.522 Y48.572 E10.81986
G1 X10.503 Y48.256 E10.83197
G1 X10.478 Y47.461 E10.86241
G1 X10.477 Y47.142 E10.87462
G1 X10.502 Y46.345 E10.90513
G1 X10.522 Y46.028 E10.91729
G1 X10.597 Y45.232 E10.94789
G1 X10.638 Y44.913 E10.9602
G1 X10.763 Y44.125 E10.99073
G1 X10.823 Y43.808 E11.00308
G1 X10.998 Y43.029 E11.03363
G1 X11.076 Y42.727 E11.04557
G1 X11.298 Y41.962 E11.07605
G1 X11.396 Y41.659 E11.08824
G1 X11.666 Y40.908 E11.11878
G1 X11.785 Y40.608 E11.13113
G1 X12.102 Y39.876 E11.16166
G1 X12.234 Y39.595 E11.17354
G1 X12.595 Y38.884 E11.20406
G1 X12.754 Y38.595 E11.21668
G1 X13.161 Y37.908 E11.24724
G1 X13.328 Y37.645 E11.25916
G1 X13.776 Y36.985 E11.28969
G1 X13.966 Y36.723 E11.30208
G1 X14.455 Y36.093 E11.3326
G1 X14.654 Y35.853 E11.34453
G1 X15.181 Y35.254 E11.37506
G1 X15.402 Y35.017 E11.38746
G1 X15.966 Y34.453 E11.41799
G1 X16.203 Y34.232 E11.43039
G1 X16.802 Y33.705 E11.46092
G1 X17.042 Y33.506 E11.47285
G1 X17.672 Y33.017 E11.50337
G1 X17.932 Y32.828 E11.51568
G1 X18.28 Y32.591 E11.53179
G0 F1620 X18.593 Y32.379
G0 X18.86 Y32.21
G0 F4320 X19.038 Y32.511
G1 F1800 X19.724 Y32.105 E11.5623
G1 X19.99 Y31.959 E11.57391
G1 X20.702 Y31.597 E11.60448
G1 X20.965 Y31.473 E11.6156
G1 X21.697 Y31.156 E11.64613
G1 X21.976 Y31.046 E11.65761
G1 X22.727 Y30.776 E11.68815
G1 X23.009 Y30.684 E11.6995
G1 X23.774 Y30.462 E11.72999
G1 X24.055 Y30.39 E11.74109
G1 X24.834 Y30.215 E11.77164
G1 X25.13 Y30.158 E11.78318
G1 X25.918 Y30.033 E11.81371
G1 X26.215 Y29.996 E11.82517
G1 X27.011 Y29.921 E11.85576
G1 X27.306 Y29.902 E11.86708
G1 X28.102 Y29.877 E11.89756
G1 X28.398 Y29.877 E11.90888
G1 X29.194 Y29.902 E11.93936
G1 X29.489 Y29.921 E11.95067
G1 X30.285 Y29.996 E11.98127
G1 X30.582 Y30.033 E11.99273
G1 X31.37 Y30.158 E12.02326
G1 X31.666 Y30.215 E12.0348
G1 X32.445 Y30.39 E12.06535
G1 X32.726 Y30.462 E12.07645
G1 X33.491 Y30.684 E12.10694
G1 X33.773 Y30.776 E12.11829
G1 X34.524 Y31.046 E12.14883
G1 X34.803 Y31.156 E12.16031
G1 X35.535 Y31.473 E12.19083
G1 X35.798 Y31.597 E12.20196
G1 X36.51 Y31.959 E12.23253
G1 X36.776 Y32.105 E12.24414
G1 X37.462 Y32.511 E12.27465
G1 X38.109 Y32.94 E12.30436
G1 X38.156 Y32.802 E12.30994
G1 X38.426 Y32.25 E12.33345
G1 X38.766 Y31.738 E12.35698
G1 X39.169 Y31.274 E12.3805
G1 X39.629 Y30.867 E12.404
G1 X40.138 Y30.522 E12.42753
G1 X40.687 Y30.247 E12.45103
G1 X41.268 Y30.045 E12.47457
G1 X41.869 Y29.921 E12.49806
G1 X42.525 Y29.875 E12.52322
G1 X77.475 Y29.875 E13.86076
G1 X78.088 Y29.915 E13.88427
G1 X78.691 Y30.034 E13.90779
G1 X79.273 Y30.231 E13.9313
G1 X79.825 Y30.501 E13.95482
G1 X80.337 Y30.841 E13.97834
G1 X80.801 Y31.244 E14.00186
G1 X81.208 Y31.704 E14.02537
G1 X81.553 Y32.213 E14.0489
G1 X81.828 Y32.762 E14.0724
G1 X81.89 Y32.94 E14.07961
G1 X82.538 Y32.511 E14.10935
G1 X83.224 Y32.105 E14.13986
G1 X83.49 Y31.959 E14.15147
G1 X84.202 Y31.597 E14.18204
G1 X84.465 Y31.473 E14.19317
G1 X85.197 Y31.156 E14.22369
G1 X85.476 Y31.046 E14.23517
G1 X86.227 Y30.776 E14.26571
G1 X86.509 Y30.684 E14.27707
G1 X87.274 Y30.462 E14.30755
G1 X87.555 Y30.39 E14.31865
G1 X88.334 Y30.215 E14.34921
G1 X88.63 Y30.158 E14.36074
G1 X89.418 Y30.033 E14.39128
G1 X89.715 Y29.996 E14.40273
G1 X90.511 Y29.921 E14.43333
G1 X90.806 Y29.902 E14.44464
G1 X91.602 Y29.877 E14.47512
G1 X91.898 Y29.877 E14.48645
G1 X92.694 Y29.902 E14.51692
G1 X92.989 Y29.921 E14.52824
G1 X93.785 Y29.996 E14.55884
G1 X94.082 Y30.033 E14.57029
G1 X94.87 Y30.158 E14.60082
G1 X95.166 Y30.215 E14.61236
G1 X95.945 Y30.39 E14.64291
G1 X96.226 Y30.462 E14.65402
G1 X96.991 Y30.684 E14.6845
G1 X97.273 Y30.776 E14.69585
G1 X98.024 Y31.046 E14.72639
G1 X98.303 Y31.156 E14.73787
G1 X99.035 Y31.473 E14.7684
G1 X99.298 Y31.597 E14.77953
G1 X100.01 Y31.959 E14.81009
G1 X100.276 Y32.105 E14.82171
G1 X100.962 Y32.511 E14.85221
G1 X101.209 Y32.668 E14.86341
G1 X101.869 Y33.116 E14.89394
G1 X102.112 Y33.292 E14.90542
G1 X102.742 Y33.781 E14.93594
G1 X102.966 Y33.967 E14.94709
G1 X103.565 Y34.494 E14.97762
G1 X103.785 Y34.7 E14.98915
G1 X104.349 Y35.264 E15.01968
G1 X104.555 Y35.484 E15.03121
G1 X105.082 Y36.083 E15.06175
G1 X105.268 Y36.307 E15.07289
G1 X105.757 Y36.937 E15.10341
G1 X105.933 Y37.179 E15.11486
G1 X106.382 Y37.84 E15.14544
G1 X106.539 Y38.088 E15.15667
G1 X106.945 Y38.774 E15.18718
G1 X107.091 Y39.04 E15.19879
G1 X107.453 Y39.752 E15.22936
G1 X107.577 Y40.015 E15.24049
G1 X107.894 Y40.747 E15.27102
G1 X108.004 Y41.025 E15.28246
G1 X108.274 Y41.775 E15.31296
