;FLAVOR:Marlin
;TIME:1637
;Filament used: 0.808992m
;Layer height: 0.13125
;MINX:40.05
;MINY:40.055
;MINZ:0.263
;MAXX:79.946
;MAXY:79.95
;MAXZ:6.027
;Generated with Cura_SteamEngine 4.13.1
M140 S65
M105
M190 S65
M104 S205
M105
M109 S205
M82 ;absolute extrusion mode
G21;(metric values)
G90;(absolute positioning)
M82;(set extruder to absolute mode)
M107;(start with the fan off)
G28;(Home the printer)
G92 E0;(Reset the extruder to 0)
G0 Z5 E5 F500;(Move up and prime the nozzle)
G0 X-1 Z0;(Move outside the printable area)
G1 Y60 E8 F500;(Draw a priming/wiping line to the rear)
G1 X-1;(Move a little closer to the print area)
G1 Y10 E16 F500;(draw more priming/wiping)
G1 E15 F250;(Small retract)
G92 E0;(Zero the extruder)
G92 E0
G92 E0
G1 F2400 E-2.5
;LAYER_COUNT:45
;LAYER:0
M107
G0 F4320 X45.992 Y45.731 Z0.263
;TYPE:SKIRT
G1 F2400 E0
G1 F1800 X46.52 Y45.276 E0.02667
G1 X47.028 Y44.891 E0.05107
G1 X47.579 Y44.573 E0.07541
G1 X48.231 Y44.304 E0.10241
G1 X48.664 Y44.16 E0.11987
G1 X49.28 Y43.998 E0.14425
G1 X49.292 Y43.976 E0.1452
G1 X49.665 Y43.46 E0.16957
G1 X50.194 Y42.908 E0.19883
G1 X50.575 Y42.566 E0.21842
G1 X51.075 Y42.172 E0.24279
G1 X51.62 Y41.842 E0.26717
G1 X51.953 Y41.684 E0.28127
G1 X52.562 Y41.421 E0.30666
G1 X53.161 Y41.206 E0.33102
G1 X53.783 Y41.067 E0.35541
G1 X54.353 Y41.01 E0.37733
G1 X54.904 Y40.986 E0.39844
G1 X55.541 Y40.998 E0.42282
G1 X56.171 Y41.09 E0.44719
G1 X56.344 Y41.11 E0.45385
G1 X56.894 Y40.789 E0.47822
G1 X57.495 Y40.534 E0.50321
G1 X57.977 Y40.365 E0.52275
G1 X58.59 Y40.192 E0.54713
G1 X59.397 Y40.086 E0.57828
G1 X60.004 Y40.055 E0.60154
G1 X60.641 Y40.062 E0.62592
G1 X61.272 Y40.149 E0.65029
G1 X62.016 Y40.36 E0.67989
G1 X62.497 Y40.537 E0.6995
G1 X63.079 Y40.794 E0.72385
G1 X63.625 Y41.122 E0.74823
G1 X64.113 Y41.044 E0.76714
G1 X64.713 Y40.998 E0.79017
G1 X65.243 Y40.989 E0.81046
G1 X65.879 Y41.018 E0.83482
G1 X66.507 Y41.127 E0.85921
G1 X66.861 Y41.225 E0.87327
G1 X67.42 Y41.402 E0.89571
G1 X68.014 Y41.632 E0.92009
G1 X68.803 Y42.086 E0.95493
G1 X69.259 Y42.406 E0.97624
G1 X69.757 Y42.804 E1.00064
G1 X70.2 Y43.261 E1.025
G1 X70.727 Y44.001 E1.05977
G1 X70.76 Y44.005 E1.06104
G1 X71.378 Y44.16 E1.08542
G1 X71.886 Y44.353 E1.10622
G1 X72.316 Y44.543 E1.12421
G1 X72.881 Y44.836 E1.14857
G1 X73.573 Y45.336 E1.18124
G1 X73.971 Y45.678 E1.20132
G1 X74.427 Y46.122 E1.22568
G1 X74.913 Y46.754 E1.25619
G1 X75.206 Y47.203 E1.27671
G1 X75.52 Y47.757 E1.30108
G1 X75.762 Y48.346 E1.32545
G1 X75.944 Y49.038 E1.35283
G1 X75.988 Y49.271 E1.36191
G1 X76.196 Y49.391 E1.3711
G1 X76.703 Y49.776 E1.39546
G1 X77.363 Y50.462 E1.43189
G1 X77.702 Y50.889 E1.45275
G1 X78.066 Y51.412 E1.47714
G1 X78.361 Y51.976 E1.5015
G1 X78.503 Y52.328 E1.51602
G1 X78.699 Y52.873 E1.53819
G1 X78.876 Y53.484 E1.56253
G1 X78.995 Y54.419 E1.5986
G1 X79.013 Y54.954 E1.61909
G1 X78.995 Y55.591 E1.64348
G1 X78.896 Y56.22 E1.66785
G1 X78.855 Y56.366 E1.67365
G1 X79.15 Y56.839 E1.69498
G1 X79.452 Y57.399 E1.71933
G1 X79.682 Y57.993 E1.74371
G1 X79.835 Y58.611 E1.76807
G1 X79.912 Y59.272 E1.79354
G1 X79.946 Y59.959 E1.81987
G1 X79.937 Y60.596 E1.84425
G1 X79.849 Y61.227 E1.86863
G1 X79.61 Y62.098 E1.90319
G1 X79.391 Y62.696 E1.92757
G1 X78.972 Y63.464 E1.96105
G1 X78.871 Y63.617 E1.96806
G1 X78.909 Y63.783 E1.97458
G1 X78.973 Y64.408 E1.99862
G1 X79.003 Y65.153 E2.02716
G1 X78.989 Y65.79 E2.05154
G1 X78.895 Y66.419 E2.07588
G1 X78.666 Y67.186 E2.10651
G1 X78.43 Y67.797 E2.13158
G1 X78.164 Y68.375 E2.15593
G1 X77.827 Y68.916 E2.18032
G1 X77.512 Y69.314 E2.19975
G1 X77.156 Y69.72 E2.22041
G1 X76.707 Y70.171 E2.24477
G1 X76.205 Y70.563 E2.26914
G1 X75.997 Y70.68 E2.27828
G1 X75.945 Y71.014 E2.29121
G1 X75.769 Y71.626 E2.31558
G1 X75.419 Y72.398 E2.34802
G1 X75.17 Y72.844 E2.36757
G1 X74.825 Y73.379 E2.39193
G1 X74.286 Y73.999 E2.42337
G1 X73.889 Y74.387 E2.44462
G1 X73.407 Y74.803 E2.46898
G1 X72.687 Y75.259 E2.5016
G1 X72.236 Y75.494 E2.52106
G1 X71.654 Y75.752 E2.54542
G1 X71.044 Y75.935 E2.5698
G1 X70.711 Y75.992 E2.58273
G1 X70.457 Y76.386 E2.60067
G1 X70.048 Y76.875 E2.62506
G1 X69.531 Y77.348 E2.65188
G1 X69.114 Y77.68 E2.67228
G1 X68.592 Y78.045 E2.69665
G1 X68.028 Y78.341 E2.72103
G1 X67.523 Y78.536 E2.74175
G1 X66.982 Y78.712 E2.76352
G1 X66.365 Y78.871 E2.7879
G1 X65.733 Y78.951 E2.81228
G1 X65.286 Y78.959 E2.82939
G1 X64.519 Y78.94 E2.85875
G1 X63.885 Y78.885 E2.88311
G1 X63.721 Y78.85 E2.88953
G1 X63.685 Y78.877 E2.89125
G1 X63.133 Y79.194 E2.91561
G1 X62.665 Y79.396 E2.93512
G1 X62.043 Y79.629 E2.96054
G1 X61.434 Y79.815 E2.98491
G1 X60.806 Y79.923 E3.00929
G1 X60.113 Y79.95 E3.03583
G1 X59.504 Y79.932 E3.05915
G1 X58.87 Y79.873 E3.08352
G1 X58.248 Y79.735 E3.1079
G1 X57.527 Y79.467 E3.13734
G1 X57.085 Y79.263 E3.15597
G1 X56.525 Y78.96 E3.18033
G1 X56.312 Y78.808 E3.19035
G1 X56.158 Y78.846 E3.19642
G1 X55.532 Y78.959 E3.22076
G1 X54.896 Y78.993 E3.24514
G1 X54.209 Y78.94 E3.27151
G1 X53.546 Y78.843 E3.29715
G1 X52.923 Y78.711 E3.32152
G1 X52.321 Y78.502 E3.34591
G1 X51.674 Y78.175 E3.37365
G1 X51.091 Y77.826 E3.39966
G1 X50.566 Y77.466 E3.42402
G1 X50.091 Y77.042 E3.44838
G1 X49.597 Y76.462 E3.47754
G1 X49.268 Y75.995 E3.4994
G1 X49.222 Y75.99 E3.50117
G1 X48.603 Y75.837 E3.52558
G1 X47.901 Y75.556 E3.55451
G1 X47.402 Y75.312 E3.57577
G1 X46.848 Y74.997 E3.60016
G1 X46.339 Y74.615 E3.62452
G1 X45.93 Y74.226 E3.64612
G1 X45.504 Y73.772 E3.66994
G1 X45.098 Y73.281 E3.69432
G1 X44.757 Y72.743 E3.7187
G1 X44.35 Y71.857 E3.75601
G1 X44.134 Y71.257 E3.78042
G1 X44.022 Y70.751 E3.80025
G1 X43.571 Y70.416 E3.82175
G1 X43.177 Y70.087 E3.8414
G1 X42.715 Y69.649 E3.86576
G1 X42.311 Y69.157 E3.89012
G1 X41.948 Y68.573 E3.91644
G1 X41.685 Y68.078 E3.93789
G1 X41.422 Y67.498 E3.96226
G1 X41.179 Y66.633 E3.99665
G1 X41.084 Y66.127 E4.01635
G1 X41.006 Y65.495 E4.04072
G1 X41.024 Y64.671 E4.07226
G1 X41.074 Y64.186 E4.09092
G1 X41.163 Y63.652 E4.11164
G1 X40.915 Y63.278 E4.12881
G1 X40.617 Y62.667 E4.15483
G1 X40.424 Y62.194 E4.17438
G1 X40.221 Y61.591 E4.19873
G1 X40.095 Y60.966 E4.22313
G1 X40.05 Y60.135 E4.25498
G1 X40.067 Y59.528 E4.27822
G1 X40.125 Y58.894 E4.30258
G1 X40.261 Y58.272 E4.32695
G1 X40.436 Y57.766 E4.34744
G1 X40.672 Y57.183 E4.37151
G1 X40.947 Y56.609 E4.39587
G1 X41.148 Y56.297 E4.41007
G1 X41.035 Y55.494 E4.4411
G1 X41.009 Y54.999 E4.46007
G1 X41.016 Y54.362 E4.48445
G1 X41.134 Y53.584 E4.51457
G1 X41.246 Y53.102 E4.5335
G1 X41.428 Y52.492 E4.55787
G1 X41.807 Y51.692 E4.59174
G1 X42.085 Y51.216 E4.61284
G1 X42.44 Y50.687 E4.63722
G1 X42.858 Y50.207 E4.66158
G1 X43.306 Y49.805 E4.68461
G1 X44.003 Y49.28 E4.71801
G1 X44.137 Y48.653 E4.74255
G1 X44.348 Y48.052 E4.76692
G1 X44.72 Y47.335 E4.79783
G1 X45.002 Y46.884 E4.81819
G1 X45.373 Y46.367 E4.84254
G1 X45.508 Y46.228 E4.84996
G0 F1620 X45.992 Y45.731
G0 F4320 X46.221 Y45.996
G1 F1800 X46.749 Y45.541 E4.87663
G1 X47.239 Y45.171 E4.90013
G1 X47.774 Y44.867 E4.92368
G1 X48.342 Y44.636 E4.94715
G1 X48.775 Y44.492 E4.96461
G1 X49.369 Y44.337 E4.9881
G1 X49.504 Y44.32 E4.99331
G1 X49.6 Y44.145 E5.00095
G1 X49.963 Y43.649 E5.02447
G1 X50.428 Y43.169 E5.05005
G1 X50.809 Y42.827 E5.06964
G1 X51.292 Y42.447 E5.09316
G1 X52.092 Y42.005 E5.12814
G1 X52.701 Y41.742 E5.15353
G1 X53.279 Y41.536 E5.17701
G1 X53.88 Y41.406 E5.20054
G1 X54.368 Y41.359 E5.2193
G1 X54.919 Y41.335 E5.24041
G1 X55.534 Y41.349 E5.26395
G1 X56.141 Y41.442 E5.28745
G1 X56.395 Y41.513 E5.29755
G1 X56.557 Y41.389 E5.30535
G1 X57.09 Y41.083 E5.32887
G1 X57.611 Y40.864 E5.3505
G1 X58.093 Y40.695 E5.37005
G1 X58.684 Y40.53 E5.39353
G1 X59.415 Y40.435 E5.42174
G1 X60.022 Y40.404 E5.445
G1 X60.636 Y40.413 E5.4685
G1 X61.245 Y40.501 E5.49205
G1 X61.895 Y40.689 E5.51795
G1 X62.376 Y40.866 E5.53756
G1 X62.937 Y41.115 E5.56105
G1 X63.462 Y41.435 E5.58458
G1 X63.56 Y41.515 E5.58942
G1 X63.6 Y41.502 E5.59103
G1 X64.203 Y41.385 E5.61454
G1 X64.719 Y41.348 E5.63434
G1 X65.249 Y41.339 E5.65462
G1 X65.863 Y41.368 E5.67815
G1 X66.755 Y41.558 E5.71305
G1 X67.314 Y41.735 E5.73549
G1 X67.887 Y41.959 E5.75903
G1 X68.602 Y42.372 E5.79063
G1 X69.058 Y42.692 E5.81195
G1 X69.537 Y43.077 E5.83547
G1 X69.962 Y43.521 E5.85899
G1 X70.42 Y44.169 E5.88936
G1 X70.513 Y44.328 E5.89641
G1 X70.718 Y44.353 E5.90431
G1 X71.313 Y44.507 E5.92783
G1 X72.175 Y44.863 E5.96352
G1 X72.719 Y45.147 E5.98701
G1 X73.344 Y45.601 E6.01657
G1 X73.742 Y45.943 E6.03666
G1 X74.181 Y46.373 E6.06017
G1 X74.62 Y46.945 E6.08777
G1 X74.913 Y47.394 E6.10829
G1 X75.215 Y47.929 E6.1318
G1 X75.444 Y48.499 E6.1553
G1 X75.6 Y49.103 E6.17918
G1 X75.673 Y49.493 E6.19436
G1 X76.02 Y49.694 E6.20971
G1 X76.507 Y50.069 E6.23323
G1 X77.089 Y50.68 E6.26553
G1 X77.428 Y51.107 E6.28639
G1 X77.778 Y51.612 E6.3099
G1 X78.059 Y52.158 E6.3334
G1 X78.173 Y52.446 E6.34526
G1 X78.369 Y52.991 E6.36742
G1 X78.539 Y53.582 E6.39096
G1 X78.645 Y54.431 E6.4237
G1 X78.663 Y54.966 E6.44419
G1 X78.644 Y55.58 E6.4677
G1 X78.545 Y56.187 E6.49123
G1 X78.475 Y56.434 E6.50106
G1 X78.542 Y56.525 E6.50538
G1 X78.853 Y57.024 E6.52789
G1 X79.143 Y57.565 E6.55138
G1 X79.361 Y58.14 E6.57491
G1 X79.502 Y58.738 E6.59842
G1 X79.562 Y59.289 E6.61963
G1 X79.596 Y59.976 E6.64596
G1 X79.587 Y60.591 E6.6695
G1 X79.497 Y61.199 E6.69302
G1 X79.275 Y61.999 E6.72479
G1 X79.062 Y62.575 E6.74829
G1 X78.68 Y63.27 E6.77864
G1 X78.496 Y63.547 E6.79137
G1 X78.574 Y63.904 E6.80535
G1 X78.623 Y64.422 E6.82527
G1 X78.653 Y65.167 E6.8538
G1 X78.638 Y65.781 E6.87731
G1 X78.543 Y66.388 E6.90082
G1 X78.34 Y67.059 E6.92765
G1 X78.104 Y67.67 E6.95271
G1 X77.845 Y68.228 E6.97626
G1 X77.517 Y68.747 E6.99975
G1 X77.249 Y69.083 E7.0162
G1 X76.893 Y69.489 E7.03687
G1 X76.458 Y69.924 E7.06041
G1 X75.971 Y70.299 E7.08393
G1 X75.677 Y70.462 E7.0968
G1 X75.598 Y70.96 E7.11609
G1 X75.425 Y71.549 E7.13959
G1 X75.114 Y72.227 E7.16813
G1 X74.865 Y72.673 E7.18768
G1 X74.531 Y73.189 E7.2112
G1 X74.042 Y73.749 E7.23966
G1 X73.645 Y74.137 E7.2609
G1 X73.178 Y74.537 E7.28443
G1 X72.525 Y74.948 E7.31396
G1 X72.074 Y75.183 E7.33342
G1 X71.512 Y75.431 E7.35693
G1 X70.922 Y75.604 E7.38046
G1 X70.496 Y75.68 E7.39702
G1 X70.163 Y76.196 E7.42052
G1 X69.765 Y76.665 E7.44406
G1 X69.313 Y77.075 E7.46742
G1 X68.896 Y77.407 E7.48782
G1 X68.391 Y77.757 E7.51133
G1 X67.846 Y78.039 E7.53482
G1 X67.415 Y78.203 E7.55246
G1 X66.874 Y78.379 E7.57424
G1 X66.278 Y78.531 E7.59777
G1 X65.668 Y78.604 E7.62129
G1 X65.295 Y78.61 E7.63556
G1 X64.528 Y78.591 E7.66492
G1 X63.916 Y78.535 E7.68844
G1 X63.638 Y78.473 E7.69934
G1 X63.456 Y78.608 E7.70802
G1 X62.92 Y78.909 E7.73154
G1 X62.542 Y79.069 E7.74725
G1 X61.92 Y79.302 E7.77267
G1 X61.332 Y79.479 E7.79617
G1 X60.726 Y79.579 E7.81967
G1 X60.123 Y79.6 E7.84277
G1 X59.514 Y79.582 E7.86608
G1 X58.903 Y79.524 E7.88957
G1 X58.304 Y79.387 E7.91309
G1 X57.674 Y79.149 E7.93886
G1 X57.232 Y78.945 E7.95749
G1 X56.692 Y78.652 E7.981
G1 X56.386 Y78.429 E7.99549
G1 X56.075 Y78.506 E8.00775
G1 X55.47 Y78.614 E8.03127
G1 X54.856 Y78.642 E8.05479
G1 X54.26 Y78.593 E8.07768
G1 X53.597 Y78.496 E8.10332
G1 X52.996 Y78.368 E8.12684
G1 X52.417 Y78.163 E8.15035
G1 X51.854 Y77.875 E8.17455
G1 X51.271 Y77.526 E8.20055
G1 X50.765 Y77.177 E8.22407
G1 X50.309 Y76.765 E8.24759
G1 X49.88 Y76.256 E8.27307
G1 X49.474 Y75.667 E8.30045
G1 X49.263 Y75.642 E8.30858
G1 X48.668 Y75.49 E8.33208
G1 X48.054 Y75.242 E8.35742
G1 X47.555 Y74.998 E8.37868
G1 X47.022 Y74.692 E8.4022
G1 X46.533 Y74.321 E8.42569
G1 X46.185 Y73.986 E8.44418
G1 X45.759 Y73.532 E8.468
G1 X45.369 Y73.058 E8.49149
G1 X45.043 Y72.536 E8.51504
G1 X44.671 Y71.718 E8.54943
G1 X44.465 Y71.139 E8.57295
G1 X44.334 Y70.527 E8.59691
G1 X43.796 Y70.148 E8.62209
G1 X43.402 Y69.819 E8.64173
G1 X42.956 Y69.395 E8.66529
G1 X42.57 Y68.917 E8.6888
G1 X42.257 Y68.409 E8.71163
G1 X41.994 Y67.914 E8.73308
G1 X41.742 Y67.354 E8.75659
G1 X41.523 Y66.569 E8.78777
G1 X41.428 Y66.063 E8.80748
G1 X41.354 Y65.453 E8.83099
G1 X41.372 Y64.706 E8.85959
G1 X41.422 Y64.221 E8.87825
G1 X41.525 Y63.616 E8.90174
G1 X41.533 Y63.581 E8.90311
G1 X41.197 Y63.066 E8.92664
G1 X40.941 Y62.535 E8.9492
G1 X40.748 Y62.062 E8.96875
G1 X40.554 Y61.479 E8.99227
G1 X40.436 Y60.876 E9.01578
G1 X40.4 Y60.145 E9.04379
G1 X40.417 Y59.538 E9.06703
G1 X40.474 Y58.926 E9.09055
G1 X40.61 Y58.327 E9.11406
G1 X40.76 Y57.897 E9.13149
G1 X40.996 Y57.314 E9.15556
G1 X41.263 Y56.761 E9.17906
G1 X41.522 Y56.366 E9.19713
G1 X41.495 Y56.275 E9.20077
G1 X41.385 Y55.476 E9.23163
G1 X41.359 Y54.981 E9.2506
G1 X41.366 Y54.366 E9.27414
G1 X41.475 Y53.664 E9.30133
G1 X41.587 Y53.182 E9.32027
G1 X41.764 Y52.593 E9.3438
G1 X42.109 Y51.868 E9.37453
G1 X42.387 Y51.392 E9.39563
G1 X42.731 Y50.883 E9.41914
G1 X43.138 Y50.422 E9.44267
G1 X43.524 Y50.079 E9.46243
G1 X43.907 Y49.774 E9.48117
G1 X44.327 Y49.481 E9.50077
G1 X44.35 Y49.328 E9.50669
G1 X44.48 Y48.727 E9.53022
G1 X44.687 Y48.149 E9.55372
G1 X45.017 Y47.521 E9.58087
G1 X45.299 Y47.07 E9.60122
G1 X45.658 Y46.571 E9.62475
G1 X45.736 Y46.492 E9.629
G0 F1620 X46.221 Y45.996
G0 F4320 X46.449 Y46.261
G1 F1800 X46.977 Y45.806 E9.65567
G1 X47.45 Y45.451 E9.6783
G1 X47.966 Y45.163 E9.70092
G1 X48.452 Y44.969 E9.72094
G1 X48.885 Y44.825 E9.73841
G1 X49.458 Y44.676 E9.76107
G1 X49.724 Y44.645 E9.77131
G1 X49.907 Y44.314 E9.78579
G1 X50.26 Y43.84 E9.80841
G1 X50.662 Y43.429 E9.83041
G1 X51.043 Y43.087 E9.85
G1 X51.508 Y42.723 E9.8726
G1 X52.23 Y42.327 E9.90412
G1 X52.839 Y42.064 E9.9295
G1 X53.397 Y41.866 E9.95216
G1 X53.976 Y41.746 E9.97479
G1 X54.384 Y41.709 E9.99047
G1 X54.935 Y41.685 E10.01158
G1 X55.526 Y41.699 E10.0342
G1 X56.109 Y41.793 E10.0568
G1 X56.47 Y41.896 E10.07117
G1 X56.77 Y41.668 E10.08559
G1 X57.284 Y41.377 E10.10819
G1 X57.726 Y41.194 E10.1265
G1 X58.208 Y41.025 E10.14605
G1 X58.778 Y40.868 E10.16867
G1 X59.433 Y40.785 E10.19394
G1 X60.04 Y40.754 E10.2172
G1 X60.631 Y40.764 E10.23982
G1 X61.216 Y40.853 E10.26247
G1 X61.774 Y41.017 E10.28472
G1 X62.255 Y41.194 E10.30434
G1 X62.795 Y41.435 E10.32697
G1 X63.297 Y41.747 E10.34959
G1 X63.491 Y41.907 E10.35921
G1 X63.71 Y41.835 E10.36803
G1 X64.291 Y41.727 E10.39065
G1 X64.725 Y41.698 E10.4073
G1 X65.255 Y41.689 E10.42758
G1 X65.845 Y41.719 E10.45019
G1 X66.65 Y41.892 E10.4817
G1 X67.209 Y42.069 E10.50414
G1 X67.759 Y42.285 E10.52675
G1 X68.401 Y42.659 E10.55519
G1 X68.857 Y42.979 E10.57651
G1 X69.317 Y43.35 E10.59912
G1 X69.723 Y43.781 E10.62178
G1 X70.118 Y44.346 E10.64817
G1 X70.298 Y44.654 E10.66182
G1 X70.674 Y44.701 E10.67632
G1 X71.245 Y44.854 E10.69894
G1 X72.033 Y45.183 E10.73162
G1 X72.557 Y45.458 E10.75427
G1 X73.116 Y45.867 E10.78078
G1 X73.514 Y46.209 E10.80086
G1 X73.936 Y46.624 E10.82351
G1 X74.327 Y47.136 E10.84817
G1 X74.62 Y47.585 E10.86868
G1 X74.909 Y48.101 E10.89132
G1 X75.126 Y48.651 E10.91395
G1 X75.256 Y49.168 E10.93435
G1 X75.353 Y49.711 E10.95546
G1 X75.844 Y49.997 E10.9772
G1 X76.31 Y50.361 E10.99983
G1 X76.814 Y50.898 E11.02802
G1 X77.153 Y51.325 E11.04888
G1 X77.489 Y51.812 E11.07152
G1 X77.844 Y52.564 E11.10335
G1 X78.04 Y53.109 E11.12551
G1 X78.202 Y53.678 E11.14815
G1 X78.296 Y54.443 E11.17765
G1 X78.314 Y54.978 E11.19814
G1 X78.293 Y55.569 E11.22077
G1 X78.194 Y56.152 E11.2434
G1 X78.093 Y56.5 E11.25727
G1 X78.245 Y56.71 E11.26719
G1 X78.556 Y57.209 E11.28969
G1 X78.834 Y57.731 E11.31232
G1 X79.039 Y58.285 E11.33493
G1 X79.168 Y58.862 E11.35756
G1 X79.213 Y59.307 E11.37467
G1 X79.247 Y59.994 E11.401
G1 X79.236 Y60.585 E11.42362
G1 X79.071 Y61.454 E11.45747
G1 X78.939 Y61.899 E11.47523
G1 X78.733 Y62.453 E11.49785
G1 X78.389 Y63.077 E11.52512
G1 X78.123 Y63.468 E11.54322
G1 X78.237 Y64.023 E11.5649
G1 X78.273 Y64.436 E11.58077
G1 X78.303 Y65.181 E11.6093
G1 X78.287 Y65.772 E11.63193
G1 X78.192 Y66.355 E11.65453
G1 X78.013 Y66.933 E11.67769
G1 X77.777 Y67.544 E11.70276
G1 X77.527 Y68.08 E11.72539
G1 X77.208 Y68.578 E11.74802
G1 X76.986 Y68.852 E11.76152
G1 X76.63 Y69.258 E11.78219
G1 X76.211 Y69.676 E11.80484
G1 X75.739 Y70.033 E11.82748
G1 X75.352 Y70.244 E11.84435
G1 X75.345 Y70.321 E11.84731
G1 X75.252 Y70.905 E11.86994
G1 X75.08 Y71.471 E11.89258
G1 X74.808 Y72.057 E11.91731
G1 X74.559 Y72.503 E11.93685
G1 X74.237 Y72.998 E11.95945
G1 X73.797 Y73.499 E11.98497
G1 X73.4 Y73.887 E12.00622
