;FLAVOR:Marlin
;TIME:869
;Filament used: 0.4027m
;Layer height: 0.13125
;MINX:41.859
;MINY:41.849
;MINZ:0.263
;MAXX:78.14
;MAXY:78.152
;MAXZ:2.49
;Generated with Cura_SteamEngine 4.13.1
M140 S65
M105
M190 S65
M104 S205
M105
M109 S205
M82 ;absolute extrusion mode
G21;(metric values)
G90;(absolute positioning)
M82;(set extruder to absolute mode)
M107;(start with the fan off)
G28;(Home the printer)
G92 E0;(Reset the extruder to 0)
G0 Z5 E5 F500;(Move up and prime the nozzle)
G0 X-1 Z0;(Move outside the printable area)
G1 Y60 E8 F500;(Draw a priming/wiping line to the rear)
G1 X-1;(Move a little closer to the print area)
G1 Y10 E16 F500;(draw more priming/wiping)
G1 E15 F250;(Small retract)
G92 E0;(Zero the extruder)
G92 E0
G92 E0
G1 F2400 E-2.5
;LAYER_COUNT:18
;LAYER:0
M107
G0 F4320 X47.611 Y46.77 Z0.263
;TYPE:SKIRT
G1 F2400 E0
G1 F1800 X48.084 Y46.344 E0.02436
G1 X48.607 Y45.98 E0.04875
G1 X49.244 Y45.653 E0.07615
G1 X49.389 Y45.591 E0.08218
G1 X50.011 Y45.371 E0.10743
G1 X50.24 Y45.308 E0.11652
G1 X50.479 Y44.981 E0.13202
G1 X50.916 Y44.517 E0.15642
G1 X51.407 Y44.112 E0.18077
G1 X51.945 Y43.772 E0.20513
G1 X52.39 Y43.556 E0.22406
G1 X53.644 Y43.021 E0.27624
G1 X54.245 Y42.808 E0.30064
G1 X54.867 Y42.673 E0.325
G1 X55.636 Y42.614 E0.35451
G1 X56.046 Y42.614 E0.3702
G1 X56.682 Y42.654 E0.39459
G1 X56.831 Y42.682 E0.40039
G1 X57.051 Y42.535 E0.41052
G1 X57.62 Y42.25 E0.43487
G1 X58.221 Y42.039 E0.45925
G1 X58.844 Y41.905 E0.48364
G1 X59.478 Y41.849 E0.50799
G1 X59.857 Y41.855 E0.5225
G1 X60.803 Y41.903 E0.55875
G1 X61.436 Y41.975 E0.58313
G1 X62.055 Y42.125 E0.60751
G1 X62.65 Y42.353 E0.63189
G1 X63.26 Y42.684 E0.65845
G1 X63.998 Y42.614 E0.68682
G1 X64.393 Y42.614 E0.70194
G1 X65.029 Y42.654 E0.72633
G1 X65.556 Y42.749 E0.74682
G1 X66.418 Y42.952 E0.78071
G1 X67.028 Y43.137 E0.80511
G1 X67.609 Y43.396 E0.82945
G1 X68.154 Y43.726 E0.85383
G1 X68.723 Y44.187 E0.88186
G1 X69.286 Y44.714 E0.91137
G1 X69.723 Y45.177 E0.93573
G1 X69.96 Y45.503 E0.95116
G1 X70.214 Y45.586 E0.96139
G1 X71.342 Y46.065 E1.00829
G1 X71.911 Y46.35 E1.03264
G1 X72.44 Y46.704 E1.057
G1 X72.921 Y47.122 E1.08139
G1 X73.346 Y47.597 E1.10578
G1 X73.707 Y48.121 E1.13013
G1 X74.107 Y48.946 E1.16522
G1 X74.501 Y49.991 E1.20796
G1 X74.522 Y50.059 E1.21068
G1 X74.631 Y50.13 E1.21566
G1 X75.287 Y50.714 E1.24927
G1 X75.815 Y51.274 E1.27873
G1 X76.221 Y51.764 E1.30308
G1 X76.564 Y52.301 E1.32747
G1 X76.836 Y52.877 E1.35184
G1 X77.065 Y53.608 E1.38116
G1 X77.265 Y54.469 E1.41499
G1 X77.37 Y55.097 E1.43935
G1 X77.397 Y55.617 E1.45928
G1 X77.397 Y56.013 E1.47444
G1 X77.357 Y56.649 E1.49882
G1 X77.335 Y56.763 E1.50327
G1 X77.624 Y57.282 E1.526
G1 X77.861 Y57.873 E1.55037
G1 X78.022 Y58.489 E1.57474
G1 X78.116 Y59.344 E1.60765
G1 X78.14 Y60.347 E1.64605
G1 X78.115 Y60.983 E1.67041
G1 X78.011 Y61.611 E1.69477
G1 X77.828 Y62.222 E1.71918
G1 X77.571 Y62.804 E1.74353
G1 X77.248 Y63.341 E1.76751
G1 X77.263 Y63.464 E1.77225
G1 X77.338 Y64.334 E1.80567
G1 X77.353 Y64.971 E1.83005
G1 X77.288 Y65.604 E1.85441
G1 X77.144 Y66.225 E1.8788
G1 X76.924 Y66.822 E1.90315
G1 X76.684 Y67.296 E1.92348
G1 X76.19 Y68.157 E1.96147
G1 X75.839 Y68.688 E1.98583
G1 X75.424 Y69.171 E2.0102
G1 X74.952 Y69.599 E2.03459
G1 X74.703 Y69.773 E2.04621
G1 X74.48 Y70.473 E2.07433
G1 X74.421 Y70.624 E2.08053
G1 X74.152 Y71.201 E2.1049
G1 X73.814 Y71.741 E2.12928
G1 X73.235 Y72.413 E2.16322
G1 X72.316 Y73.308 E2.21232
G1 X71.833 Y73.723 E2.23669
G1 X71.301 Y74.074 E2.26108
G1 X70.73 Y74.355 E2.28543
G1 X70.128 Y74.563 E2.30981
G1 X69.823 Y74.627 E2.32173
G1 X69.621 Y74.924 E2.33548
G1 X69.199 Y75.401 E2.35985
G1 X68.721 Y75.822 E2.38423
G1 X68.194 Y76.179 E2.40859
G1 X67.387 Y76.564 E2.44281
G1 X66.226 Y76.997 E2.49023
G1 X65.617 Y77.182 E2.51459
G1 X64.989 Y77.289 E2.53897
G1 X64.353 Y77.316 E2.56333
G1 X63.718 Y77.264 E2.58771
G1 X63.365 Y77.187 E2.60154
G1 X63.101 Y77.369 E2.61381
G1 X62.39 Y77.723 E2.64421
G1 X62.244 Y77.782 E2.65023
G1 X61.64 Y77.983 E2.67459
G1 X61.015 Y78.107 E2.69898
G1 X60.343 Y78.152 E2.72475
G1 X59.688 Y78.152 E2.74982
G1 X59.052 Y78.112 E2.77421
G1 X58.427 Y77.993 E2.79856
G1 X57.87 Y77.815 E2.82093
G1 X57.406 Y77.637 E2.83995
G1 X56.827 Y77.372 E2.86432
G1 X56.675 Y77.278 E2.87116
G1 X56.116 Y77.317 E2.89261
G1 X55.602 Y77.317 E2.91228
G1 X54.759 Y77.247 E2.94465
G1 X54.005 Y77.12 E2.97391
G1 X53.385 Y76.975 E2.99828
G1 X52.788 Y76.753 E3.02266
G1 X52.223 Y76.458 E3.04705
G1 X51.492 Y75.922 E3.08174
G1 X50.9 Y75.4 E3.11194
G1 X50.449 Y74.949 E3.13635
G1 X50.196 Y74.623 E3.15214
G1 X49.932 Y74.569 E3.16246
G1 X49.329 Y74.363 E3.18684
G1 X48.757 Y74.084 E3.2112
G1 X48.224 Y73.735 E3.23558
G1 X47.713 Y73.297 E3.26134
G1 X46.814 Y72.416 E3.30951
G1 X46.388 Y71.942 E3.3339
G1 X46.025 Y71.419 E3.35826
G1 X45.73 Y70.855 E3.38262
G1 X45.508 Y70.258 E3.407
G1 X45.414 Y69.835 E3.42358
G1 X45.221 Y69.698 E3.43264
G1 X44.614 Y69.117 E3.46479
G1 X44.092 Y68.526 E3.49497
G1 X43.701 Y68.023 E3.51935
G1 X43.377 Y67.475 E3.54371
G1 X43.123 Y66.891 E3.56809
G1 X42.889 Y65.996 E3.60349
G1 X42.764 Y65.242 E3.63274
G1 X42.696 Y64.412 E3.66461
G1 X42.696 Y63.895 E3.68439
G1 X42.732 Y63.329 E3.7061
G1 X42.582 Y63.073 E3.71745
G1 X42.366 Y62.584 E3.73791
G1 X42.224 Y62.213 E3.75311
G1 X42.024 Y61.608 E3.7775
G1 X41.902 Y60.983 E3.80187
G1 X41.859 Y60.323 E3.82718
G1 X41.859 Y59.666 E3.85233
G1 X41.899 Y59.03 E3.87671
G1 X42.018 Y58.405 E3.90106
G1 X42.271 Y57.663 E3.93106
G1 X42.332 Y57.521 E3.93698
G1 X42.62 Y56.953 E3.96135
G1 X42.822 Y56.653 E3.97519
G1 X42.76 Y56.377 E3.98602
G1 X42.699 Y55.743 E4.01039
G1 X42.718 Y55.106 E4.03478
G1 X42.816 Y54.477 E4.05914
G1 X42.968 Y53.933 E4.08076
G1 X43.35 Y52.814 E4.12601
G1 X43.593 Y52.226 E4.15036
G1 X43.908 Y51.672 E4.17475
G1 X44.29 Y51.163 E4.1991
G1 X44.733 Y50.705 E4.22349
G1 X45.38 Y50.203 E4.25483
G1 X45.499 Y49.72 E4.27386
G1 X45.727 Y49.126 E4.29821
G1 X46.027 Y48.564 E4.32259
G1 X46.396 Y48.045 E4.34696
G1 X46.714 Y47.687 E4.36529
G1 X47.126 Y47.266 E4.38783
G0 F1620 X47.611 Y46.77
G0 F4320 X47.861 Y47.015
G1 F1800 X48.319 Y46.605 E4.41136
G1 X48.825 Y46.257 E4.43486
G1 X49.381 Y45.974 E4.45874
G1 X49.526 Y45.912 E4.46477
G1 X50.106 Y45.708 E4.4883
G1 X50.437 Y45.623 E4.50138
G1 X50.804 Y45.138 E4.52465
G1 X51.234 Y44.7 E4.54814
G1 X51.718 Y44.321 E4.57167
G1 X52.247 Y44.009 E4.59517
G1 X52.528 Y43.878 E4.60704
G1 X53.782 Y43.343 E4.65921
G1 X54.362 Y43.139 E4.68274
G1 X54.963 Y43.012 E4.70625
G1 X55.636 Y42.964 E4.73207
G1 X56.046 Y42.964 E4.74776
G1 X56.659 Y43.004 E4.77127
G1 X56.905 Y43.053 E4.78087
G1 X57.245 Y42.827 E4.7965
G1 X57.797 Y42.556 E4.82003
G1 X58.379 Y42.359 E4.84354
G1 X58.981 Y42.239 E4.86704
G1 X59.839 Y42.204 E4.8999
G1 X60.785 Y42.252 E4.93615
G1 X61.396 Y42.323 E4.95969
G1 X61.992 Y42.473 E4.98321
G1 X62.563 Y42.698 E5.0067
G1 X63.091 Y42.99 E5.02979
G1 X63.169 Y43.04 E5.03333
G1 X63.22 Y43.028 E5.03534
G1 X63.998 Y42.964 E5.06521
G1 X64.393 Y42.964 E5.08033
G1 X65.006 Y43.004 E5.10384
G1 X65.476 Y43.09 E5.12212
G1 X66.338 Y43.293 E5.15602
G1 X66.926 Y43.472 E5.17954
G1 X67.485 Y43.726 E5.20304
G1 X68.007 Y44.051 E5.22657
G1 X68.484 Y44.442 E5.25017
G1 X69.047 Y44.969 E5.27968
G1 X69.467 Y45.418 E5.30321
G1 X69.736 Y45.792 E5.32084
G1 X70.077 Y45.908 E5.33463
G1 X71.205 Y46.387 E5.38153
G1 X71.754 Y46.663 E5.40504
G1 X72.262 Y47.009 E5.42857
G1 X72.721 Y47.417 E5.45207
G1 X73.123 Y47.882 E5.47559
G1 X73.462 Y48.394 E5.49909
G1 X73.779 Y49.069 E5.52763
G1 X74.173 Y50.114 E5.57037
G1 X74.225 Y50.283 E5.57714
G1 X74.507 Y50.476 E5.59022
G1 X75.032 Y50.955 E5.61741
G1 X75.56 Y51.515 E5.64687
G1 X75.951 Y51.988 E5.67035
G1 X76.278 Y52.509 E5.6939
G1 X76.535 Y53.067 E5.71741
G1 X76.724 Y53.687 E5.74221
G1 X76.924 Y54.548 E5.77604
G1 X77.024 Y55.154 E5.79954
G1 X77.047 Y56.013 E5.83243
G1 X77.007 Y56.626 E5.85594
G1 X76.966 Y56.831 E5.86394
G1 X77.02 Y56.915 E5.86776
G1 X77.317 Y57.452 E5.89125
G1 X77.542 Y58.024 E5.91477
G1 X77.691 Y58.62 E5.93828
G1 X77.766 Y59.352 E5.96644
G1 X77.79 Y60.355 E6.00484
G1 X77.764 Y60.969 E6.02835
G1 X77.66 Y61.574 E6.05185
G1 X77.477 Y62.161 E6.07538
G1 X77.22 Y62.719 E6.09889
G1 X76.893 Y63.239 E6.1224
G1 X76.915 Y63.494 E6.13219
G1 X76.99 Y64.364 E6.16561
G1 X77.002 Y64.979 E6.18915
G1 X76.935 Y65.589 E6.21264
G1 X76.79 Y66.186 E6.23615
G1 X76.568 Y66.759 E6.25966
G1 X76.38 Y67.121 E6.27528
G1 X75.886 Y67.982 E6.31326
G1 X75.547 Y68.494 E6.33676
G1 X75.143 Y68.958 E6.36031
G1 X74.683 Y69.365 E6.38381
G1 X74.384 Y69.567 E6.39762
G1 X74.154 Y70.346 E6.42871
G1 X74.095 Y70.497 E6.43491
G1 X73.835 Y71.053 E6.4584
G1 X73.504 Y71.571 E6.48193
G1 X72.991 Y72.162 E6.51188
G1 X72.072 Y73.057 E6.56097
G1 X71.604 Y73.456 E6.58451
G1 X71.089 Y73.791 E6.60802
G1 X70.535 Y74.057 E6.63154
G1 X69.951 Y74.248 E6.65505
G1 X69.615 Y74.311 E6.66813
G1 X69.331 Y74.726 E6.68738
G1 X68.921 Y75.184 E6.7109
G1 X68.455 Y75.584 E6.73441
G1 X67.941 Y75.921 E6.75793
G1 X67.265 Y76.236 E6.78647
G1 X66.104 Y76.669 E6.83389
G1 X65.516 Y76.846 E6.85739
G1 X64.909 Y76.945 E6.88093
G1 X64.295 Y76.964 E6.90444
G1 X63.683 Y76.904 E6.92797
G1 X63.291 Y76.815 E6.94335
G1 X62.884 Y77.091 E6.96217
G1 X62.259 Y77.399 E6.98884
G1 X62.113 Y77.458 E6.99487
G1 X61.53 Y77.651 E7.01837
G1 X60.926 Y77.766 E7.0419
G1 X60.343 Y77.802 E7.06425
G1 X59.688 Y77.802 E7.08932
G1 X59.075 Y77.762 E7.11283
G1 X58.472 Y77.643 E7.13635
G1 X57.996 Y77.489 E7.1555
G1 X57.532 Y77.311 E7.17451
G1 X56.973 Y77.054 E7.19806
G1 X56.747 Y76.911 E7.2083
G1 X56.116 Y76.967 E7.23254
G1 X55.602 Y76.967 E7.25221
G1 X54.817 Y76.901 E7.28236
G1 X54.063 Y76.774 E7.31162
G1 X53.465 Y76.633 E7.33513
G1 X52.891 Y76.415 E7.35863
G1 X52.349 Y76.125 E7.38215
G1 X51.723 Y75.659 E7.41202
G1 X51.131 Y75.137 E7.44223
G1 X50.698 Y74.702 E7.46571
G1 X50.396 Y74.307 E7.48474
G1 X50.003 Y74.225 E7.50011
G1 X49.423 Y74.023 E7.52361
G1 X48.874 Y73.747 E7.54713
G1 X48.365 Y73.403 E7.57064
G1 X47.958 Y73.047 E7.59133
G1 X47.059 Y72.166 E7.6395
G1 X46.649 Y71.708 E7.66303
G1 X46.302 Y71.201 E7.68654
G1 X46.023 Y70.653 E7.71007
G1 X45.818 Y70.074 E7.73358
G1 X45.724 Y69.628 E7.75102
G1 X45.375 Y69.371 E7.76761
G1 X44.877 Y68.885 E7.79424
G1 X44.355 Y68.294 E7.82442
G1 X43.979 Y67.808 E7.84793
G1 X43.669 Y67.277 E7.87146
G1 X43.431 Y66.711 E7.89496
G1 X43.235 Y65.939 E7.92544
G1 X43.11 Y65.185 E7.95469
G1 X43.046 Y64.412 E7.98438
G1 X43.046 Y63.895 E8.00416
G1 X43.086 Y63.282 E8.02767
G1 X43.091 Y63.257 E8.02865
G1 X42.847 Y62.819 E8.04783
G1 X42.593 Y62.193 E8.07369
G1 X42.549 Y62.083 E8.07822
G1 X42.358 Y61.499 E8.10174
G1 X42.244 Y60.895 E8.12526
G1 X42.209 Y60.323 E8.14719
G1 X42.209 Y59.666 E8.17233
G1 X42.249 Y59.053 E8.19584
G1 X42.368 Y58.45 E8.21937
G1 X42.593 Y57.801 E8.24565
G1 X42.654 Y57.659 E8.25157
G1 X42.932 Y57.111 E8.27508
G1 X43.197 Y56.726 E8.29297
G1 X43.102 Y56.3 E8.30967
G1 X43.047 Y55.688 E8.33319
G1 X43.072 Y55.074 E8.35671
G1 X43.177 Y54.468 E8.38024
G1 X43.299 Y54.046 E8.39706
G1 X43.681 Y52.927 E8.44231
G1 X43.917 Y52.36 E8.46581
G1 X44.225 Y51.828 E8.48934
G1 X44.599 Y51.341 E8.51283
G1 X45.033 Y50.906 E8.53635
G1 X45.562 Y50.503 E8.5618
G1 X45.69 Y50.419 E8.56766
G1 X45.695 Y50.379 E8.5692
G1 X45.846 Y49.784 E8.5927
G1 X46.072 Y49.212 E8.61623
G1 X46.371 Y48.675 E8.63975
G1 X46.737 Y48.182 E8.66325
G1 X46.964 Y47.932 E8.67618
G1 X47.376 Y47.511 E8.69872
G0 F1620 X47.861 Y47.015
G0 F4320 X48.111 Y47.26
G1 F1800 X48.553 Y46.866 E8.72138
G1 X49.043 Y46.535 E8.74401
G1 X49.519 Y46.296 E8.76439
G1 X49.664 Y46.234 E8.77043
G1 X50.201 Y46.045 E8.79221
G1 X50.665 Y45.933 E8.81048
G1 X50.763 Y45.765 E8.81792
G1 X51.128 Y45.3 E8.84055
G1 X51.552 Y44.888 E8.86317
G1 X52.027 Y44.537 E8.88578
G1 X52.665 Y44.2 E8.91339
G1 X53.919 Y43.665 E8.96556
G1 X54.477 Y43.47 E8.98819
G1 X55.057 Y43.352 E9.01084
G1 X55.636 Y43.314 E9.03304
G1 X56.046 Y43.314 E9.04873
G1 X56.636 Y43.354 E9.07136
G1 X56.977 Y43.424 E9.08469
G1 X57.439 Y43.119 E9.10587
G1 X57.972 Y42.862 E9.12852
G1 X58.534 Y42.68 E9.15113
G1 X59.116 Y42.575 E9.17376
G1 X59.822 Y42.554 E9.20079
G1 X60.768 Y42.602 E9.23704
G1 X61.355 Y42.671 E9.25966
G1 X61.927 Y42.82 E9.28228
G1 X62.474 Y43.044 E9.3049
G1 X63.108 Y43.416 E9.33303
G1 X63.388 Y43.357 E9.34398
G1 X63.998 Y43.314 E9.36738
G1 X64.393 Y43.314 E9.3825
G1 X64.983 Y43.354 E9.40513
G1 X65.396 Y43.43 E9.4212
G1 X66.258 Y43.633 E9.45509
G1 X66.823 Y43.808 E9.47773
G1 X67.359 Y44.056 E9.50033
G1 X67.857 Y44.375 E9.52296
G1 X68.245 Y44.698 E9.54229
G1 X68.808 Y45.225 E9.5718
G1 X69.211 Y45.657 E9.59441
G1 X69.509 Y46.077 E9.61412
G1 X69.94 Y46.23 E9.63162
G1 X71.068 Y46.709 E9.67852
G1 X71.595 Y46.976 E9.70113
G1 X72.082 Y47.312 E9.72377
G1 X72.519 Y47.711 E9.74642
G1 X72.898 Y48.165 E9.76905
G1 X73.212 Y48.666 E9.79168
G1 X73.452 Y49.193 E9.81384
G1 X73.846 Y50.238 E9.85658
G1 X73.923 Y50.495 E9.86685
G1 X74.379 Y50.822 E9.88832
G1 X74.777 Y51.195 E9.90919
G1 X75.305 Y51.755 E9.93865
G1 X75.681 Y52.211 E9.96127
G1 X75.991 Y52.714 E9.98388
G1 X76.231 Y53.255 E10.00653
G1 X76.384 Y53.766 E10.02694
G1 X76.584 Y54.627 E10.06077
G1 X76.678 Y55.211 E10.08341
G1 X76.697 Y56.013 E10.11411
G1 X76.657 Y56.603 E10.13674
G1 X76.596 Y56.902 E10.14842
G1 X76.725 Y57.104 E10.15759
G1 X77.01 Y57.622 E10.18022
G1 X77.222 Y58.174 E10.20285
G1 X77.358 Y58.749 E10.22546
G1 X77.416 Y59.36 E10.24895
G1 X77.44 Y60.363 E10.28734
G1 X77.414 Y60.954 E10.30998
G1 X77.309 Y61.536 E10.33262
G1 X77.126 Y62.098 E10.35524
G1 X76.869 Y62.631 E10.37788
G1 X76.507 Y63.148 E10.40203
G1 X76.566 Y63.524 E10.4166
G1 X76.641 Y64.394 E10.45002
G1 X76.652 Y64.985 E10.47264
G1 X76.583 Y65.573 E10.4953
G1 X76.435 Y66.145 E10.51791
G1 X76.077 Y66.947 E10.55152
G1 X75.583 Y67.808 E10.58951
G1 X75.255 Y68.3 E10.61214
G1 X74.863 Y68.743 E10.63478
G1 X74.415 Y69.129 E10.65741
G1 X74.074 Y69.351 E10.67298
G1 X73.95 Y69.863 E10.69314
G1 X73.769 Y70.369 E10.71371
G1 X73.517 Y70.904 E10.73634
G1 X73.195 Y71.4 E10.75897
G1 X72.746 Y71.911 E10.785
G1 X71.827 Y72.806 E10.83409
G1 X71.377 Y73.189 E10.85671
G1 X70.879 Y73.508 E10.87934
G1 X70.342 Y73.757 E10.90199
G1 X69.777 Y73.931 E10.92462
G1 X69.411 Y73.983 E10.93877
G1 X69.377 Y74.04 E10.94131
G1 X69.042 Y74.527 E10.96393
G1 X68.644 Y74.965 E10.98658
G1 X68.191 Y75.345 E11.0092
G1 X67.691 Y75.66 E11.03182
G1 X67.143 Y75.908 E11.05484
G1 X65.982 Y76.341 E11.10226
G1 X65.415 Y76.51 E11.1249
G1 X64.831 Y76.601 E11.14752
G1 X64.24 Y76.612 E11.17014
G1 X63.652 Y76.543 E11.1928
G1 X63.212 Y76.437 E11.21012
G1 X63.159 Y76.484 E11.21283
G1 X62.668 Y76.812 E11.23543
G1 X62.128 Y77.074 E11.2584
G1 X61.982 Y77.133 E11.26443
G1 X61.42 Y77.317 E11.28706
G1 X60.839 Y77.424 E11.30967
G1 X60.343 Y77.452 E11.32868
G1 X59.688 Y77.452 E11.35375
G1 X59.098 Y77.412 E11.37638
G1 X58.519 Y77.293 E11.399
G1 X57.657 Y76.984 E11.43404
G1 X57.121 Y76.735 E11.45666
G1 X56.837 Y76.553 E11.46957
G1 X56.77 Y76.568 E11.4722
G1 X56.116 Y76.617 E11.4973
G1 X55.602 Y76.617 E11.51697
G1 X54.875 Y76.556 E11.54489
G1 X54.121 Y76.429 E11.57415
G1 X53.546 Y76.292 E11.59677
G1 X52.995 Y76.078 E11.61939
G1 X52.477 Y75.792 E11.64204
G1 X51.955 Y75.397 E11.66709
G1 X51.363 Y74.875 E11.69729
G1 X50.946 Y74.454 E11.71997
G1 X50.599 Y73.992 E11.74208
G1 X50.075 Y73.882 E11.76257
G1 X49.518 Y73.683 E11.78521
G1 X48.994 Y73.411 E11.8078
G1 X48.51 Y73.071 E11.83044
G1 X48.203 Y72.797 E11.84619
G1 X47.304 Y71.916 E11.89436
G1 X46.91 Y71.474 E11.91702
G1 X46.58 Y70.984 E11.93963
G1 X46.319 Y70.453 E11.96227
G1 X46.132 Y69.892 E11.9849
G1 X46.037 Y69.424 E12.00318
G1 X46.002 Y69.404 E12.00472
G1 X45.532 Y69.045 E12.02735
G1 X45.139 Y68.653 E12.0486
G1 X44.617 Y68.062 E12.07877
G1 X44.256 Y67.594 E12.10139
G1 X43.962 Y67.081 E12.12402
G1 X43.74 Y66.533 E12.14665
G1 X43.58 Y65.882 E12.1723
G1 X43.455 Y65.128 E12.20155
G1 X43.396 Y64.412 E12.22905
G1 X43.396 Y63.895 E12.24883
G1 X43.436 Y63.305 E12.27146
G1 X43.461 Y63.186 E12.27612
G1 X43.392 Y63.09 E12.28064
G1 X43.021 Y62.336 E12.3128
G1 X42.874 Y61.952 E12.32854
G1 X42.691 Y61.39 E12.35115
G1 X42.586 Y60.808 E12.37379
G1 X42.559 Y60.323 E12.39238
G1 X42.559 Y59.666 E12.41752
G1 X42.599 Y59.076 E12.44015
G1 X42.718 Y58.497 E12.46277
