;FLAVOR:Marlin
;TIME:784
;Filament used: 0.316204m
;Layer height: 0.175
;MINX:43.675
;MINY:49.95
;MINZ:0.263
;MAXX:71.05
;MAXY:74.825
;MAXZ:20.038
;Generated with Cura_SteamEngine 4.13.1
M140 S65
M105
M190 S65
M104 S205
M105
M109 S205
M82 ;absolute extrusion mode
G21;(metric values)
G90;(absolute positioning)
M82;(set extruder to absolute mode)
M107;(start with the fan off)
G28;(Home the printer)
G92 E0;(Reset the extruder to 0)
G0 Z5 E5 F500;(Move up and prime the nozzle)
G0 X-1 Z0;(Move outside the printable area)
G1 Y60 E8 F500;(Draw a priming/wiping line to the rear)
G1 X-1;(Move a little closer to the print area)
G1 Y10 E16 F500;(draw more priming/wiping)
G1 E15 F250;(Small retract)
G92 E0;(Zero the extruder)
G92 E0
G92 E0
G1 F2400 E-2.5
;LAYER_COUNT:117
;LAYER:0
M107
G0 F4320 X45.513 Y61.842 Z0.263
;TYPE:SKIRT
G1 F2400 E0
G1 F1800 X46.028 Y61.467 E0.02438
G1 X46.585 Y61.16 E0.04872
G1 X47.177 Y60.925 E0.0731
G1 X47.794 Y60.766 E0.09748
G1 X48.426 Y60.685 E0.12186
G1 X48.75 Y60.675 E0.13427
G1 X64.75 Y60.675 E0.74659
G1 X65.386 Y60.715 E0.77098
G1 X66.011 Y60.834 E0.79532
G1 X66.617 Y61.031 E0.81971
G1 X67.193 Y61.302 E0.84407
G1 X67.731 Y61.643 E0.86845
G1 X68.222 Y62.049 E0.89283
G1 X68.658 Y62.513 E0.9172
G1 X69.033 Y63.028 E0.94158
G1 X69.34 Y63.585 E0.96592
G1 X69.575 Y64.177 E0.99029
G1 X69.734 Y64.794 E1.01468
G1 X69.815 Y65.426 E1.03906
G1 X69.825 Y65.75 E1.05147
G1 X69.825 Y69.75 E1.20455
G1 X69.785 Y70.386 E1.22894
G1 X69.666 Y71.011 E1.25328
G1 X69.469 Y71.617 E1.27767
G1 X69.198 Y72.193 E1.30203
G1 X68.857 Y72.731 E1.32641
G1 X68.451 Y73.222 E1.35079
G1 X67.987 Y73.658 E1.37516
G1 X67.472 Y74.033 E1.39954
G1 X66.915 Y74.34 E1.42388
G1 X66.323 Y74.575 E1.44825
G1 X65.706 Y74.734 E1.47264
G1 X65.074 Y74.815 E1.49702
G1 X64.75 Y74.825 E1.50943
G1 X63.75 Y74.825 E1.5477
G1 X63.114 Y74.785 E1.57208
G1 X62.489 Y74.666 E1.59643
G1 X61.883 Y74.469 E1.62082
G1 X61.307 Y74.198 E1.64518
G1 X60.769 Y73.857 E1.66956
G1 X60.278 Y73.451 E1.69394
G1 X59.842 Y72.987 E1.71831
G1 X59.467 Y72.472 E1.74269
G1 X59.16 Y71.915 E1.76703
G1 X58.926 Y71.325 E1.79132
G1 X54.564 Y71.325 E1.95825
G1 X54.469 Y71.617 E1.97
G1 X54.198 Y72.193 E1.99436
G1 X53.857 Y72.731 E2.01874
G1 X53.451 Y73.222 E2.04312
G1 X52.987 Y73.658 E2.06749
G1 X52.472 Y74.033 E2.09187
G1 X51.915 Y74.34 E2.11621
G1 X51.323 Y74.575 E2.14058
G1 X50.706 Y74.734 E2.16497
G1 X50.074 Y74.815 E2.18935
G1 X49.75 Y74.825 E2.20176
G1 X48.75 Y74.825 E2.24003
G1 X48.114 Y74.785 E2.26442
G1 X47.489 Y74.666 E2.28876
G1 X46.883 Y74.469 E2.31315
G1 X46.307 Y74.198 E2.33751
G1 X45.769 Y73.857 E2.36189
G1 X45.278 Y73.451 E2.38627
G1 X44.842 Y72.987 E2.41064
G1 X44.467 Y72.472 E2.43502
G1 X44.16 Y71.915 E2.45936
G1 X43.925 Y71.323 E2.48373
G1 X43.766 Y70.706 E2.50812
G1 X43.685 Y70.074 E2.5325
G1 X43.675 Y69.75 E2.54491
G1 X43.675 Y65.75 E2.69799
G1 X43.715 Y65.114 E2.72237
G1 X43.834 Y64.489 E2.74672
G1 X44.031 Y63.883 E2.77111
G1 X44.302 Y63.307 E2.79547
G1 X44.643 Y62.769 E2.81985
G1 X45.013 Y62.322 E2.84205
G0 F1620 X45.049 Y62.278
G0 X45.513 Y61.842
G0 F4320 X45.854 Y62.017
G1 F1800 X46.363 Y61.672 E2.86559
G1 X46.912 Y61.397 E2.88908
G1 X47.493 Y61.195 E2.91262
G1 X48.094 Y61.071 E2.93611
G1 X48.75 Y61.025 E2.96128
G1 X64.75 Y61.025 E3.5736
G1 X65.363 Y61.065 E3.5971
G1 X65.966 Y61.184 E3.62063
G1 X66.548 Y61.381 E3.64414
G1 X67.1 Y61.651 E3.66766
G1 X67.612 Y61.991 E3.69118
G1 X68.076 Y62.394 E3.7147
G1 X68.483 Y62.854 E3.7382
G1 X68.828 Y63.363 E3.76174
G1 X69.103 Y63.912 E3.78523
G1 X69.305 Y64.493 E3.80878
G1 X69.429 Y65.094 E3.83226
G1 X69.475 Y65.75 E3.85743
G1 X69.475 Y69.75 E4.01051
G1 X69.435 Y70.363 E4.03402
G1 X69.316 Y70.966 E4.05754
G1 X69.119 Y71.548 E4.08105
G1 X68.849 Y72.1 E4.10457
G1 X68.509 Y72.612 E4.12809
G1 X68.106 Y73.076 E4.15161
G1 X67.646 Y73.483 E4.17512
G1 X67.137 Y73.828 E4.19865
G1 X66.588 Y74.103 E4.22215
G1 X66.007 Y74.305 E4.24569
G1 X65.406 Y74.429 E4.26917
G1 X64.75 Y74.475 E4.29434
G1 X63.75 Y74.475 E4.33261
G1 X63.137 Y74.435 E4.35612
G1 X62.534 Y74.316 E4.37964
G1 X61.952 Y74.119 E4.40315
G1 X61.4 Y73.849 E4.42667
G1 X60.888 Y73.509 E4.45019
G1 X60.424 Y73.106 E4.47371
G1 X60.017 Y72.646 E4.49722
G1 X59.672 Y72.137 E4.52075
G1 X59.397 Y71.588 E4.54425
G1 X59.195 Y71.007 E4.56779
G1 X59.188 Y70.975 E4.56904
G1 X54.313 Y70.975 E4.75561
G1 X54.119 Y71.548 E4.77876
G1 X53.849 Y72.1 E4.80228
G1 X53.509 Y72.612 E4.8258
G1 X53.106 Y73.076 E4.84932
G1 X52.646 Y73.483 E4.87282
G1 X52.137 Y73.828 E4.89635
G1 X51.588 Y74.103 E4.91985
G1 X51.007 Y74.305 E4.94339
G1 X50.406 Y74.429 E4.96688
G1 X49.75 Y74.475 E4.99205
G1 X48.75 Y74.475 E5.03032
G1 X48.137 Y74.435 E5.05382
G1 X47.534 Y74.316 E5.07735
G1 X46.952 Y74.119 E5.10086
G1 X46.4 Y73.849 E5.12438
G1 X45.888 Y73.509 E5.1479
G1 X45.424 Y73.106 E5.17142
G1 X45.017 Y72.646 E5.19492
G1 X44.672 Y72.137 E5.21846
G1 X44.397 Y71.588 E5.24196
G1 X44.195 Y71.007 E5.2655
G1 X44.071 Y70.406 E5.28898
G1 X44.025 Y69.75 E5.31415
G1 X44.025 Y65.75 E5.46723
G1 X44.065 Y65.137 E5.49074
G1 X44.184 Y64.534 E5.51426
G1 X44.381 Y63.952 E5.53777
G1 X44.651 Y63.4 E5.56129
G1 X44.991 Y62.888 E5.58481
G1 X45.342 Y62.484 E5.60529
G0 F1620 X45.394 Y62.424
G0 X45.854 Y62.017
G0 F4320 X45.738 Y62.577
G1 F1800 X46.194 Y62.2 E5.62793
G1 X46.696 Y61.887 E5.65057
G1 X47.235 Y61.646 E5.67317
G1 X47.803 Y61.479 E5.69583
G1 X48.387 Y61.39 E5.71843
G1 X48.75 Y61.375 E5.73234
G1 X64.75 Y61.375 E6.34466
G1 X65.34 Y61.415 E6.36729
G1 X65.919 Y61.534 E6.38991
G1 X66.477 Y61.73 E6.41254
G1 X67.003 Y62 E6.43517
G1 X67.488 Y62.338 E6.45779
G1 X67.923 Y62.738 E6.48041
G1 X68.3 Y63.194 E6.50305
G1 X68.613 Y63.696 E6.52569
G1 X68.854 Y64.235 E6.54829
G1 X69.021 Y64.803 E6.57095
G1 X69.11 Y65.387 E6.59355
G1 X69.125 Y65.75 E6.60746
G1 X69.125 Y69.75 E6.76054
G1 X69.085 Y70.34 E6.78317
G1 X68.966 Y70.919 E6.80579
G1 X68.77 Y71.477 E6.82842
G1 X68.5 Y72.003 E6.85105
G1 X68.162 Y72.488 E6.87367
G1 X67.762 Y72.923 E6.89629
G1 X67.306 Y73.3 E6.91893
G1 X66.804 Y73.613 E6.94157
G1 X66.265 Y73.854 E6.96417
G1 X65.697 Y74.021 E6.98683
G1 X65.113 Y74.11 E7.00943
G1 X64.75 Y74.125 E7.02334
G1 X63.75 Y74.125 E7.06161
G1 X63.16 Y74.085 E7.08424
G1 X62.581 Y73.966 E7.10686
G1 X62.023 Y73.77 E7.12949
G1 X61.497 Y73.5 E7.15212
G1 X61.012 Y73.162 E7.17474
G1 X60.577 Y72.762 E7.19736
G1 X60.2 Y72.306 E7.22
G1 X59.887 Y71.804 E7.24264
G1 X59.646 Y71.265 E7.26524
G1 X59.479 Y70.697 E7.2879
G1 X59.468 Y70.625 E7.29068
G1 X54.026 Y70.625 E7.49895
G1 X53.966 Y70.919 E7.51043
G1 X53.77 Y71.477 E7.53307
G1 X53.5 Y72.003 E7.55569
G1 X53.162 Y72.488 E7.57832
G1 X52.762 Y72.923 E7.60093
G1 X52.306 Y73.3 E7.62357
G1 X51.804 Y73.613 E7.64621
G1 X51.265 Y73.854 E7.66881
G1 X50.697 Y74.021 E7.69147
G1 X50.113 Y74.11 E7.71408
G1 X49.75 Y74.125 E7.72798
G1 X48.75 Y74.125 E7.76625
G1 X48.16 Y74.085 E7.78888
G1 X47.581 Y73.966 E7.8115
G1 X47.023 Y73.77 E7.83414
G1 X46.497 Y73.5 E7.85676
G1 X46.012 Y73.162 E7.87939
G1 X45.577 Y72.762 E7.902
G1 X45.2 Y72.306 E7.92464
G1 X44.887 Y71.804 E7.94728
G1 X44.646 Y71.265 E7.96988
G1 X44.479 Y70.697 E7.99254
G1 X44.39 Y70.113 E8.01515
G1 X44.375 Y69.75 E8.02905
G1 X44.375 Y65.75 E8.18213
G1 X44.415 Y65.16 E8.20476
G1 X44.534 Y64.581 E8.22738
G1 X44.73 Y64.023 E8.25001
G1 X45 Y63.497 E8.27264
G1 X45.279 Y63.097 E8.29131
G0 F1620 X45.338 Y63.012
G0 X45.738 Y62.577
G0 F4320 X46.082 Y62.737
G1 F1800 X46.532 Y62.391 E8.31303
G1 X47.026 Y62.113 E8.33472
G1 X47.554 Y61.907 E8.35641
G1 X48.106 Y61.777 E8.37812
G1 X48.75 Y61.725 E8.40284
G1 X64.75 Y61.725 E9.01516
G1 X65.316 Y61.765 E9.03688
G1 X65.87 Y61.884 E9.05856
G1 X66.402 Y62.08 E9.08026
G1 X66.902 Y62.348 E9.10197
G1 X67.358 Y62.685 E9.12367
G1 X67.763 Y63.082 E9.14537
G1 X68.109 Y63.532 E9.1671
G1 X68.387 Y64.026 E9.18879
G1 X68.593 Y64.554 E9.21048
G1 X68.723 Y65.106 E9.23218
G1 X68.775 Y65.75 E9.25691
G1 X68.775 Y69.75 E9.40999
G1 X68.735 Y70.316 E9.4317
G1 X68.616 Y70.87 E9.45339
G1 X68.42 Y71.402 E9.47509
G1 X68.152 Y71.902 E9.4968
G1 X67.815 Y72.358 E9.5185
G1 X67.418 Y72.763 E9.5402
G1 X66.968 Y73.109 E9.56192
G1 X66.474 Y73.387 E9.58362
G1 X65.946 Y73.593 E9.60531
G1 X65.394 Y73.723 E9.62701
G1 X64.75 Y73.775 E9.65173
G1 X63.75 Y73.775 E9.69
G1 X63.184 Y73.735 E9.71172
G1 X62.63 Y73.616 E9.7334
G1 X62.098 Y73.42 E9.7551
G1 X61.598 Y73.152 E9.77681
G1 X61.142 Y72.815 E9.79851
G1 X60.737 Y72.418 E9.82022
G1 X60.391 Y71.968 E9.84194
G1 X60.113 Y71.474 E9.86363
G1 X59.907 Y70.946 E9.88532
G1 X59.777 Y70.394 E9.90703
G1 X59.767 Y70.275 E9.9116
G1 X53.738 Y70.275 E10.14233
G1 X53.735 Y70.316 E10.1439
G1 X53.616 Y70.87 E10.16558
G1 X53.42 Y71.402 E10.18728
G1 X53.152 Y71.902 E10.20899
G1 X52.815 Y72.358 E10.23069
G1 X52.418 Y72.763 E10.2524
G1 X51.968 Y73.109 E10.27412
G1 X51.474 Y73.387 E10.29581
G1 X50.946 Y73.593 E10.3175
G1 X50.394 Y73.723 E10.33921
G1 X49.75 Y73.775 E10.36393
G1 X48.75 Y73.775 E10.4022
G1 X48.184 Y73.735 E10.42392
G1 X47.63 Y73.616 E10.4456
G1 X47.098 Y73.42 E10.4673
G1 X46.598 Y73.152 E10.48901
G1 X46.142 Y72.815 E10.51071
G1 X45.737 Y72.418 E10.53241
G1 X45.391 Y71.968 E10.55414
G1 X45.113 Y71.474 E10.57583
G1 X44.907 Y70.946 E10.59752
G1 X44.777 Y70.394 E10.61922
G1 X44.725 Y69.75 E10.64395
G1 X44.725 Y65.75 E10.79703
G1 X44.765 Y65.184 E10.81874
G1 X44.884 Y64.63 E10.84043
G1 X45.08 Y64.098 E10.86213
G1 X45.348 Y63.598 E10.88384
G1 X45.61 Y63.244 E10.90069
G0 F1620 X45.685 Y63.142
G0 X46.082 Y62.737
G0 F4320 X46.424 Y62.905
G1 F1800 X46.868 Y62.594 E10.92144
G1 X47.352 Y62.351 E10.94216
G1 X47.867 Y62.183 E10.96289
G1 X48.401 Y62.092 E10.98362
G1 X48.75 Y62.075 E10.997
G1 X64.75 Y62.075 E11.60932
G1 X65.29 Y62.115 E11.63004
G1 X65.819 Y62.234 E11.65079
G1 X66.324 Y62.429 E11.67151
G1 X66.796 Y62.697 E11.69228
G1 X67.222 Y63.031 E11.71299
G1 X67.595 Y63.424 E11.73373
G1 X67.906 Y63.868 E11.75448
G1 X68.149 Y64.352 E11.7752
G1 X68.317 Y64.867 E11.79593
G1 X68.408 Y65.401 E11.81666
G1 X68.425 Y65.75 E11.83004
G1 X68.425 Y69.75 E11.98312
G1 X68.385 Y70.29 E12.00384
G1 X68.266 Y70.819 E12.02459
G1 X68.071 Y71.324 E12.04531
G1 X67.803 Y71.796 E12.06608
G1 X67.469 Y72.222 E12.08679
G1 X67.076 Y72.595 E12.10753
G1 X66.632 Y72.906 E12.12828
G1 X66.148 Y73.149 E12.149
G1 X65.633 Y73.317 E12.16973
G1 X65.099 Y73.408 E12.19046
G1 X64.75 Y73.425 E12.20384
G1 X63.75 Y73.425 E12.24211
G1 X63.21 Y73.385 E12.26283
G1 X62.681 Y73.266 E12.28358
G1 X62.176 Y73.071 E12.3043
G1 X61.704 Y72.803 E12.32507
G1 X61.278 Y72.469 E12.34578
G1 X60.905 Y72.076 E12.36652
G1 X60.594 Y71.632 E12.38727
G1 X60.351 Y71.148 E12.40799
G1 X60.183 Y70.633 E12.42872
G1 X60.092 Y70.099 E12.44945
G1 X60.084 Y69.925 E12.45612
G1 X53.412 Y69.925 E12.71146
G1 X53.385 Y70.29 E12.72546
G1 X53.266 Y70.819 E12.74621
G1 X53.071 Y71.324 E12.76693
G1 X52.803 Y71.796 E12.7877
G1 X52.469 Y72.222 E12.80842
G1 X52.076 Y72.595 E12.82916
G1 X51.632 Y72.906 E12.8499
G1 X51.148 Y73.149 E12.87063
G1 X50.633 Y73.317 E12.89136
G1 X50.099 Y73.408 E12.91209
G1 X49.75 Y73.425 E12.92546
G1 X48.75 Y73.425 E12.96373
G1 X48.21 Y73.385 E12.98445
G1 X47.681 Y73.266 E13.0052
G1 X47.176 Y73.071 E13.02592
G1 X46.704 Y72.803 E13.04669
G1 X46.278 Y72.469 E13.06741
G1 X45.905 Y72.076 E13.08815
G1 X45.594 Y71.632 E13.10889
G1 X45.351 Y71.148 E13.12962
G1 X45.183 Y70.633 E13.15035
G1 X45.092 Y70.099 E13.17108
G1 X45.075 Y69.75 E13.18445
G1 X45.075 Y65.75 E13.33753
G1 X45.115 Y65.21 E13.35825
G1 X45.234 Y64.681 E13.379
G1 X45.429 Y64.176 E13.39972
G1 X45.697 Y63.704 E13.42049
G1 X45.937 Y63.398 E13.43538
G0 F1620 X46.031 Y63.278
G0 X46.424 Y62.905
G0 F4320 X46.765 Y63.083
G1 F1800 X47.201 Y62.808 E13.4551
G1 X47.674 Y62.604 E13.47482
G1 X48.173 Y62.475 E13.49454
G1 X48.75 Y62.425 E13.51671
G1 X64.75 Y62.425 E14.12902
G1 X65.264 Y62.465 E14.14875
G1 X65.765 Y62.584 E14.16846
G1 X66.242 Y62.779 E14.18818
G1 X66.684 Y63.045 E14.20793
G1 X67.078 Y63.376 E14.22762
G1 X67.417 Y63.765 E14.24736
G1 X67.692 Y64.201 E14.26709
G1 X67.896 Y64.674 E14.28681
G1 X68.025 Y65.173 E14.30653
G1 X68.075 Y65.75 E14.32869
G1 X68.075 Y69.75 E14.48177
G1 X68.035 Y70.264 E14.5015
G1 X67.916 Y70.765 E14.52121
G1 X67.721 Y71.242 E14.54093
G1 X67.455 Y71.684 E14.56068
G1 X67.124 Y72.078 E14.58037
G1 X66.735 Y72.417 E14.60011
G1 X66.299 Y72.692 E14.61984
G1 X65.826 Y72.896 E14.63956
G1 X65.327 Y73.025 E14.65928
G1 X64.75 Y73.075 E14.68144
G1 X63.75 Y73.075 E14.71971
G1 X63.236 Y73.035 E14.73945
G1 X62.735 Y72.916 E14.75915
G1 X62.258 Y72.721 E14.77887
G1 X61.816 Y72.455 E14.79862
G1 X61.422 Y72.124 E14.81831
G1 X61.083 Y71.735 E14.83806
G1 X60.808 Y71.299 E14.85778
G1 X60.604 Y70.826 E14.8775
G1 X60.475 Y70.327 E14.89722
G1 X60.425 Y69.75 E14.91939
G1 X60.425 Y69.575 E14.92608
G1 X53.075 Y69.575 E15.20737
G1 X53.075 Y69.75 E15.21406
G1 X53.035 Y70.264 E15.23379
G1 X52.916 Y70.765 E15.2535
G1 X52.721 Y71.242 E15.27322
G1 X52.455 Y71.684 E15.29296
G1 X52.124 Y72.078 E15.31266
G1 X51.735 Y72.417 E15.3324
G1 X51.299 Y72.692 E15.35213
G1 X50.826 Y72.896 E15.37184
G1 X50.327 Y73.025 E15.39157
G1 X49.75 Y73.075 E15.41373
G1 X48.75 Y73.075 E15.452
G1 X48.236 Y73.035 E15.47173
G1 X47.735 Y72.916 E15.49144
G1 X47.258 Y72.721 E15.51116
G1 X46.816 Y72.455 E15.5309
G1 X46.422 Y72.124 E15.5506
G1 X46.083 Y71.735 E15.57034
G1 X45.808 Y71.299 E15.59007
G1 X45.604 Y70.826 E15.60978
G1 X45.475 Y70.327 E15.62951
G1 X45.425 Y69.75 E15.65167
G1 X45.425 Y65.75 E15.80475
G1 X45.465 Y65.236 E15.82448
G1 X45.584 Y64.735 E15.84419
G1 X45.779 Y64.258 E15.86391
G1 X46.045 Y63.816 E15.88365
G1 X46.261 Y63.559 E15.8965
G0 F1620 X46.376 Y63.422
G0 X46.765 Y63.083
G0 F4320 X46.721 Y63.575
G1 F1800 X47.103 Y63.272 E15.91516
G1 X47.53 Y63.037 E15.93381
G1 X47.989 Y62.874 E15.95245
G1 X48.75 Y62.775 E15.98182
G1 X64.75 Y62.775 E16.59414
G1 X65.236 Y62.815 E16.6128
G1 X65.709 Y62.934 E16.63147
G1 X66.156 Y63.128 E16.65012
G1 X66.565 Y63.393 E16.66877
G1 X66.925 Y63.721 E16.68741
G1 X67.228 Y64.103 E16.70607
G1 X67.463 Y64.53 E16.72472
G1 X67.626 Y64.989 E16.74336
G1 X67.725 Y65.75 E16.77273
G1 X67.725 Y69.75 E16.92581
G1 X67.685 Y70.236 E16.94447
G1 X67.566 Y70.709 E16.96314
G1 X67.372 Y71.156 E16.98179
G1 X67.107 Y71.565 E17.00044
G1 X66.779 Y71.925 E17.01907
G1 X66.397 Y72.228 E17.03773
G1 X65.97 Y72.463 E17.05639
G1 X65.511 Y72.626 E17.07503
G1 X64.75 Y72.725 E17.1044
G1 X63.75 Y72.725 E17.14267
G1 X63.264 Y72.685 E17.16133
G1 X62.791 Y72.566 E17.17999
G1 X62.344 Y72.372 E17.19864
G1 X61.935 Y72.107 E17.21729
G1 X61.575 Y71.779 E17.23593
G1 X61.272 Y71.397 E17.25459
G1 X61.037 Y70.97 E17.27324
G1 X60.874 Y70.511 E17.29188
G1 X60.775 Y69.75 E17.32125
G1 X60.775 Y69.225 E17.34134
G1 X52.725 Y69.225 E17.64942
G1 X52.725 Y69.75 E17.66951
G1 X52.685 Y70.236 E17.68817
G1 X52.566 Y70.709 E17.70684
G1 X52.372 Y71.156 E17.72548
G1 X52.107 Y71.565 E17.74414
G1 X51.779 Y71.925 E17.76277
G1 X51.397 Y72.228 E17.78143
G1 X50.97 Y72.463 E17.80009
G1 X50.511 Y72.626 E17.81873
G1 X49.75 Y72.725 E17.8481
G1 X48.75 Y72.725 E17.88637
G1 X48.264 Y72.685 E17.90503
G1 X47.791 Y72.566 E17.92369
G1 X47.344 Y72.372 E17.94234
G1 X46.935 Y72.107 E17.96099
G1 X46.575 Y71.779 E17.97963
G1 X46.272 Y71.397 E17.99829
G1 X46.037 Y70.97 E18.01694
G1 X45.874 Y70.511 E18.03558
G1 X45.775 Y69.75 E18.06495
G1 X45.775 Y65.75 E18.21803
G1 X45.815 Y65.264 E18.23669
G1 X45.934 Y64.791 E18.25536
G1 X46.128 Y64.344 E18.27401
G1 X46.281 Y64.108 E18.28477
G0 F1620 X46.393 Y63.935
G0 X46.721 Y63.575
G0 F4320 X47.064 Y63.738
G1 F1800 X47.439 Y63.476 E18.30228
G1 X47.854 Y63.283 E18.31979
G1 X48.296 Y63.165 E18.3373
G1 X48.75 Y63.125 E18.35474
G1 X64.75 Y63.125 E18.96706
G1 X65.206 Y63.165 E18.98458
G1 X65.648 Y63.283 E19.00209
G1 X66.063 Y63.477 E19.01962
G1 X66.438 Y63.74 E19.03715
G1 X66.762 Y64.064 E19.05468
G1 X67.024 Y64.439 E19.07219
G1 X67.217 Y64.854 E19.08971
G1 X67.335 Y65.296 E19.10721
G1 X67.375 Y65.75 E19.12466
G1 X67.375 Y69.75 E19.27774
G1 X67.335 Y70.206 E19.29525
G1 X67.217 Y70.648 E19.31276
G1 X67.023 Y71.063 E19.33029
G1 X66.76 Y71.438 E19.34782
G1 X66.436 Y71.762 E19.36536
G1 X66.061 Y72.024 E19.38287
G1 X65.646 Y72.217 E19.40038
G1 X65.204 Y72.335 E19.41789
G1 X64.75 Y72.375 E19.43533
