;FLAVOR:Marlin
;TIME:764
;Filament used: 0.293828m
;Layer height: 0.175
;MINX:44.875
;MINY:45.875
;MINZ:0.263
;MAXX:71.05
;MAXY:73.625
;MAXZ:20.213
;Generated with Cura_SteamEngine 4.13.1
M140 S65
M105
M190 S65
M104 S205
M105
M109 S205
M82 ;absolute extrusion mode
G21;(metric values)
G90;(absolute positioning)
M82;(set extruder to absolute mode)
M107;(start with the fan off)
G28;(Home the printer)
G92 E0;(Reset the extruder to 0)
G0 Z5 E5 F500;(Move up and prime the nozzle)
G0 X-1 Z0;(Move outside the printable area)
G1 Y60 E8 F500;(Draw a priming/wiping line to the rear)
G1 X-1;(Move a little closer to the print area)
G1 Y10 E16 F500;(draw more priming/wiping)
G1 E15 F250;(Small retract)
G92 E0;(Zero the extruder)
G92 E0
G92 E0
G1 F2400 E-2.5
;LAYER_COUNT:115
;LAYER:0
M107
G0 F4320 X45.877 Y47.169 Z0.263
;TYPE:SKIRT
G1 F2400 E0
G1 F1800 X46.278 Y46.783 E0.0213
G1 X46.729 Y46.458 E0.04258
G1 X47.223 Y46.201 E0.06389
G1 X47.748 Y46.018 E0.08516
G1 X48.295 Y45.912 E0.10649
G1 X48.955 Y45.877 E0.13178
G1 X49.125 Y45.875 E0.13829
G1 X49.805 Y45.885 E0.16431
G1 X50.083 Y45.896 E0.17496
G1 X52.629 Y46.04 E0.27255
G1 X55.309 Y46.116 E0.37516
G1 X58.058 Y46.116 E0.48036
G1 X60.762 Y46.039 E0.58388
G1 X62.257 Y45.965 E0.64117
G1 X63.647 Y45.886 E0.69445
G1 X64.126 Y45.875 E0.71278
G1 X64.799 Y45.885 E0.73854
G1 X65.353 Y45.934 E0.75983
G1 X65.895 Y46.061 E0.78113
G1 X66.413 Y46.264 E0.80242
G1 X66.896 Y46.539 E0.82369
G1 X67.335 Y46.881 E0.84499
G1 X67.721 Y47.283 E0.86632
G1 X68.045 Y47.735 E0.8876
G1 X68.301 Y48.229 E0.9089
G1 X68.483 Y48.754 E0.93016
G1 X68.589 Y49.301 E0.95148
G1 X68.623 Y49.971 E0.97716
G1 X68.625 Y50.08 E0.98133
G1 X68.625 Y69.062 E1.70777
G1 X68.616 Y69.789 E1.73559
G1 X68.569 Y70.343 E1.75687
G1 X68.443 Y70.885 E1.77817
G1 X68.241 Y71.404 E1.79948
G1 X67.967 Y71.888 E1.82076
G1 X67.626 Y72.328 E1.84207
G1 X67.226 Y72.714 E1.86334
G1 X66.774 Y73.04 E1.88467
G1 X66.281 Y73.297 E1.90595
G1 X65.756 Y73.481 E1.92724
G1 X65.21 Y73.588 E1.94853
G1 X64.545 Y73.623 E1.97401
G1 X64.375 Y73.625 E1.98052
G1 X63.695 Y73.615 E2.00655
G1 X63.417 Y73.604 E2.01719
G1 X60.871 Y73.46 E2.11478
G1 X58.191 Y73.384 E2.21739
G1 X55.442 Y73.384 E2.32259
G1 X52.738 Y73.461 E2.42612
G1 X51.243 Y73.535 E2.4834
G1 X49.964 Y73.609 E2.53243
G1 X49.38 Y73.625 E2.55479
G1 X48.707 Y73.616 E2.58055
G1 X48.153 Y73.568 E2.60183
G1 X47.611 Y73.442 E2.62312
G1 X47.093 Y73.239 E2.64441
G1 X46.609 Y72.965 E2.6657
G1 X46.169 Y72.624 E2.687
G1 X45.783 Y72.223 E2.7083
G1 X45.458 Y71.771 E2.72961
G1 X45.202 Y71.277 E2.7509
G1 X45.018 Y70.752 E2.77219
G1 X44.912 Y70.206 E2.79348
G1 X44.876 Y69.513 E2.82003
G1 X44.875 Y50.372 E3.55256
G1 X44.884 Y49.707 E3.57801
G1 X44.932 Y49.152 E3.59933
G1 X45.058 Y48.61 E3.62063
G1 X45.261 Y48.092 E3.64192
G1 X45.468 Y47.729 E3.65791
G0 F1620 X45.536 Y47.608
G0 X45.877 Y47.169
G0 F4320 X46.221 Y47.313
G1 F1800 X46.617 Y46.96 E3.67821
G1 X47.061 Y46.67 E3.69851
G1 X47.544 Y46.45 E3.71882
G1 X48.055 Y46.305 E3.73915
G1 X48.656 Y46.235 E3.7623
G1 X49.12 Y46.225 E3.78006
G1 X49.9 Y46.238 E3.80992
G1 X52.563 Y46.388 E3.91199
G1 X55.335 Y46.466 E4.01812
G1 X58.032 Y46.466 E4.12133
G1 X60.791 Y46.388 E4.22696
G1 X62.275 Y46.314 E4.28383
G1 X63.556 Y46.24 E4.33293
G1 X64.12 Y46.225 E4.35452
G1 X64.793 Y46.235 E4.38028
G1 X65.322 Y46.283 E4.40061
G1 X65.837 Y46.41 E4.42091
G1 X66.328 Y46.612 E4.44123
G1 X66.782 Y46.886 E4.46152
G1 X67.191 Y47.225 E4.48185
G1 X67.543 Y47.622 E4.50216
G1 X67.833 Y48.066 E4.52245
G1 X68.052 Y48.55 E4.54278
G1 X68.196 Y49.06 E4.56306
G1 X68.265 Y49.661 E4.58621
G1 X68.275 Y50.08 E4.60225
G1 X68.275 Y69.058 E5.32854
G1 X68.266 Y69.785 E5.35636
G1 X68.219 Y70.313 E5.37665
G1 X68.094 Y70.829 E5.39697
G1 X67.893 Y71.32 E5.41727
G1 X67.62 Y71.775 E5.43758
G1 X67.282 Y72.184 E5.45789
G1 X66.886 Y72.538 E5.47821
G1 X66.442 Y72.828 E5.49851
G1 X65.959 Y73.049 E5.51884
G1 X65.449 Y73.194 E5.53913
G1 X64.844 Y73.265 E5.56244
G1 X64.38 Y73.275 E5.5802
G1 X63.6 Y73.262 E5.61006
G1 X60.937 Y73.112 E5.71213
G1 X58.165 Y73.034 E5.81826
G1 X55.468 Y73.034 E5.92147
G1 X52.709 Y73.112 E6.0271
G1 X51.225 Y73.186 E6.08396
G1 X49.944 Y73.26 E6.13307
G1 X49.385 Y73.275 E6.15447
G1 X48.712 Y73.266 E6.18023
G1 X48.183 Y73.219 E6.20055
G1 X47.668 Y73.093 E6.22084
G1 X47.177 Y72.891 E6.24116
G1 X46.722 Y72.618 E6.26147
G1 X46.313 Y72.279 E6.2818
G1 X45.96 Y71.884 E6.30207
G1 X45.67 Y71.439 E6.3224
G1 X45.45 Y70.956 E6.34271
G1 X45.305 Y70.446 E6.363
G1 X45.235 Y69.836 E6.3865
G1 X45.225 Y69.408 E6.40288
G1 X45.225 Y50.376 E7.13124
G1 X45.234 Y49.711 E7.15669
G1 X45.281 Y49.183 E7.17697
G1 X45.407 Y48.667 E7.1973
G1 X45.609 Y48.176 E7.21762
G1 X45.798 Y47.861 E7.23168
G0 F1620 X45.882 Y47.722
G0 X46.221 Y47.313
G0 F4320 X46.564 Y47.465
G1 F1800 X46.954 Y47.147 E7.25094
G1 X47.39 Y46.894 E7.27023
G1 X47.86 Y46.714 E7.28949
G1 X48.353 Y46.61 E7.30877
G1 X48.976 Y46.576 E7.33265
G1 X49.115 Y46.575 E7.33797
G1 X49.795 Y46.585 E7.36399
G1 X50.044 Y46.595 E7.37353
G1 X52.571 Y46.738 E7.47039
G1 X55.325 Y46.816 E7.57583
G1 X58.042 Y46.816 E7.67981
G1 X60.817 Y46.738 E7.78605
G1 X62.266 Y46.665 E7.84158
G1 X63.667 Y46.585 E7.89528
G1 X64.115 Y46.575 E7.91243
G1 X64.788 Y46.585 E7.93819
G1 X65.29 Y46.633 E7.95749
G1 X65.777 Y46.759 E7.97674
G1 X66.239 Y46.96 E7.99602
G1 X66.662 Y47.232 E8.01527
G1 X67.038 Y47.568 E8.03456
G1 X67.356 Y47.959 E8.05385
G1 X67.607 Y48.395 E8.0731
G1 X67.787 Y48.865 E8.09236
G1 X67.89 Y49.358 E8.11164
G1 X67.924 Y49.991 E8.1359
G1 X67.925 Y69.053 E8.8654
G1 X67.916 Y69.78 E8.89322
G1 X67.87 Y70.282 E8.91252
G1 X67.745 Y70.77 E8.9318
G1 X67.544 Y71.232 E8.95108
G1 X67.273 Y71.656 E8.97033
G1 X66.939 Y72.032 E8.98958
G1 X66.549 Y72.351 E9.00886
G1 X66.113 Y72.604 E9.02816
G1 X65.643 Y72.785 E9.04743
G1 X65.151 Y72.889 E9.06667
G1 X64.524 Y72.924 E9.09071
G1 X64.385 Y72.925 E9.09603
G1 X63.705 Y72.915 E9.12205
G1 X63.456 Y72.905 E9.13159
G1 X60.929 Y72.762 E9.22845
G1 X58.175 Y72.684 E9.33389
G1 X55.458 Y72.684 E9.43787
G1 X52.683 Y72.762 E9.54411
G1 X51.234 Y72.835 E9.59963
G1 X49.833 Y72.915 E9.65334
G1 X49.39 Y72.925 E9.6703
G1 X48.717 Y72.916 E9.69605
G1 X48.215 Y72.869 E9.71535
G1 X47.727 Y72.744 E9.73463
G1 X47.266 Y72.543 E9.75387
G1 X46.841 Y72.271 E9.77319
G1 X46.465 Y71.936 E9.79246
G1 X46.147 Y71.546 E9.81172
G1 X45.895 Y71.111 E9.83095
G1 X45.714 Y70.64 E9.85026
G1 X45.61 Y70.148 E9.86951
G1 X45.576 Y69.494 E9.89457
G1 X45.575 Y50.381 E10.62603
G1 X45.584 Y49.716 E10.65148
G1 X45.631 Y49.215 E10.67073
G1 X45.756 Y48.727 E10.69001
G1 X45.957 Y48.265 E10.7093
G1 X46.126 Y48.002 E10.72126
G0 F1620 X46.229 Y47.841
G0 X46.564 Y47.465
G1 F2400 E8.22126
;MESH:doorClamp.stl
G0 F4320 X49.051 Y49.085
G0 X49.051 Y50.051
G0 X49.363 Y69.393
G1 F2400 E10.72126
G0 F4320 X49.55 Y69.55
;TYPE:WALL-OUTER
G1 F1800 X48.95 Y69.55 E10.74422
G1 X48.95 Y49.95 E11.49431
G1 X49.55 Y49.95 E11.51727
G1 X49.55 Y68.856 E12.24081
G0 F1620 X49.55 Y69.55
G0 F4320 X49.35 Y69.55
G0 X49.226 Y69.272
;TYPE:SKIN
G1 F1800 X49.249 Y69.048 E12.2472
G1 X49.249 Y51.632 E12.74173
G0 F1620 X49.249 Y50.487
G0 X49.254 Y50.244
G0 F4320 X49.387 Y50.367
G1 F2400 E10.24173
G0 F4320 X49.363 Y50.367
G0 X49.443 Y69.393
G0 X50.415 Y69.393
G0 X63.085 Y69.393
G0 X64.057 Y69.393
G1 F2400 E12.74173
G0 F4320 X64.55 Y69.55
M104 S200
;TYPE:WALL-OUTER
G1 F1800 X63.95 Y69.55 E12.76469
G1 X63.95 Y49.95 E13.51478
G1 X64.55 Y49.95 E13.53774
G1 X64.55 Y68.856 E14.26127
G0 F1620 X64.55 Y69.55
G0 F4320 X64.35 Y69.55
G0 X64.249 Y69.198
;TYPE:SKIN
G1 F1800 X64.249 Y68.951 E14.26831
G1 X64.249 Y51.576 E14.76326
G0 F1620 X64.249 Y50.389
G0 X64.302 Y50.196
G0 F4320 X64.363 Y50.271
G0 X64.137 Y69.318
G0 X64.121 Y69.318
G1 F1800 X64.179 Y69.377 E14.76484
G0 F4320 X64.387 Y69.113
G1 F2400 E12.26484
;MESH:NONMESH
G0 F90 X64.387 Y69.113 Z0.438
G0 F4320 X64.363 Y69.113
G0 X63.085 Y69.393
G0 X50.415 Y69.393
G0 X49.443 Y69.393
G1 F2400 E14.76484
G0 F4320 X49.55 Y69.55
;TIME_ELAPSED:42.689666
;LAYER:1
M140 S60
M106 S255
;TYPE:WALL-OUTER
;MESH:doorClamp.stl
G1 F1800.3 X48.95 Y69.55 E14.78012
G1 X48.95 Y49.95 E15.27923
G1 X49.55 Y49.95 E15.29451
G1 X49.55 Y68.508 E15.76709
G0 F1620.3 X49.55 Y69.55
G0 F5760 X49.35 Y69.55
G0 X49.272 Y69.272
;TYPE:SKIN
G1 F1333.6 X49.249 Y69.048 E15.77134
G1 X49.249 Y51.633 E16.10036
G0 F1200.2 X49.249 Y50.487
G0 X49.245 Y50.244
G0 F5760 X49.113 Y50.367
G1 F2400 E13.60036
G0 F5760 X49.137 Y50.367
G0 X49.443 Y69.393
G0 X50.415 Y69.393
G0 X63.085 Y69.393
G0 X64.057 Y69.393
G1 F2400 E16.10036
G0 F5760 X64.55 Y69.55
;TYPE:WALL-OUTER
G1 F1800.3 X63.95 Y69.55 E16.11564
G1 X63.95 Y49.95 E16.61475
G1 X64.55 Y49.95 E16.63003
G1 X64.55 Y68.508 E17.10261
G0 F1620.3 X64.55 Y69.55
G0 F5760 X64.35 Y69.55
G0 X64.321 Y69.321
;TYPE:SKIN
G1 F1333.6 X64.249 Y69.145 E17.10616
G1 X64.249 Y51.554 E17.43493
G0 F1200.2 X64.249 Y50.336
G0 X64.169 Y50.169
G0 F5760 X64.387 Y50.387
G1 F2400 E14.93493
;MESH:NONMESH
G0 F90 X64.387 Y50.387 Z0.613
G0 F5760 X64.363 Y50.387
G0 X64.057 Y69.393
G0 X63.085 Y69.393
G0 X50.415 Y69.393
G0 X49.443 Y69.393
G1 F2400 E17.43493
G0 F5760 X49.55 Y69.55
;TIME_ELAPSED:48.888890
;LAYER:2
;TYPE:WALL-OUTER
;MESH:doorClamp.stl
G1 F2135.8 X48.95 Y69.55 E17.45021
G1 X48.95 Y49.95 E17.94932
G1 X49.55 Y49.95 E17.9646
G1 X49.55 Y68.508 E18.43718
G0 F1922.2 X49.55 Y69.55
G0 F7200 X49.35 Y69.55
G0 X49.226 Y69.272
;TYPE:SKIN
G1 F1139.1 X49.249 Y69.048 E18.44143
G1 X49.249 Y51.633 E18.77047
G0 F1025.2 X49.249 Y50.487
G0 X49.254 Y50.244
G0 F7200 X49.387 Y50.367
G1 F2400 E16.27047
G0 F7200 X49.363 Y50.367
G0 X49.443 Y69.393
G0 X50.415 Y69.393
G0 X63.085 Y69.393
G0 X64.057 Y69.393
G1 F2400 E18.77047
G0 F7200 X64.55 Y69.55
;TYPE:WALL-OUTER
G1 F2135.8 X63.95 Y69.55 E18.78575
G1 X63.95 Y49.95 E19.28486
G1 X64.55 Y49.95 E19.30014
G1 X64.55 Y68.508 E19.77272
G0 F1922.2 X64.55 Y69.55
G0 F7200 X64.35 Y69.55
G0 X64.249 Y69.198
;TYPE:SKIN
G1 F1139.1 X64.249 Y68.951 E19.7774
G1 X64.249 Y51.575 E20.10676
G0 F1025.2 X64.249 Y50.389
G0 X64.302 Y50.196
G0 F7200 X64.363 Y50.271
G0 X64.137 Y69.318
G0 X64.121 Y69.318
G1 F1139.1 X64.179 Y69.377 E20.10781
G0 F7200 X64.387 Y69.113
G1 F2400 E17.60781
;MESH:NONMESH
G0 F90 X64.387 Y69.113 Z0.788
G0 F7200 X64.363 Y69.113
G0 X63.085 Y69.393
G0 X50.415 Y69.393
G0 X49.443 Y69.393
G1 F2400 E20.10781
G0 F7200 X49.55 Y69.55
;TIME_ELAPSED:54.994719
;LAYER:3
;TYPE:WALL-OUTER
;MESH:doorClamp.stl
G1 F2024.9 X48.95 Y69.55 E20.12309
G1 X48.95 Y49.95 E20.6222
G1 X49.55 Y49.95 E20.63748
G1 X49.55 Y68.508 E21.11005
G0 F1822.4 X49.55 Y69.55
G0 F7200 X49.35 Y69.55
G0 X49.272 Y69.272
;TYPE:SKIN
G1 F1080 X49.249 Y69.048 E21.11431
G1 X49.249 Y51.633 E21.44333
G0 F972 X49.249 Y50.487
G0 X49.245 Y50.244
G0 F7200 X49.113 Y50.367
G1 F2400 E18.94333
G0 F7200 X49.137 Y50.367
G0 X49.443 Y69.393
G0 X50.415 Y69.393
G0 X63.085 Y69.393
G0 X64.057 Y69.393
G1 F2400 E21.44333
G0 F7200 X64.55 Y69.55
;TYPE:WALL-OUTER
G1 F2024.9 X63.95 Y69.55 E21.45861
G1 X63.95 Y49.95 E21.95772
G1 X64.55 Y49.95 E21.973
G1 X64.55 Y68.508 E22.44557
G0 F1822.4 X64.55 Y69.55
G0 F7200 X64.35 Y69.55
G0 X64.321 Y69.321
;TYPE:SKIN
G1 F1080 X64.249 Y69.145 E22.44913
G1 X64.249 Y51.554 E22.7779
G0 F972 X64.249 Y50.336
G0 X64.169 Y50.169
G0 F7200 X64.387 Y50.387
G1 F2400 E20.2779
;MESH:NONMESH
G0 F90 X64.387 Y50.387 Z0.963
G0 F7200 X64.363 Y50.387
G0 X64.057 Y69.393
G0 X63.085 Y69.393
G0 X50.415 Y69.393
G0 X49.443 Y69.393
G1 F2400 E22.7779
G0 F7200 X49.55 Y69.55
;TIME_ELAPSED:61.299497
;LAYER:4
;TYPE:WALL-OUTER
;MESH:doorClamp.stl
G1 F2135.8 X48.95 Y69.55 E22.79318
G1 X48.95 Y49.95 E23.29229
G1 X49.55 Y49.95 E23.30757
G1 X49.55 Y68.508 E23.78014
G0 F1922.2 X49.55 Y69.55
G0 F7200 X49.35 Y69.55
G0 X49.226 Y69.272
;TYPE:SKIN
G1 F1139.1 X49.249 Y69.048 E23.7844
G1 X49.249 Y51.633 E24.11344
G0 F1025.2 X49.249 Y50.487
G0 X49.254 Y50.244
G0 F7200 X49.387 Y50.367
G1 F2400 E21.61344
G0 F7200 X49.363 Y50.367
G0 X49.443 Y69.393
G0 X50.415 Y69.393
G0 X63.085 Y69.393
G0 X64.057 Y69.393
G1 F2400 E24.11344
G0 F7200 X64.55 Y69.55
;TYPE:WALL-OUTER
G1 F2135.8 X63.95 Y69.55 E24.12872
G1 X63.95 Y49.95 E24.62783
G1 X64.55 Y49.95 E24.64311
G1 X64.55 Y68.508 E25.11568
G0 F1922.2 X64.55 Y69.55
G0 F7200 X64.35 Y69.55
G0 X64.249 Y69.198
;TYPE:SKIN
G1 F1139.1 X64.249 Y68.951 E25.12036
G1 X64.249 Y51.575 E25.44972
G0 F1025.2 X64.249 Y50.389
G0 X64.302 Y50.196
G0 F7200 X64.363 Y50.271
G0 X64.137 Y69.318
G0 X64.121 Y69.318
G1 F1139.1 X64.179 Y69.377 E25.45078
G0 F7200 X64.387 Y69.113
G1 F2400 E22.95078
;MESH:NONMESH
G0 F90 X64.387 Y69.113 Z1.138
G0 F7200 X64.363 Y69.113
G0 X63.085 Y69.393
G0 X50.415 Y69.393
G0 X49.443 Y69.393
G1 F2400 E25.45078
G0 F7200 X49.55 Y69.55
;TIME_ELAPSED:67.405326
;LAYER:5
;TYPE:WALL-OUTER
;MESH:doorClamp.stl
G1 F2024.9 X48.95 Y69.55 E25.46605
G1 X48.95 Y49.95 E25.96516
G1 X49.55 Y49.95 E25.98044
G1 X49.55 Y68.508 E26.45302
G0 F1822.4 X49.55 Y69.55
G0 F7200 X49.35 Y69.55
G0 X49.272 Y69.272
;TYPE:SKIN
G1 F1080 X49.249 Y69.048 E26.45727
G1 X49.249 Y51.633 E26.7863
G0 F972 X49.249 Y50.487
G0 X49.245 Y50.244
G0 F7200 X49.113 Y50.367
G1 F2400 E24.2863
G0 F7200 X49.137 Y50.367
G0 X49.443 Y69.393
G0 X50.415 Y69.393
G0 X63.085 Y69.393
G0 X64.057 Y69.393
G1 F2400 E26.7863
G0 F7200 X64.55 Y69.55
;TYPE:WALL-OUTER
G1 F2024.9 X63.95 Y69.55 E26.80157
G1 X63.95 Y49.95 E27.30068
G1 X64.55 Y49.95 E27.31596
G1 X64.55 Y68.508 E27.78854
G0 F1822.4 X64.55 Y69.55
G0 F7200 X64.35 Y69.55
G0 X64.321 Y69.321
;TYPE:SKIN
G1 F1080 X64.249 Y69.145 E27.79209
G1 X64.249 Y51.554 E28.12087
G0 F972 X64.249 Y50.336
G0 X64.169 Y50.169
G0 F7200 X64.387 Y50.387
G1 F2400 E25.62087
;MESH:NONMESH
G0 F90 X64.387 Y50.387 Z1.313
G0 F7200 X64.363 Y50.387
G0 X64.057 Y69.393
G0 X63.085 Y69.393
G0 X50.415 Y69.393
G0 X49.443 Y69.393
G1 F2400 E28.12087
G0 F7200 X49.55 Y69.55
;TIME_ELAPSED:73.710105
;LAYER:6
;TYPE:WALL-OUTER
;MESH:doorClamp.stl
G1 F2250 X48.95 Y69.55 E28.13615
G1 X48.95 Y49.95 E28.63526
G1 X49.55 Y49.95 E28.65054
G1 X49.55 Y68.508 E29.12311
G0 F2025 X49.55 Y69.55
G0 F7200 X49.35 Y69.55
G0 X49.226 Y69.272
;TYPE:SKIN
G1 F1200 X49.249 Y69.048 E29.12737
G1 X49.249 Y51.633 E29.45641
G0 F1080 X49.249 Y50.487
G0 X49.254 Y50.244
G0 F7200 X49.387 Y50.367
G1 F2400 E26.95641
G0 F7200 X49.363 Y50.367
G0 X49.443 Y61.93
G0 X50.415 Y61.93
G0 X54.585 Y61.829
G0 X55.551 Y61.829
G0 X64.065 Y61.815
G1 F2400 E29.45641
G0 F7200 X64.55 Y61.93
;TYPE:WALL-OUTER
G1 F2250 X64.55 Y69.55 E29.65045
G1 X63.95 Y69.55 E29.66573
G1 X63.95 Y61.93 E29.85977
G1 X55.45 Y61.93 E30.07622
G1 X55.45 Y61.57 E30.08539
G1 X63.95 Y61.57 E30.30184
G1 X63.95 Y53.93 E30.49639
G1 X55.45 Y53.93 E30.71284
G1 X55.45 Y53.57 E30.72201
G1 X63.95 Y53.57 E30.93846
G1 X63.95 Y49.95 E31.03064
G1 X64.55 Y49.95 E31.04592
G1 X64.55 Y53.57 E31.1381
G1 X71.05 Y53.57 E31.30362
G1 X71.05 Y53.93 E31.31279
G1 X64.55 Y53.93 E31.47831
G1 X64.55 Y61.57 E31.67286
G1 X71.05 Y61.57 E31.83838
G1 X71.05 Y61.93 E31.84755
G1 X65.592 Y61.93 E31.98654
G0 F2025 X64.55 Y61.93
G0 F7200 X64.55 Y62.13
G0 X64.249 Y62.021
;TYPE:SKIN
G1 F1200 X64.249 Y61.774 E31.99127
G1 X64.249 Y51.045 E32.19676
G0 F1080 X64.249 Y50.389
G0 X64.302 Y50.196
G0 F7200 X64.228 Y50.137
G0 X64.137 Y62.141
G0 X64.249 Y62.269
G1 F1200 X64.249 Y62.516 E32.20153
G1 X64.249 Y68.869 E32.32433
G0 F1080 X64.249 Y69.198
G0 X64.15 Y69.347
G0 F7200 X64.113 Y69.318
G1 F2400 E29.82433
;MESH:NONMESH
G0 F90 X64.113 Y69.318 Z1.488
G0 F7200 X64.137 Y69.318
G0 X63.085 Y69.393
G0 X50.415 Y69.393
G0 X49.443 Y69.393
G1 F2400 E32.32433
G0 F7200 X49.55 Y69.55
;TIME_ELAPSED:81.323285
;LAYER:7
;TYPE:WALL-OUTER
;MESH:doorClamp.stl
G1 F2250 X48.95 Y69.55 E32.3396
G1 X48.95 Y49.95 E32.83871
G1 X49.55 Y49.95 E32.85399
G1 X49.55 Y68.508 E33.32657
G0 F2025 X49.55 Y69.55
G0 F7200 X49.35 Y69.55
G0 X49.272 Y69.272
;TYPE:SKIN
G1 F1200 X49.249 Y69.048 E33.33082
G1 X49.249 Y51.633 E33.65985
G0 F1080 X49.249 Y50.487
G0 X49.245 Y50.244
G0 F7200 X49.113 Y50.367
G1 F2400 E31.15985
G0 F7200 X49.137 Y50.367
G0 X49.443 Y53.887
G0 X50.415 Y53.887
G0 X54.585 Y53.887
G0 X55.557 Y53.887
G0 X70.725 Y53.887
;TYPE:WALL-INNER
G1 F2400 E33.65985
G1 F3000 X55.775 Y53.887 E34.04054
G1 X55.775 Y53.613 E34.04752
G1 X70.725 Y53.613 E34.34555
G1 X70.725 Y53.887 E34.35253
